;FLAVOR:UltiGCode
;TIME:2723
;MATERIAL:2847
;MATERIAL2:0
;NOZZLE_DIAMETER:0.4
;MINX:96
;MINY:136
;MINZ:0.2
;MAXX:124
;MAXY:164
;MAXZ:20
;Generated with Cura_SteamEngine 4.3.0
M82 ;absolute extrusion mode
;Basic settings: Layer height: 0.15 Walls: 0.8 Fill: {fill_density}
;Print time: 00:45:24
;Filament used: [0.0, 1.18]m [0.0, 3.5310419824218746]g
;Filament cost: [0.0, 0.0]
M190 S60 ;Uncomment to add your own bed temperature line
M109 S200 ;Uncomment to add your own temperature line
G21        ;metric values
G91                                    ;relative positioning
G1 Z15.0 F120 ;move the platform down 15mm
G90        ;absolute positioning
M82        ;set extruder to absolute mode
M107       ;start with the fan off
G28 X0 Y0  ;move X/Y to min endstops
G28 Z0     ;move Z to min endstops
G605 S1
G28 X
G1 X0 Y0 Z15.0 F9000 ;move the platform down 15mm
; Prime the T0 nozzle
G92 E0
G0 X0 Y15 Z0.2 F1000
G1 Y165 E18.75 F1000
G0 X0.4
G1 Y15 E37.5 F1000
G0 X0.8
G1 Y165 E56.25 F1000
G0 X1.2
G1 Y15 E75 F1000
G0 X0 Y0 Z10 F1000
G92 E0                  ;zero the extruded length again
; End Prime	G1 F120
;Put printing message on LCD screen
M117 Gimli is Printing...

G92 E0
G92 E0
G10
;LAYER_COUNT:133
;LAYER:0
M107
G0 F3600 X97.86 Y136.635 Z0.2
;TYPE:SKIRT
G11
G1 F750 X98.357 Y136.366 E0.04521
G1 X98.887 Y136.169 E0.09044
G1 X99.44 Y136.05 E0.1357
G1 X99.897 Y136.011 E0.17239
G1 X100.218 Y136.002 E0.19808
G1 X100.33 Y136 E0.20704
G1 X119.35 Y136 E1.72864
G1 X120.048 Y136.01 E1.78449
G1 X120.612 Y136.058 E1.82977
G1 X121.162 Y136.185 E1.87493
G1 X121.69 Y136.389 E1.92021
G1 X122.184 Y136.664 E1.96544
G1 X122.633 Y137.007 E2.01064
G1 X123.03 Y137.409 E2.05584
G1 X123.367 Y137.864 E2.10114
G1 X123.635 Y138.361 E2.14631
G1 X123.831 Y138.891 E2.19152
G1 X123.951 Y139.444 E2.23679
G1 X123.989 Y139.898 E2.27324
G1 X123.998 Y140.218 E2.29885
G1 X124 Y140.33 E2.30781
G1 X124 Y159.314 E3.82653
G1 X123.991 Y160.041 E3.88469
G1 X123.944 Y160.604 E3.92989
G1 X123.818 Y161.155 E3.97511
G1 X123.616 Y161.683 E4.02033
G1 X123.341 Y162.177 E4.06556
G1 X122.999 Y162.627 E4.11078
G1 X122.597 Y163.025 E4.15603
G1 X122.144 Y163.362 E4.2012
G1 X121.647 Y163.632 E4.24645
G1 X121.117 Y163.829 E4.29169
G1 X120.565 Y163.95 E4.33689
G1 X120.103 Y163.989 E4.37399
G1 X119.782 Y163.998 E4.39968
G1 X119.67 Y164 E4.40864
G1 X100.655 Y164 E5.92984
G1 X99.957 Y163.991 E5.98568
G1 X99.394 Y163.943 E6.03089
G1 X98.843 Y163.817 E6.0761
G1 X98.315 Y163.615 E6.12133
G1 X97.821 Y163.34 E6.16656
G1 X97.371 Y162.998 E6.21178
G1 X96.973 Y162.596 E6.25703
G1 X96.637 Y162.142 E6.30222
G1 X96.367 Y161.645 E6.34747
G1 X96.17 Y161.115 E6.3927
G1 X96.05 Y160.563 E6.43789
G1 X96.01 Y160.099 E6.47515
G1 X96.001 Y159.766 E6.5018
G1 X96 Y159.658 E6.51044
G1 X96 Y140.62 E8.03348
G1 X96.009 Y139.955 E8.08668
G1 X96.057 Y139.392 E8.13189
G1 X96.183 Y138.841 E8.1771
G1 X96.386 Y138.313 E8.22236
G1 X96.662 Y137.819 E8.26763
G1 X97.004 Y137.369 E8.31285
G1 X97.406 Y136.972 E8.35804
G1 X97.86 Y136.635 E8.40328
G0 F3600 X98.241 Y136.873
G1 F750 X98.726 Y136.645 E8.44615
G1 X99.24 Y136.492 E8.48905
G1 X99.908 Y136.41 E8.5429
G1 X100.229 Y136.401 E8.56859
G1 X100.33 Y136.4 E8.57667
G1 X119.345 Y136.4 E10.09787
G1 X120.043 Y136.41 E10.15371
G1 X120.577 Y136.458 E10.1966
G1 X121.098 Y136.584 E10.23949
G1 X121.595 Y136.787 E10.28243
G1 X122.056 Y137.061 E10.32534
G1 X122.471 Y137.4 E10.36821
G1 X122.831 Y137.798 E10.41114
G1 X123.128 Y138.244 E10.45401
G1 X123.356 Y138.73 E10.49695
G1 X123.508 Y139.244 E10.53983
G1 X123.59 Y139.909 E10.59343
G1 X123.599 Y140.229 E10.61904
G1 X123.6 Y140.33 E10.62712
G1 X123.6 Y159.309 E12.14544
G1 X123.591 Y160.036 E12.20361
G1 X123.544 Y160.57 E12.24649
G1 X123.419 Y161.091 E12.28936
G1 X123.217 Y161.588 E12.33228
G1 X122.944 Y162.05 E12.37521
G1 X122.606 Y162.466 E12.41809
G1 X122.209 Y162.827 E12.46101
G1 X121.763 Y163.125 E12.50393
G1 X121.278 Y163.353 E12.5468
G1 X120.764 Y163.507 E12.58973
G1 X120.092 Y163.59 E12.64389
G1 X119.771 Y163.599 E12.66958
G1 X119.67 Y163.6 E12.67766
G1 X100.661 Y163.6 E14.19838
G1 X99.963 Y163.591 E14.25423
G1 X99.428 Y163.544 E14.29719
G1 X98.907 Y163.418 E14.34008
G1 X98.41 Y163.216 E14.38299
G1 X97.949 Y162.943 E14.42586
G1 X97.533 Y162.604 E14.46879
G1 X97.172 Y162.208 E14.51165
G1 X96.874 Y161.762 E14.55457
G1 X96.646 Y161.276 E14.59751
G1 X96.493 Y160.762 E14.64041
G1 X96.41 Y160.088 E14.69474
G1 X96.401 Y159.755 E14.72139
G1 X96.4 Y159.658 E14.72915
G1 X96.4 Y140.625 E16.25179
G1 X96.409 Y139.96 E16.305
G1 X96.457 Y139.426 E16.34789
G1 X96.583 Y138.905 E16.39077
G1 X96.785 Y138.408 E16.43369
G1 X97.058 Y137.947 E16.47655
G1 X97.397 Y137.531 E16.51948
G1 X97.794 Y137.171 E16.56236
G1 X98.241 Y136.873 E16.60533
G0 F3600 X98.18 Y137.383
G1 F750 X98.617 Y137.128 E16.64581
G1 X99.088 Y136.944 E16.68626
G1 X99.582 Y136.838 E16.72668
G1 X99.919 Y136.81 E16.75374
G1 X100.24 Y136.801 E16.77943
G1 X100.33 Y136.8 E16.78663
G1 X119.339 Y136.8 E18.30735
G1 X120.037 Y136.81 E18.36319
G1 X120.54 Y136.857 E18.40361
G1 X121.03 Y136.983 E18.44408
G1 X121.494 Y137.185 E18.48457
G1 X121.92 Y137.457 E18.525
G1 X122.298 Y137.792 E18.56541
G1 X122.618 Y138.183 E18.60583
G1 X122.873 Y138.62 E18.64631
G1 X123.056 Y139.091 E18.68673
G1 X123.163 Y139.585 E18.72717
G1 X123.19 Y139.92 E18.75405
G1 X123.199 Y140.24 E18.77966
G1 X123.2 Y140.33 E18.78686
G1 X123.2 Y159.304 E20.30478
G1 X123.191 Y160.031 E20.36295
G1 X123.145 Y160.534 E20.40336
G1 X123.02 Y161.024 E20.44381
G1 X122.819 Y161.488 E20.48426
G1 X122.548 Y161.915 E20.52472
G1 X122.213 Y162.294 E20.56519
G1 X121.823 Y162.615 E20.6056
G1 X121.387 Y162.871 E20.64605
G1 X120.916 Y163.054 E20.68647
G1 X120.422 Y163.162 E20.72693
G1 X120.081 Y163.19 E20.7543
G1 X119.76 Y163.199 E20.77999
G1 X119.67 Y163.2 E20.78719
G1 X100.666 Y163.2 E22.30751
G1 X99.968 Y163.191 E22.36335
G1 X99.464 Y163.144 E22.40385
G1 X98.974 Y163.019 E22.4443
G1 X98.51 Y162.818 E22.48476
G1 X98.084 Y162.547 E22.52515
G1 X97.705 Y162.212 E22.56561
G1 X97.384 Y161.821 E22.60608
G1 X97.129 Y161.385 E22.64649
G1 X96.945 Y160.914 E22.68695
G1 X96.838 Y160.42 E22.72738
G1 X96.81 Y160.077 E22.75491
G1 X96.801 Y159.744 E22.78156
G1 X96.8 Y159.658 E22.78844
G1 X96.8 Y140.631 E24.3106
G1 X96.809 Y139.966 E24.36381
G1 X96.856 Y139.462 E24.4043
G1 X96.982 Y138.973 E24.4447
G1 X97.183 Y138.509 E24.48515
G1 X97.454 Y138.082 E24.52561
G1 X97.789 Y137.704 E24.56602
G1 X98.18 Y137.383 E24.60649
G10
;MESH:xyzCalibration_cube.stl
G0 F3600 X100.614 Y139.335
G0 X100.614 Y140.614
G0 X100.67 Y159.33
G0 X100.6 Y159.4
;TYPE:WALL-INNER
G11
G1 F750 X100.6 Y140.6 E26.11049
G1 X119.4 Y140.6 E27.61449
G1 X119.4 Y159.4 E29.11849
G1 X100.6 Y159.4 E30.62249
G0 F3600 X100.2 Y159.8
;TYPE:WALL-OUTER
G1 F750 X100.2 Y140.2 E32.19049
G1 X119.8 Y140.2 E33.75849
G1 X119.8 Y159.8 E35.32649
G1 X100.2 Y159.8 E36.89449
G0 F3600 X100.2 Y159.6
G0 X100.99 Y159.01
;TYPE:SKIN
G1 F750 X100.99 Y140.99 E38.33609
G1 X119.01 Y140.99 E39.77769
G1 X119.01 Y159.01 E41.21929
G1 X100.99 Y159.01 E42.66089
G0 F3600 X101.694 Y158.828
G1 F750 X101.17 Y158.304 E42.72017
G0 F3600 X101.17 Y157.738
G1 F750 X102.26 Y158.828 E42.84349
G0 F3600 X102.826 Y158.828
G1 F750 X101.17 Y157.172 E43.03085
G0 F3600 X101.17 Y156.607
G1 F750 X103.391 Y158.828 E43.28213
G0 F3600 X103.957 Y158.828
G1 F750 X101.17 Y156.041 E43.59744
G0 F3600 X101.17 Y155.475
G1 F750 X104.523 Y158.828 E43.97679
G0 F3600 X105.088 Y158.828
G1 F750 X101.17 Y154.91 E44.42006
G0 F3600 X101.17 Y154.344
G1 F750 X105.654 Y158.828 E44.92737
G0 F3600 X106.22 Y158.828
G1 F750 X101.17 Y153.778 E45.49871
G0 F3600 X101.17 Y153.213
G1 F750 X106.785 Y158.828 E46.13397
G0 F3600 X107.351 Y158.828
G1 F750 X101.17 Y152.647 E46.83327
G0 F3600 X101.17 Y152.081
G1 F750 X107.917 Y158.828 E47.59661
G0 F3600 X108.482 Y158.828
G1 F750 X101.17 Y151.516 E48.42387
G0 F3600 X101.17 Y150.95
G1 F750 X109.048 Y158.828 E49.31516
G0 F3600 X109.614 Y158.828
G1 F750 X101.17 Y150.384 E50.27049
G0 F3600 X101.17 Y149.818
G1 F750 X110.179 Y158.828 E51.2898
G0 F3600 X110.745 Y158.828
G1 F750 X101.17 Y149.253 E52.37309
G0 F3600 X101.17 Y148.687
G1 F750 X111.311 Y158.828 E53.52041
G0 F3600 X111.877 Y158.828
G1 F750 X101.17 Y148.121 E54.73177
G0 F3600 X101.17 Y147.556
G1 F750 X112.442 Y158.828 E56.00705
G0 F3600 X113.008 Y158.828
G1 F750 X101.17 Y146.99 E57.34637
G0 F3600 X101.17 Y146.424
G1 F750 X113.574 Y158.828 E58.74972
G0 F3600 X114.139 Y158.828
G1 F750 X101.17 Y145.859 E60.21699
G0 F3600 X101.17 Y145.293
G1 F750 X114.705 Y158.828 E61.74831
G0 F3600 X115.271 Y158.828
G1 F750 X101.17 Y144.727 E63.34365
G0 F3600 X101.17 Y144.162
G1 F750 X115.836 Y158.828 E65.00292
G0 F3600 X116.402 Y158.828
G1 F750 X101.17 Y143.596 E66.72622
G0 F3600 X101.17 Y143.03
G1 F750 X116.968 Y158.828 E68.51356
G0 F3600 X117.533 Y158.828
G1 F750 X101.17 Y142.465 E70.36483
G0 F3600 X101.17 Y141.899
G1 F750 X118.099 Y158.828 E72.28012
G0 F3600 X118.665 Y158.828
G1 F750 X101.17 Y141.333 E74.25946
G0 F3600 X101.571 Y141.169
G1 F750 X118.83 Y158.427 E76.21203
G0 F3600 X118.83 Y157.862
G1 F750 X102.137 Y141.169 E78.10063
G0 F3600 X102.703 Y141.169
G1 F750 X118.83 Y157.296 E79.92519
G0 F3600 X118.83 Y156.73
G1 F750 X103.268 Y141.169 E81.68577
G0 F3600 X103.834 Y141.169
G1 F750 X118.83 Y156.165 E83.38238
G0 F3600 X118.83 Y155.599
G1 F750 X104.4 Y141.169 E85.01495
G0 F3600 X104.965 Y141.169
G1 F750 X118.83 Y155.033 E86.58354
G0 F3600 X118.83 Y154.468
G1 F750 X105.531 Y141.169 E88.08815
G0 F3600 X106.097 Y141.169
G1 F750 X118.83 Y153.902 E89.52872
G0 F3600 X118.83 Y153.336
G1 F750 X106.662 Y141.169 E90.90532
G0 F3600 X107.228 Y141.169
G1 F750 X118.83 Y152.771 E92.21793
G0 F3600 X118.83 Y152.205
G1 F750 X107.794 Y141.169 E93.46651
G0 F3600 X108.359 Y141.169
G1 F750 X118.83 Y151.639 E94.65111
G0 F3600 X118.83 Y151.074
G1 F750 X108.925 Y141.169 E95.77174
G0 F3600 X109.491 Y141.169
G1 F750 X118.83 Y150.508 E96.82833
G0 F3600 X118.83 Y149.942
G1 F750 X110.056 Y141.169 E97.82093
G0 F3600 X110.622 Y141.169
G1 F750 X118.83 Y149.377 E98.74956
G0 F3600 X118.83 Y148.811
G1 F750 X111.188 Y141.169 E99.61416
G0 F3600 X111.753 Y141.169
G1 F750 X118.83 Y148.245 E100.41477
G0 F3600 X118.83 Y147.679
G1 F750 X112.319 Y141.169 E101.15135
G0 F3600 X112.885 Y141.169
G1 F750 X118.83 Y147.114 E101.82395
G0 F3600 X118.83 Y146.548
G1 F750 X113.451 Y141.169 E102.43251
G0 F3600 X114.016 Y141.169
G1 F750 X118.83 Y145.982 E102.9771
G0 F3600 X118.83 Y145.417
G1 F750 X114.582 Y141.169 E103.45771
G0 F3600 X115.148 Y141.169
G1 F750 X118.83 Y144.851 E103.87428
G0 F3600 X118.83 Y144.285
G1 F750 X115.713 Y141.169 E104.22687
G0 F3600 X116.279 Y141.169
G1 F750 X118.83 Y143.72 E104.51548
G0 F3600 X118.83 Y143.154
G1 F750 X116.845 Y141.169 E104.74006
G0 F3600 X117.41 Y141.169
G1 F750 X118.83 Y142.588 E104.90066
G0 F3600 X118.83 Y142.023
G1 F750 X117.976 Y141.169 E104.99728
G0 F3600 X118.542 Y141.169
G1 F750 X118.83 Y141.457 E105.02986
;MESH:NONMESH
G0 F600 X118.83 Y141.457 Z0.35
G0 F3600 X100.67 Y159.33
G0 X100.6 Y159.4
;TIME_ELAPSED:112.037830
;LAYER:1
M106 S255
;TYPE:WALL-INNER
;MESH:xyzCalibration_cube.stl
G1 F1125 X100.6 Y140.6 E106.15786
G1 X119.4 Y140.6 E107.28586
G1 X119.4 Y159.4 E108.41386
G1 X100.6 Y159.4 E109.54186
G0 F5400 X100.2 Y159.8
;TYPE:WALL-OUTER
G1 F750 X100.2 Y140.2 E110.71786
G1 X119.8 Y140.2 E111.89386
G1 X119.8 Y159.8 E113.06986
G1 X100.2 Y159.8 E114.24586
G0 F5400 X100.2 Y159.6
G0 X100.99 Y159.01
;TYPE:SKIN
G1 F750 X100.99 Y140.99 E115.32706
G1 X119.01 Y140.99 E116.40826
G1 X119.01 Y159.01 E117.48946
G1 X100.99 Y159.01 E118.57066
G0 F5400 X101.17 Y141.509
G1 F750 X101.51 Y141.168 E118.59955
G0 F5400 X102.075 Y141.168
G1 F750 X101.17 Y142.074 E118.67639
G0 F5400 X101.17 Y142.64
G1 F750 X102.641 Y141.168 E118.80125
G0 F5400 X103.207 Y141.168
G1 F750 X101.17 Y143.206 E118.97413
G0 F5400 X101.17 Y143.771
G1 F750 X103.772 Y141.168 E119.19496
G0 F5400 X104.338 Y141.168
G1 F750 X101.17 Y144.337 E119.46382
G0 F5400 X101.17 Y144.903
G1 F750 X104.904 Y141.168 E119.7807
G0 F5400 X105.469 Y141.168
G1 F750 X101.17 Y145.468 E120.14553
G0 F5400 X101.17 Y146.034
G1 F750 X106.035 Y141.168 E120.55838
G0 F5400 X106.601 Y141.168
G1 F750 X101.17 Y146.6 E121.01926
G0 F5400 X101.17 Y147.165
G1 F750 X107.166 Y141.168 E121.52808
G0 F5400 X107.732 Y141.168
G1 F750 X101.17 Y147.731 E122.08492
G0 F5400 X101.17 Y148.297
G1 F750 X108.298 Y141.168 E122.6898
G0 F5400 X108.864 Y141.168
G1 F750 X101.17 Y148.862 E123.34265
G0 F5400 X101.17 Y149.428
G1 F750 X109.429 Y141.168 E124.0435
G0 F5400 X109.995 Y141.168
G1 F750 X101.17 Y149.994 E124.79236
G0 F5400 X101.17 Y150.56
G1 F750 X110.561 Y141.168 E125.58926
G0 F5400 X111.126 Y141.168
G1 F750 X101.17 Y151.125 E126.4341
G0 F5400 X101.17 Y151.691
G1 F750 X111.692 Y141.168 E127.32696
G0 F5400 X112.258 Y141.168
G1 F750 X101.17 Y152.257 E128.26785
G0 F5400 X101.17 Y152.822
G1 F750 X112.823 Y141.168 E129.25668
G0 F5400 X113.389 Y141.168
G1 F750 X101.17 Y153.388 E130.29354
G0 F5400 X101.17 Y153.954
G1 F750 X113.955 Y141.168 E131.37843
G0 F5400 X114.52 Y141.168
G1 F750 X101.17 Y154.519 E132.51125
G0 F5400 X101.17 Y155.085
G1 F750 X115.086 Y141.168 E133.69211
G0 F5400 X115.652 Y141.168
G1 F750 X101.17 Y155.651 E134.92099
G0 F5400 X101.17 Y156.216
G1 F750 X116.217 Y141.168 E136.19781
G0 F5400 X116.783 Y141.168
G1 F750 X101.17 Y156.782 E137.52266
G0 F5400 X101.17 Y157.348
G1 F750 X117.349 Y141.168 E138.89554
G0 F5400 X117.915 Y141.168
G1 F750 X101.17 Y157.913 E140.3164
G0 F5400 X101.17 Y158.479
G1 F750 X118.48 Y141.168 E141.78524
G0 F5400 X118.83 Y141.385
G1 F750 X101.385 Y158.829 E143.26546
G0 F5400 X101.951 Y158.829
G1 F750 X118.83 Y141.95 E144.69769
G0 F5400 X118.83 Y142.516
G1 F750 X102.517 Y158.829 E146.08189
G0 F5400 X103.082 Y158.829
G1 F750 X118.83 Y143.082 E147.41811
G0 F5400 X118.83 Y143.648
G1 F750 X103.648 Y158.829 E148.70631
G0 F5400 X104.214 Y158.829
G1 F750 X118.83 Y144.213 E149.94651
G0 F5400 X118.83 Y144.779
G1 F750 X104.779 Y158.829 E151.13874
G0 F5400 X105.345 Y158.829
G1 F750 X118.83 Y145.345 E152.28294
G0 F5400 X118.83 Y145.91
G1 F750 X105.911 Y158.829 E153.37915
G0 F5400 X106.476 Y158.829
G1 F750 X118.83 Y146.476 E154.42738
G0 F5400 X118.83 Y147.042
G1 F750 X107.042 Y158.829 E155.42758
G0 F5400 X107.608 Y158.829
G1 F750 X118.83 Y147.607 E156.3798
G0 F5400 X118.83 Y148.173
G1 F750 X108.173 Y158.829 E157.28403
G0 F5400 X108.739 Y158.829
G1 F750 X118.83 Y148.739 E158.14024
G0 F5400 X118.83 Y149.304
G1 F750 X109.305 Y158.829 E158.94846
G0 F5400 X109.87 Y158.829
G1 F750 X118.83 Y149.87 E159.7087
G0 F5400 X118.83 Y150.436
G1 F750 X110.436 Y158.829 E160.42091
G0 F5400 X111.002 Y158.829
G1 F750 X118.83 Y151.001 E161.08514
G0 F5400 X118.83 Y151.567
G1 F750 X111.568 Y158.829 E161.70134
G0 F5400 X112.133 Y158.829
G1 F750 X118.83 Y152.133 E162.26956
G0 F5400 X118.83 Y152.699
G1 F750 X112.699 Y158.829 E162.78975
G0 F5400 X113.265 Y158.829
G1 F750 X118.83 Y153.264 E163.26196
G0 F5400 X118.83 Y153.83
G1 F750 X113.83 Y158.829 E163.68618
G0 F5400 X114.396 Y158.829
G1 F750 X118.83 Y154.396 E164.06237
G0 F5400 X118.83 Y154.961
G1 F750 X114.962 Y158.829 E164.39058
G0 F5400 X115.527 Y158.829
G1 F750 X118.83 Y155.527 E164.67081
G0 F5400 X118.83 Y156.093
G1 F750 X116.093 Y158.829 E164.90301
G0 F5400 X116.659 Y158.829
G1 F750 X118.83 Y156.658 E165.08723
G0 F5400 X118.83 Y157.224
G1 F750 X117.224 Y158.829 E165.22346
G0 F5400 X117.79 Y158.829
G1 F750 X118.83 Y157.79 E165.31166
G0 F5400 X118.83 Y158.355
G1 F750 X118.356 Y158.829 E165.35188
;MESH:NONMESH
G0 F600 X118.356 Y158.829 Z0.5
G0 F5400 X100.67 Y159.33
G0 X100.6 Y159.4
;TIME_ELAPSED:192.304604
;LAYER:2
;TYPE:WALL-INNER
;MESH:xyzCalibration_cube.stl
G1 F1500 X100.6 Y140.6 E166.47988
G1 X119.4 Y140.6 E167.60788
G1 X119.4 Y159.4 E168.73588
G1 X100.6 Y159.4 E169.86388
G0 F7200 X100.2 Y159.8
;TYPE:WALL-OUTER
G1 F750 X100.2 Y140.2 E171.03988
G1 X119.8 Y140.2 E172.21588
G1 X119.8 Y159.8 E173.39188
G1 X100.2 Y159.8 E174.56788
G0 F7200 X100.2 Y159.6
G0 X100.99 Y159.01
;TYPE:SKIN
G1 F750 X100.99 Y140.99 E175.64908
G1 X119.01 Y140.99 E176.73028
G1 X119.01 Y159.01 E177.81148
G1 X100.99 Y159.01 E178.89268
G0 F7200 X101.694 Y158.828
