;FLAVOR:UltiGCode
;TIME:6487
;MATERIAL:7488
;MATERIAL2:0
;NOZZLE_DIAMETER:0.4
;MINX:91.4
;MINY:131.4
;MINZ:0.2
;MAXX:128.6
;MAXY:168.6
;MAXZ:29.9
;Generated with Cura_SteamEngine 4.3.0
M82 ;absolute extrusion mode
;Basic settings: Layer height: 0.15 Walls: 0.8 Fill: {fill_density}
;Print time: 01:48:08
;Filament used: [0.0, 3.11]m [0.0, 9.28600701171875]g
;Filament cost: [0.0, 0.0]
M190 S60 ;Uncomment to add your own bed temperature line
M109 S200 ;Uncomment to add your own temperature line
G21        ;metric values
G91                                    ;relative positioning
G1 Z15.0 F120 ;move the platform down 15mm
G90        ;absolute positioning
M82        ;set extruder to absolute mode
M107       ;start with the fan off
G28 X0 Y0  ;move X/Y to min endstops
G28 Z0     ;move Z to min endstops
G605 S1
G28 X
G1 X0 Y0 Z15.0 F9000 ;move the platform down 15mm
; Prime the T0 nozzle
G92 E0
G0 X0 Y15 Z0.2 F1000
G1 Y165 E18.75 F1000
G0 X0.4
G1 Y15 E37.5 F1000
G0 X0.8
G1 Y165 E56.25 F1000
G0 X1.2
G1 Y15 E75 F1000
G0 X0 Y0 Z10 F1000
G92 E0                  ;zero the extruded length again
; End Prime	G1 F120
;Put printing message on LCD screen
M117 Gimli is Printing...

G92 E0
G92 E0
G10
;LAYER_COUNT:199
;LAYER:0
M107
G0 F3600 X92.794 Y132.171 Z0.2
;TYPE:SKIRT
G11
G1 F750 X93.241 Y131.873 E0.04298
G1 X93.726 Y131.645 E0.08585
G1 X94.24 Y131.492 E0.12875
G1 X94.908 Y131.41 E0.1826
G1 X95.229 Y131.401 E0.20829
G1 X95.33 Y131.4 E0.21637
G1 X124.345 Y131.4 E2.53757
G1 X125.043 Y131.41 E2.59341
G1 X125.577 Y131.458 E2.6363
G1 X126.098 Y131.584 E2.67919
G1 X126.595 Y131.787 E2.72213
G1 X127.056 Y132.061 E2.76504
G1 X127.471 Y132.4 E2.80791
G1 X127.831 Y132.798 E2.85084
G1 X128.128 Y133.244 E2.89371
G1 X128.356 Y133.73 E2.93665
G1 X128.508 Y134.244 E2.97953
G1 X128.59 Y134.909 E3.03314
G1 X128.599 Y135.229 E3.05875
G1 X128.6 Y135.33 E3.06683
G1 X128.6 Y164.309 E5.38515
G1 X128.591 Y165.036 E5.44331
G1 X128.544 Y165.57 E5.4862
G1 X128.419 Y166.091 E5.52906
G1 X128.217 Y166.588 E5.57198
G1 X127.944 Y167.05 E5.61491
G1 X127.606 Y167.466 E5.65779
G1 X127.209 Y167.827 E5.70071
G1 X126.763 Y168.125 E5.74363
G1 X126.278 Y168.353 E5.7865
G1 X125.764 Y168.507 E5.82943
G1 X125.092 Y168.59 E5.88359
G1 X124.771 Y168.599 E5.90928
G1 X124.67 Y168.6 E5.91736
G1 X95.661 Y168.6 E8.23808
G1 X94.963 Y168.591 E8.29393
G1 X94.428 Y168.544 E8.33689
G1 X93.907 Y168.418 E8.37978
G1 X93.41 Y168.216 E8.42269
G1 X92.949 Y167.943 E8.46556
G1 X92.533 Y167.604 E8.50849
G1 X92.172 Y167.208 E8.55135
G1 X91.874 Y166.762 E8.59427
G1 X91.646 Y166.276 E8.63721
G1 X91.493 Y165.762 E8.68012
G1 X91.41 Y165.088 E8.73444
G1 X91.401 Y164.755 E8.76109
G1 X91.4 Y164.658 E8.76885
G1 X91.4 Y135.625 E11.09149
G1 X91.409 Y134.96 E11.1447
G1 X91.457 Y134.426 E11.18759
G1 X91.583 Y133.905 E11.23047
G1 X91.785 Y133.408 E11.27339
G1 X92.058 Y132.947 E11.31625
G1 X92.397 Y132.531 E11.35918
G1 X92.794 Y132.171 E11.40206
G0 F3600 X93.18 Y132.383
G1 F750 X93.617 Y132.128 E11.44253
G1 X94.088 Y131.944 E11.48299
G1 X94.582 Y131.838 E11.52341
G1 X94.919 Y131.81 E11.55046
G1 X95.24 Y131.801 E11.57615
G1 X95.33 Y131.8 E11.58335
G1 X124.339 Y131.8 E13.90407
G1 X125.037 Y131.81 E13.95991
G1 X125.54 Y131.857 E14.00033
G1 X126.03 Y131.983 E14.04081
G1 X126.494 Y132.185 E14.08129
G1 X126.92 Y132.457 E14.12172
G1 X127.298 Y132.792 E14.16213
G1 X127.618 Y133.183 E14.20255
G1 X127.873 Y133.62 E14.24303
G1 X128.056 Y134.091 E14.28345
G1 X128.163 Y134.585 E14.32389
G1 X128.19 Y134.92 E14.35078
G1 X128.199 Y135.24 E14.37639
G1 X128.2 Y135.33 E14.38359
G1 X128.2 Y164.304 E16.70151
G1 X128.191 Y165.031 E16.75967
G1 X128.145 Y165.534 E16.80008
G1 X128.02 Y166.024 E16.84053
G1 X127.819 Y166.488 E16.88099
G1 X127.548 Y166.915 E16.92145
G1 X127.213 Y167.294 E16.96191
G1 X126.823 Y167.615 E17.00232
G1 X126.387 Y167.871 E17.04277
G1 X125.916 Y168.054 E17.08319
G1 X125.422 Y168.162 E17.12365
G1 X125.081 Y168.19 E17.15102
G1 X124.76 Y168.199 E17.17671
G1 X124.67 Y168.2 E17.18391
G1 X95.666 Y168.2 E19.50423
G1 X94.968 Y168.191 E19.56007
G1 X94.464 Y168.144 E19.60057
G1 X93.974 Y168.019 E19.64103
G1 X93.51 Y167.818 E19.68148
G1 X93.084 Y167.547 E19.72187
G1 X92.705 Y167.212 E19.76234
G1 X92.384 Y166.821 E19.80281
G1 X92.129 Y166.385 E19.84321
G1 X91.945 Y165.914 E19.88367
G1 X91.838 Y165.42 E19.9241
G1 X91.81 Y165.077 E19.95164
G1 X91.801 Y164.744 E19.97829
G1 X91.8 Y164.658 E19.98517
G1 X91.8 Y135.631 E22.30733
G1 X91.809 Y134.966 E22.36053
G1 X91.856 Y134.462 E22.40103
G1 X91.982 Y133.973 E22.44142
G1 X92.183 Y133.509 E22.48188
G1 X92.454 Y133.082 E22.52234
G1 X92.789 Y132.704 E22.56274
G1 X93.18 Y132.383 E22.60321
G10
;MESH:xyzCalibration_cube.stl
G0 F3600 X95.614 Y134.335
G0 X95.614 Y135.614
G0 X95.67 Y164.33
G0 X95.6 Y164.4
;TYPE:WALL-INNER
G11
G1 F750 X95.6 Y135.6 E24.90721
G1 X124.4 Y135.6 E27.21121
G1 X124.4 Y164.4 E29.51521
G1 X95.6 Y164.4 E31.81921
G0 F3600 X95.2 Y164.8
;TYPE:WALL-OUTER
G1 F750 X95.2 Y135.2 E34.18721
G1 X124.8 Y135.2 E36.55521
G1 X124.8 Y164.8 E38.92321
G1 X95.2 Y164.8 E41.29121
G0 F3600 X95.2 Y164.6
G0 X95.99 Y164.01
;TYPE:SKIN
G1 F750 X95.99 Y135.99 E43.53281
G1 X124.01 Y135.99 E45.77441
G1 X124.01 Y164.01 E48.01601
G1 X95.99 Y164.01 E50.25761
G0 F3600 X96.512 Y163.828
G1 F750 X96.17 Y163.486 E50.29631
G0 F3600 X96.17 Y162.92
G1 F750 X97.077 Y163.828 E50.39898
G0 F3600 X97.643 Y163.828
G1 F750 X96.17 Y162.355 E50.56563
G0 F3600 X96.17 Y161.789
G1 F750 X98.209 Y163.828 E50.79632
G0 F3600 X98.775 Y163.828
G1 F750 X96.17 Y161.223 E51.09104
G0 F3600 X96.17 Y160.658
G1 F750 X99.34 Y163.828 E51.44968
G0 F3600 X99.906 Y163.828
G1 F750 X96.17 Y160.092 E51.87236
G0 F3600 X96.17 Y159.526
G1 F750 X100.472 Y163.828 E52.35908
G0 F3600 X101.037 Y163.828
G1 F750 X96.17 Y158.961 E52.90972
G0 F3600 X96.17 Y158.395
G1 F750 X101.603 Y163.828 E53.52439
G0 F3600 X102.169 Y163.828
G1 F750 X96.17 Y157.829 E54.2031
G0 F3600 X96.17 Y157.264
G1 F750 X102.734 Y163.828 E54.94573
G0 F3600 X103.3 Y163.828
G1 F750 X96.17 Y156.698 E55.7524
G0 F3600 X96.17 Y156.132
G1 F750 X103.866 Y163.828 E56.6231
G0 F3600 X104.431 Y163.828
G1 F750 X96.17 Y155.567 E57.55773
G0 F3600 X96.17 Y155.001
G1 F750 X104.997 Y163.828 E58.55639
G0 F3600 X105.563 Y163.828
G1 F750 X96.17 Y154.435 E59.61908
G0 F3600 X96.17 Y153.869
G1 F750 X106.128 Y163.828 E60.74576
G0 F3600 X106.694 Y163.828
G1 F750 X96.17 Y153.304 E61.93642
G0 F3600 X96.17 Y152.738
G1 F750 X107.26 Y163.828 E63.19111
G0 F3600 X107.826 Y163.828
G1 F750 X96.17 Y152.172 E64.50983
G0 F3600 X96.17 Y151.607
G1 F750 X108.391 Y163.828 E65.89248
G0 F3600 X108.957 Y163.828
G1 F750 X96.17 Y151.041 E67.33916
G0 F3600 X96.17 Y150.475
G1 F750 X109.523 Y163.828 E68.84988
G0 F3600 X110.088 Y163.828
G1 F750 X96.17 Y149.91 E70.42453
G0 F3600 X96.17 Y149.344
G1 F750 X110.654 Y163.828 E72.0632
G0 F3600 X111.22 Y163.828
G1 F750 X96.17 Y148.778 E73.76592
G0 F3600 X96.17 Y148.213
G1 F750 X111.785 Y163.828 E75.53255
G0 F3600 X112.351 Y163.828
G1 F750 X96.17 Y147.647 E77.36322
G0 F3600 X96.17 Y147.081
G1 F750 X112.917 Y163.828 E79.25793
G0 F3600 X113.482 Y163.828
G1 F750 X96.17 Y146.516 E81.21656
G0 F3600 X96.17 Y145.95
G1 F750 X114.048 Y163.828 E83.23922
G0 F3600 X114.614 Y163.828
G1 F750 X96.17 Y145.384 E85.32592
G0 F3600 X96.17 Y144.819
G1 F750 X115.179 Y163.828 E87.47655
G0 F3600 X115.745 Y163.828
G1 F750 X96.17 Y144.253 E89.6912
G0 F3600 X96.17 Y143.687
G1 F750 X116.311 Y163.828 E91.9699
G0 F3600 X116.876 Y163.828
G1 F750 X96.17 Y143.121 E94.31257
G0 F3600 X96.17 Y142.556
G1 F750 X117.442 Y163.828 E96.71922
G0 F3600 X118.008 Y163.828
G1 F750 X96.17 Y141.99 E99.18991
G0 F3600 X96.17 Y141.424
G1 F750 X118.574 Y163.828 E101.72463
G0 F3600 X119.139 Y163.828
G1 F750 X96.17 Y140.859 E104.32328
G0 F3600 X96.17 Y140.293
G1 F750 X119.705 Y163.828 E106.98596
G0 F3600 X120.271 Y163.828
G1 F750 X96.17 Y139.727 E109.71268
G0 F3600 X96.17 Y139.162
G1 F750 X120.836 Y163.828 E112.50332
G0 F3600 X121.402 Y163.828
G1 F750 X96.17 Y138.596 E115.35799
G0 F3600 X96.17 Y138.03
G1 F750 X121.968 Y163.828 E118.2767
G0 F3600 X122.533 Y163.828
G1 F750 X96.17 Y137.465 E121.25934
G0 F3600 X96.17 Y136.899
G1 F750 X123.099 Y163.828 E124.30601
G0 F3600 X123.665 Y163.828
G1 F750 X96.17 Y136.333 E127.41671
G0 F3600 X96.571 Y136.169
G1 F750 X123.829 Y163.427 E130.5006
G0 F3600 X123.829 Y162.862
G1 F750 X97.137 Y136.169 E133.52051
G0 F3600 X97.703 Y136.169
G1 F750 X123.829 Y162.296 E136.47639
G0 F3600 X123.829 Y161.73
G1 F750 X98.268 Y136.169 E139.36828
G0 F3600 X98.834 Y136.169
G1 F750 X123.829 Y161.165 E142.1962
G0 F3600 X123.829 Y160.599
G1 F750 X99.4 Y136.169 E144.96009
G0 F3600 X99.965 Y136.169
G1 F750 X123.829 Y160.033 E147.65999
G0 F3600 X123.829 Y159.468
G1 F750 X100.531 Y136.169 E150.29591
G0 F3600 X101.097 Y136.169
G1 F750 X123.829 Y158.902 E152.8678
G0 F3600 X123.829 Y158.336
G1 F750 X101.662 Y136.169 E155.37571
G0 F3600 X102.228 Y136.169
G1 F750 X123.829 Y157.771 E157.81964
G0 F3600 X123.829 Y157.205
G1 F750 X102.794 Y136.169 E160.19954
G0 F3600 X103.359 Y136.169
G1 F750 X123.829 Y156.639 E162.51545
G0 F3600 X123.829 Y156.074
G1 F750 X103.925 Y136.169 E164.76739
G0 F3600 X104.491 Y136.169
G1 F750 X123.829 Y155.508 E166.95529
G0 F3600 X123.829 Y154.942
G1 F750 X105.056 Y136.169 E169.07921
G0 F3600 X105.622 Y136.169
G1 F750 X123.829 Y154.376 E171.1391
G0 F3600 X123.829 Y153.811
G1 F750 X106.188 Y136.169 E173.13501
G0 F3600 X106.754 Y136.169
G1 F750 X123.829 Y153.245 E175.06688
G0 F3600 X123.829 Y152.679
G1 F750 X107.319 Y136.169 E176.93477
G0 F3600 X107.885 Y136.169
G1 F750 X123.829 Y152.114 E178.73869
G0 F3600 X123.829 Y151.548
G1 F750 X108.451 Y136.169 E180.47857
G0 F3600 X109.016 Y136.169
G1 F750 X123.829 Y150.982 E182.15447
G0 F3600 X123.829 Y150.417
G1 F750 X109.582 Y136.169 E183.76639
G0 F3600 X110.148 Y136.169
G1 F750 X123.829 Y149.851 E185.31427
G0 F3600 X123.829 Y149.285
G1 F750 X110.713 Y136.169 E186.79818
G0 F3600 X111.279 Y136.169
G1 F750 X123.829 Y148.72 E188.21811
G0 F3600 X123.829 Y148.154
G1 F750 X111.845 Y136.169 E189.574
G0 F3600 X112.41 Y136.169
G1 F750 X123.829 Y147.588 E190.86591
G0 F3600 X123.829 Y147.023
G1 F750 X112.976 Y136.169 E192.09384
G0 F3600 X113.542 Y136.169
G1 F750 X123.829 Y146.457 E193.25774
G0 F3600 X123.829 Y145.891
G1 F750 X114.107 Y136.169 E194.35766
G0 F3600 X114.673 Y136.169
G1 F750 X123.829 Y145.325 E195.39354
G0 F3600 X123.829 Y144.76
G1 F750 X115.239 Y136.169 E196.36545
G0 F3600 X115.804 Y136.169
G1 F750 X123.829 Y144.194 E197.27337
G0 F3600 X123.829 Y143.628
G1 F750 X116.37 Y136.169 E198.11726
G0 F3600 X116.936 Y136.169
G1 F750 X123.829 Y143.063 E198.89717
G0 F3600 X123.829 Y142.497
G1 F750 X117.502 Y136.169 E199.61305
G0 F3600 X118.067 Y136.169
G1 F750 X123.829 Y141.931 E200.26494
G0 F3600 X123.829 Y141.366
G1 F750 X118.633 Y136.169 E200.85286
G0 F3600 X119.199 Y136.169
G1 F750 X123.829 Y140.8 E201.37674
G0 F3600 X123.829 Y140.234
G1 F750 X119.764 Y136.169 E201.83664
G0 F3600 X120.33 Y136.169
G1 F750 X123.829 Y139.669 E202.23257
G0 F3600 X123.829 Y139.103
G1 F750 X120.896 Y136.169 E202.56445
G0 F3600 X121.461 Y136.169
G1 F750 X123.829 Y138.537 E202.83236
G0 F3600 X123.829 Y137.972
G1 F750 X122.027 Y136.169 E203.03629
G0 F3600 X122.593 Y136.169
G1 F750 X123.829 Y137.406 E203.17619
G0 F3600 X123.829 Y136.84
G1 F750 X123.158 Y136.169 E203.2521
G0 F3600 X123.724 Y136.169
G1 F750 X123.829 Y136.275 E203.26404
;MESH:NONMESH
G0 F600 X123.829 Y136.275 Z0.35
G0 F3600 X95.67 Y164.33
G0 X95.6 Y164.4
;TIME_ELAPSED:211.291733
;LAYER:1
M106 S255
;TYPE:WALL-INNER
;MESH:xyzCalibration_cube.stl
G1 F1125 X95.6 Y135.6 E204.99204
G1 X124.4 Y135.6 E206.72004
G1 X124.4 Y164.4 E208.44804
G1 X95.6 Y164.4 E210.17604
G0 F5400 X95.2 Y164.8
;TYPE:WALL-OUTER
G1 F750 X95.2 Y135.2 E211.95204
G1 X124.8 Y135.2 E213.72804
G1 X124.8 Y164.8 E215.50404
G1 X95.2 Y164.8 E217.28004
G0 F5400 X95.2 Y164.6
G0 X95.99 Y164.01
;TYPE:SKIN
G1 F750 X95.99 Y135.99 E218.96124
G1 X124.01 Y135.99 E220.64244
G1 X124.01 Y164.01 E222.32364
G1 X95.99 Y164.01 E224.00484
G0 F5400 X96.17 Y136.326
G1 F750 X96.327 Y136.168 E224.0182
G0 F5400 X96.893 Y136.168
G1 F750 X96.17 Y136.892 E224.07959
G0 F5400 X96.17 Y137.458
G1 F750 X97.459 Y136.168 E224.18901
G0 F5400 X98.024 Y136.168
G1 F750 X96.17 Y138.023 E224.34637
G0 F5400 X96.17 Y138.589
G1 F750 X98.59 Y136.168 E224.55176
G0 F5400 X99.156 Y136.168
G1 F750 X96.17 Y139.155 E224.80517
G0 F5400 X96.17 Y139.72
G1 F750 X99.721 Y136.168 E225.10652
G0 F5400 X100.287 Y136.168
G1 F750 X96.17 Y140.286 E225.45591
G0 F5400 X96.17 Y140.852
G1 F750 X100.853 Y136.168 E225.85331
G0 F5400 X101.418 Y136.168
G1 F750 X96.17 Y141.417 E226.29866
G0 F5400 X96.17 Y141.983
G1 F750 X101.984 Y136.168 E226.79204
G0 F5400 X102.55 Y136.168
G1 F750 X96.17 Y142.549 E227.33344
G0 F5400 X96.17 Y143.114
G1 F750 X103.115 Y136.168 E227.92279
G0 F5400 X103.681 Y136.168
G1 F750 X96.17 Y143.68 E228.56016
G0 F5400 X96.17 Y144.246
G1 F750 X104.247 Y136.168 E229.24556
G0 F5400 X104.813 Y136.168
G1 F750 X96.17 Y144.811 E229.97894
G0 F5400 X96.17 Y145.377
G1 F750 X105.378 Y136.168 E230.76031
G0 F5400 X105.944 Y136.168
G1 F750 X96.17 Y145.943 E231.5897
G0 F5400 X96.17 Y146.508
G1 F750 X106.51 Y136.168 E232.46708
G0 F5400 X107.075 Y136.168
G1 F750 X96.17 Y147.074 E233.39244
G0 F5400 X96.17 Y147.64
G1 F750 X107.641 Y136.168 E234.36583
G0 F5400 X108.207 Y136.168
G1 F750 X96.17 Y148.206 E235.38725
G0 F5400 X96.17 Y148.771
G1 F750 X108.772 Y136.168 E236.45661
G0 F5400 X109.338 Y136.168
G1 F750 X96.17 Y149.337 E237.57399
G0 F5400 X96.17 Y149.903
G1 F750 X109.904 Y136.168 E238.7394
G0 F5400 X110.469 Y136.168
G1 F750 X96.17 Y150.468 E239.95275
G0 F5400 X96.17 Y151.034
G1 F750 X111.035 Y136.168 E241.21413
G0 F5400 X111.601 Y136.168
G1 F750 X96.17 Y151.6 E242.52354
G0 F5400 X96.17 Y152.165
G1 F750 X112.166 Y136.168 E243.88089
G0 F5400 X112.732 Y136.168
G1 F750 X96.17 Y152.731 E245.28626
G0 F5400 X96.17 Y153.297
G1 F750 X113.298 Y136.168 E246.73966
G0 F5400 X113.863 Y136.168
G1 F750 X96.17 Y153.862 E248.24101
G0 F5400 X96.17 Y154.428
G1 F750 X114.429 Y136.168 E249.79038
G0 F5400 X114.995 Y136.168
G1 F750 X96.17 Y154.994 E251.38777
G0 F5400 X96.17 Y155.559
G1 F750 X115.561 Y136.168 E253.03316
G0 F5400 X116.126 Y136.168
G1 F750 X96.17 Y156.125 E254.72652
G0 F5400 X96.17 Y156.691
G1 F750 X116.692 Y136.168 E256.46791
G0 F5400 X117.258 Y136.168
G1 F750 X96.17 Y157.257 E258.25733
G0 F5400 X96.17 Y157.822
G1 F750 X117.823 Y136.168 E260.09469
G0 F5400 X118.389 Y136.168
G1 F750 X96.17 Y158.388 E261.98008
G0 F5400 X96.17 Y158.954
G1 F750 X118.955 Y136.168 E263.91349
G0 F5400 X119.52 Y136.168
G1 F750 X96.17 Y159.519 E265.89485
G0 F5400 X96.17 Y160.085
G1 F750 X120.086 Y136.168 E267.92423
G0 F5400 X120.652 Y136.168
G1 F750 X96.17 Y160.651 E270.00164
G0 F5400 X96.17 Y161.216
G1 F750 X121.217 Y136.168 E272.12699
G0 F5400 X121.783 Y136.168
G1 F750 X96.17 Y161.782 E274.30037
G0 F5400 X96.17 Y162.348
G1 F750 X122.349 Y136.168 E276.52177
G0 F5400 X122.914 Y136.168
G1 F750 X96.17 Y162.913 E278.79112
G0 F5400 X96.17 Y163.479
G1 F750 X123.48 Y136.168 E281.10849
G0 F5400 X123.829 Y136.385
G1 F750 X96.385 Y163.829 E283.43719
G0 F5400 X96.951 Y163.829
G1 F750 X123.829 Y136.951 E285.71786
G0 F5400 X123.829 Y137.516
G1 F750 X97.517 Y163.829 E287.95055
G0 F5400 X98.082 Y163.829
G1 F750 X123.829 Y138.082 E290.13526
G0 F5400 X123.829 Y138.648
G1 F750 X98.648 Y163.829 E292.27194
G0 F5400 X99.214 Y163.829
G1 F750 X123.829 Y139.213 E294.36063
G0 F5400 X123.829 Y139.779
G1 F750 X99.779 Y163.829 E296.40134
G0 F5400 X100.345 Y163.829
G1 F750 X123.829 Y140.345 E298.39403
G0 F5400 X123.829 Y140.91
G1 F750 X100.911 Y163.829 E300.33873
G0 F5400 X101.476 Y163.829
G1 F750 X123.829 Y141.476 E302.23544
G0 F5400 X123.829 Y142.042
G1 F750 X102.042 Y163.829 E304.08413
G0 F5400 X102.608 Y163.829
G1 F750 X123.829 Y142.607 E305.88483
G0 F5400 X123.829 Y143.173
G1 F750 X103.173 Y163.829 E307.63755
G0 F5400 X103.739 Y163.829
G1 F750 X123.829 Y143.739 E309.34225
G0 F5400 X123.829 Y144.304
G1 F750 X104.305 Y163.829 E310.99895
G0 F5400 X104.871 Y163.829
G1 F750 X123.829 Y144.87 E312.60764
G0 F5400 X123.829 Y145.436
G1 F750 X105.436 Y163.829 E314.16833
