;FLAVOR:UltiGCode
;TIME:9155
;MATERIAL:11054
;MATERIAL2:0
;NOZZLE_DIAMETER:0.4
;MINX:88.9
;MINY:128.9
;MINZ:0.2
;MAXX:131.1
;MAXY:171.1
;MAXZ:35
;Generated with Cura_SteamEngine 4.3.0
M82 ;absolute extrusion mode
;Basic settings: Layer height: 0.15 Walls: 0.8 Fill: {fill_density}
;Print time: 02:32:35
;Filament used: [0.0, 4.6]m [0.0, 13.70808375]g
;Filament cost: [0.0, 0.0]
M190 S60 ;Uncomment to add your own bed temperature line
M109 S200 ;Uncomment to add your own temperature line
G21        ;metric values
G91                                    ;relative positioning
G1 Z15.0 F120 ;move the platform down 15mm
G90        ;absolute positioning
M82        ;set extruder to absolute mode
M107       ;start with the fan off
G28 X0 Y0  ;move X/Y to min endstops
G28 Z0     ;move Z to min endstops
G605 S1
G28 X
G1 X0 Y0 Z15.0 F9000 ;move the platform down 15mm
; Prime the T0 nozzle
G92 E0
G0 X0 Y15 Z0.2 F1000
G1 Y165 E18.75 F1000
G0 X0.4
G1 Y15 E37.5 F1000
G0 X0.8
G1 Y165 E56.25 F1000
G0 X1.2
G1 Y15 E75 F1000
G0 X0 Y0 Z10 F1000
G92 E0                  ;zero the extruded length again
; End Prime	G1 F120
;Put printing message on LCD screen
M117 Gimli is Printing...

G92 E0
G92 E0
G10
;LAYER_COUNT:233
;LAYER:0
M107
G0 F3600 X90.294 Y129.671 Z0.2
;TYPE:SKIRT
G11
G1 F750 X90.741 Y129.373 E0.04298
G1 X91.226 Y129.145 E0.08585
G1 X91.74 Y128.992 E0.12875
G1 X92.408 Y128.91 E0.1826
G1 X92.729 Y128.901 E0.20829
G1 X92.83 Y128.9 E0.21637
G1 X126.845 Y128.9 E2.93757
G1 X127.543 Y128.91 E2.99341
G1 X128.077 Y128.958 E3.0363
G1 X128.598 Y129.084 E3.07919
G1 X129.095 Y129.287 E3.12213
G1 X129.556 Y129.561 E3.16504
G1 X129.971 Y129.9 E3.20791
G1 X130.331 Y130.298 E3.25084
G1 X130.628 Y130.744 E3.29371
G1 X130.856 Y131.23 E3.33665
G1 X131.008 Y131.744 E3.37953
G1 X131.09 Y132.409 E3.43314
G1 X131.099 Y132.729 E3.45875
G1 X131.1 Y132.83 E3.46683
G1 X131.1 Y166.809 E6.18515
G1 X131.091 Y167.536 E6.24331
G1 X131.044 Y168.07 E6.2862
G1 X130.919 Y168.591 E6.32906
G1 X130.717 Y169.088 E6.37198
G1 X130.444 Y169.55 E6.41491
G1 X130.106 Y169.966 E6.45779
G1 X129.709 Y170.327 E6.50071
G1 X129.263 Y170.625 E6.54363
G1 X128.778 Y170.853 E6.5865
G1 X128.264 Y171.007 E6.62943
G1 X127.592 Y171.09 E6.68359
G1 X127.271 Y171.099 E6.70928
G1 X127.17 Y171.1 E6.71736
G1 X93.161 Y171.1 E9.43808
G1 X92.463 Y171.091 E9.49393
G1 X91.928 Y171.044 E9.53689
G1 X91.407 Y170.918 E9.57978
G1 X90.91 Y170.716 E9.62269
G1 X90.449 Y170.443 E9.66556
G1 X90.033 Y170.104 E9.70849
G1 X89.672 Y169.708 E9.75135
G1 X89.374 Y169.262 E9.79427
G1 X89.146 Y168.776 E9.83721
G1 X88.993 Y168.262 E9.88012
G1 X88.91 Y167.588 E9.93444
G1 X88.901 Y167.255 E9.96109
G1 X88.9 Y167.158 E9.96885
G1 X88.9 Y133.125 E12.69149
G1 X88.909 Y132.46 E12.7447
G1 X88.957 Y131.926 E12.78759
G1 X89.083 Y131.405 E12.83047
G1 X89.285 Y130.908 E12.87339
G1 X89.558 Y130.447 E12.91625
G1 X89.897 Y130.031 E12.95918
G1 X90.294 Y129.671 E13.00206
G0 F3600 X90.68 Y129.883
G1 F750 X91.117 Y129.628 E13.04253
G1 X91.588 Y129.444 E13.08299
G1 X92.082 Y129.338 E13.12341
G1 X92.419 Y129.31 E13.15046
G1 X92.74 Y129.301 E13.17615
G1 X92.83 Y129.3 E13.18335
G1 X126.839 Y129.3 E15.90407
G1 X127.537 Y129.31 E15.95991
G1 X128.04 Y129.357 E16.00033
G1 X128.53 Y129.483 E16.04081
G1 X128.994 Y129.685 E16.08129
G1 X129.42 Y129.957 E16.12172
G1 X129.798 Y130.292 E16.16213
G1 X130.118 Y130.683 E16.20255
G1 X130.373 Y131.12 E16.24303
G1 X130.556 Y131.591 E16.28345
G1 X130.663 Y132.085 E16.32389
G1 X130.69 Y132.42 E16.35078
G1 X130.699 Y132.74 E16.37639
G1 X130.7 Y132.83 E16.38359
G1 X130.7 Y166.804 E19.10151
G1 X130.691 Y167.531 E19.15967
G1 X130.645 Y168.034 E19.20008
G1 X130.52 Y168.524 E19.24053
G1 X130.319 Y168.988 E19.28099
G1 X130.048 Y169.415 E19.32145
G1 X129.713 Y169.794 E19.36191
G1 X129.323 Y170.115 E19.40232
G1 X128.887 Y170.371 E19.44277
G1 X128.416 Y170.554 E19.48319
G1 X127.922 Y170.662 E19.52365
G1 X127.581 Y170.69 E19.55102
G1 X127.26 Y170.699 E19.57671
G1 X127.17 Y170.7 E19.58391
G1 X93.166 Y170.7 E22.30423
G1 X92.468 Y170.691 E22.36007
G1 X91.964 Y170.644 E22.40057
G1 X91.474 Y170.519 E22.44103
G1 X91.01 Y170.318 E22.48148
G1 X90.584 Y170.047 E22.52187
G1 X90.205 Y169.712 E22.56234
G1 X89.884 Y169.321 E22.60281
G1 X89.629 Y168.885 E22.64321
G1 X89.445 Y168.414 E22.68367
G1 X89.338 Y167.92 E22.7241
G1 X89.31 Y167.577 E22.75164
G1 X89.301 Y167.244 E22.77829
G1 X89.3 Y167.158 E22.78517
G1 X89.3 Y133.131 E25.50733
G1 X89.309 Y132.466 E25.56053
G1 X89.356 Y131.962 E25.60103
G1 X89.482 Y131.473 E25.64142
G1 X89.683 Y131.009 E25.68188
G1 X89.954 Y130.582 E25.72234
G1 X90.289 Y130.204 E25.76274
G1 X90.68 Y129.883 E25.80321
G10
;MESH:xyzCalibration_cube.stl
G0 F3600 X93.114 Y131.835
G0 X93.114 Y133.114
G0 X93.17 Y166.83
G0 X93.1 Y166.9
;TYPE:WALL-INNER
G11
G1 F750 X93.1 Y133.1 E28.50721
G1 X126.9 Y133.1 E31.21121
G1 X126.9 Y166.9 E33.91521
G1 X93.1 Y166.9 E36.61921
G0 F3600 X92.7 Y167.3
;TYPE:WALL-OUTER
G1 F750 X92.7 Y132.7 E39.38721
G1 X127.3 Y132.7 E42.15521
G1 X127.3 Y167.3 E44.92321
G1 X92.7 Y167.3 E47.69121
G0 F3600 X92.7 Y167.1
G0 X93.49 Y166.51
;TYPE:SKIN
G1 F750 X93.49 Y133.49 E50.33281
G1 X126.51 Y133.49 E52.97441
G1 X126.51 Y166.51 E55.61601
G1 X93.49 Y166.51 E58.25761
G0 F3600 X93.921 Y166.329
G1 F750 X93.669 Y166.077 E58.28612
G0 F3600 X93.669 Y165.511
G1 F750 X94.487 Y166.329 E58.37867
G0 F3600 X95.052 Y166.329
G1 F750 X93.669 Y164.946 E58.53514
G0 F3600 X93.669 Y164.38
G1 F750 X95.618 Y166.329 E58.75564
G0 F3600 X96.184 Y166.329
G1 F750 X93.669 Y163.814 E59.04018
G0 F3600 X93.669 Y163.249
G1 F750 X96.749 Y166.329 E59.38864
G0 F3600 X97.315 Y166.329
G1 F750 X93.669 Y162.683 E59.80114
G0 F3600 X93.669 Y162.117
G1 F750 X97.881 Y166.329 E60.27768
G0 F3600 X98.446 Y166.329
G1 F750 X93.669 Y161.551 E60.81819
G0 F3600 X93.669 Y160.986
G1 F750 X99.012 Y166.329 E61.42268
G0 F3600 X99.578 Y166.329
G1 F750 X93.669 Y160.42 E62.09121
G0 F3600 X93.669 Y159.854
G1 F750 X100.143 Y166.329 E62.82371
G0 F3600 X100.709 Y166.329
G1 F750 X93.669 Y159.289 E63.6202
G0 F3600 X93.669 Y158.723
G1 F750 X101.275 Y166.329 E64.48072
G0 F3600 X101.841 Y166.329
G1 F750 X93.669 Y158.157 E65.40527
G0 F3600 X93.669 Y157.592
G1 F750 X102.406 Y166.329 E66.39375
G0 F3600 X102.972 Y166.329
G1 F750 X93.669 Y157.026 E67.44627
G0 F3600 X93.669 Y156.46
G1 F750 X103.538 Y166.329 E68.56282
G0 F3600 X104.103 Y166.329
G1 F750 X93.669 Y155.895 E69.74329
G0 F3600 X93.669 Y155.329
G1 F750 X104.669 Y166.329 E70.9878
G0 F3600 X105.235 Y166.329
G1 F750 X93.669 Y154.763 E72.29634
G0 F3600 X93.669 Y154.198
G1 F750 X105.8 Y166.329 E73.66881
G0 F3600 X106.366 Y166.329
G1 F750 X93.669 Y153.632 E75.10531
G0 F3600 X93.669 Y153.066
G1 F750 X106.932 Y166.329 E76.60585
G0 F3600 X107.497 Y166.329
G1 F750 X93.669 Y152.501 E78.17031
G0 F3600 X93.669 Y151.935
G1 F750 X108.063 Y166.329 E79.7988
G0 F3600 X108.629 Y166.329
G1 F750 X93.669 Y151.369 E81.49133
G0 F3600 X93.669 Y150.803
G1 F750 X109.194 Y166.329 E83.24784
G0 F3600 X109.76 Y166.329
G1 F750 X93.669 Y150.238 E85.06833
G0 F3600 X93.669 Y149.672
G1 F750 X110.326 Y166.329 E86.95286
G0 F3600 X110.892 Y166.329
G1 F750 X93.669 Y149.106 E88.90142
G0 F3600 X93.669 Y148.541
G1 F750 X111.457 Y166.329 E90.9139
G0 F3600 X112.023 Y166.329
G1 F750 X93.669 Y147.975 E92.99042
G0 F3600 X93.669 Y147.409
G1 F750 X112.589 Y166.329 E95.13097
G0 F3600 X113.154 Y166.329
G1 F750 X93.669 Y146.844 E97.33545
G0 F3600 X93.669 Y146.278
G1 F750 X113.72 Y166.329 E99.60396
G0 F3600 X114.286 Y166.329
G1 F750 X93.669 Y145.712 E101.9365
G0 F3600 X93.669 Y145.147
G1 F750 X114.851 Y166.329 E104.33297
G0 F3600 X115.417 Y166.329
G1 F750 X93.669 Y144.581 E106.79348
G0 F3600 X93.669 Y144.015
G1 F750 X115.983 Y166.329 E109.31802
G0 F3600 X116.548 Y166.329
G1 F750 X93.669 Y143.45 E111.90648
G0 F3600 X93.669 Y142.884
G1 F750 X117.114 Y166.329 E114.55898
G0 F3600 X117.68 Y166.329
G1 F750 X93.669 Y142.318 E117.27552
G0 F3600 X93.669 Y141.752
G1 F750 X118.245 Y166.329 E120.05603
G0 F3600 X118.811 Y166.329
G1 F750 X93.669 Y141.187 E122.90052
G0 F3600 X93.669 Y140.621
G1 F750 X119.377 Y166.329 E125.80905
G0 F3600 X119.942 Y166.329
G1 F750 X93.669 Y140.055 E128.78156
G0 F3600 X93.669 Y139.49
G1 F750 X120.508 Y166.329 E131.81804
G0 F3600 X121.074 Y166.329
G1 F750 X93.669 Y138.924 E134.91857
G0 F3600 X93.669 Y138.358
G1 F750 X121.64 Y166.329 E138.08312
G0 F3600 X122.205 Y166.329
G1 F750 X93.669 Y137.793 E141.3116
G0 F3600 X93.669 Y137.227
G1 F750 X122.771 Y166.329 E144.60412
G0 F3600 X123.337 Y166.329
G1 F750 X93.669 Y136.661 E147.96067
G0 F3600 X93.669 Y136.096
G1 F750 X123.902 Y166.329 E151.38114
G0 F3600 X124.468 Y166.329
G1 F750 X93.669 Y135.53 E154.86565
G0 F3600 X93.669 Y134.964
G1 F750 X125.034 Y166.329 E158.4142
G0 F3600 X125.599 Y166.329
G1 F750 X93.669 Y134.399 E162.02666
G0 F3600 X93.669 Y133.833
G1 F750 X126.165 Y166.329 E165.70317
G0 F3600 X126.329 Y165.927
G1 F750 X94.071 Y133.669 E169.35274
G0 F3600 X94.637 Y133.669
G1 F750 X126.329 Y165.361 E172.93828
G0 F3600 X126.329 Y164.796
G1 F750 X95.202 Y133.669 E176.4599
G0 F3600 X95.768 Y133.669
G1 F750 X126.329 Y164.23 E179.91748
G0 F3600 X126.329 Y163.664
G1 F750 X96.334 Y133.669 E183.31103
G0 F3600 X96.899 Y133.669
G1 F750 X126.329 Y163.099 E186.64066
G0 F3600 X126.329 Y162.533
G1 F750 X97.465 Y133.669 E189.90624
G0 F3600 X98.031 Y133.669
G1 F750 X126.329 Y161.967 E193.1078
G0 F3600 X126.329 Y161.402
G1 F750 X98.596 Y133.669 E196.24543
G0 F3600 X99.162 Y133.669
G1 F750 X126.329 Y160.836 E199.31902
G0 F3600 X126.329 Y160.27
G1 F750 X99.728 Y133.669 E202.32858
G0 F3600 X100.293 Y133.669
G1 F750 X126.329 Y159.705 E205.27422
G0 F3600 X126.329 Y159.139
G1 F750 X100.859 Y133.669 E208.15582
G0 F3600 X101.425 Y133.669
G1 F750 X126.329 Y158.573 E210.97339
G0 F3600 X126.329 Y158.007
G1 F750 X101.99 Y133.669 E213.72698
G0 F3600 X102.556 Y133.669
G1 F750 X126.329 Y157.442 E216.41658
G0 F3600 X126.329 Y156.876
G1 F750 X103.122 Y133.669 E219.04216
G0 F3600 X103.688 Y133.669
G1 F750 X126.329 Y156.31 E221.60369
G0 F3600 X126.329 Y155.745
G1 F750 X104.253 Y133.669 E224.10131
G0 F3600 X104.819 Y133.669
G1 F750 X126.329 Y155.179 E226.53489
G0 F3600 X126.329 Y154.613
G1 F750 X105.385 Y133.669 E228.90443
G0 F3600 X105.95 Y133.669
G1 F750 X126.329 Y154.048 E231.21005
G0 F3600 X126.329 Y153.482
G1 F750 X106.516 Y133.669 E233.45163
G0 F3600 X107.082 Y133.669
G1 F750 X126.329 Y152.916 E235.62918
G0 F3600 X126.329 Y152.351
G1 F750 X107.647 Y133.669 E237.74281
G0 F3600 X108.213 Y133.669
G1 F750 X126.329 Y151.785 E239.7924
G0 F3600 X126.329 Y151.219
G1 F750 X108.779 Y133.669 E241.77796
G0 F3600 X109.344 Y133.669
G1 F750 X126.329 Y150.654 E243.69959
G0 F3600 X126.329 Y150.088
G1 F750 X109.91 Y133.669 E245.55719
G0 F3600 X110.476 Y133.669
G1 F750 X126.329 Y149.522 E247.35075
G0 F3600 X126.329 Y148.956
G1 F750 X111.041 Y133.669 E249.08033
G0 F3600 X111.607 Y133.669
G1 F750 X126.329 Y148.391 E250.74594
G0 F3600 X126.329 Y147.825
G1 F750 X112.173 Y133.669 E252.34751
G0 F3600 X112.738 Y133.669
G1 F750 X126.329 Y147.259 E253.8851
G0 F3600 X126.329 Y146.694
G1 F750 X113.304 Y133.669 E255.35871
G0 F3600 X113.87 Y133.669
G1 F750 X126.329 Y146.128 E256.76828
G0 F3600 X126.329 Y145.562
G1 F750 X114.436 Y133.669 E258.11382
G0 F3600 X115.001 Y133.669
G1 F750 X126.329 Y144.997 E259.39544
G0 F3600 X126.329 Y144.431
G1 F750 X115.567 Y133.669 E260.61302
G0 F3600 X116.133 Y133.669
G1 F750 X126.329 Y143.865 E261.76657
G0 F3600 X126.329 Y143.3
G1 F750 X116.698 Y133.669 E262.85619
G0 F3600 X117.264 Y133.669
G1 F750 X126.329 Y142.734 E263.88178
G0 F3600 X126.329 Y142.168
G1 F750 X117.83 Y133.669 E264.84333
G0 F3600 X118.395 Y133.669
G1 F750 X126.329 Y141.603 E265.74096
G0 F3600 X126.329 Y141.037
G1 F750 X118.961 Y133.669 E266.57455
G0 F3600 X119.527 Y133.669
G1 F750 X126.329 Y140.471 E267.34411
G0 F3600 X126.329 Y139.906
G1 F750 X120.092 Y133.669 E268.04975
G0 F3600 X120.658 Y133.669
G1 F750 X126.329 Y139.34 E268.69135
G0 F3600 X126.329 Y138.774
G1 F750 X121.224 Y133.669 E269.26891
G0 F3600 X121.789 Y133.669
G1 F750 X126.329 Y138.208 E269.7825
G0 F3600 X126.329 Y137.643
G1 F750 X122.355 Y133.669 E270.2321
G0 F3600 X122.921 Y133.669
G1 F750 X126.329 Y137.077 E270.61768
G0 F3600 X126.329 Y136.511
G1 F750 X123.487 Y133.669 E270.93921
G0 F3600 X124.052 Y133.669
G1 F750 X126.329 Y135.946 E271.19682
G0 F3600 X126.329 Y135.38
G1 F750 X124.618 Y133.669 E271.3904
G0 F3600 X125.184 Y133.669
G1 F750 X126.329 Y134.814 E271.51994
G0 F3600 X126.329 Y134.249
G1 F750 X125.749 Y133.669 E271.58556
G1 X125.679 Y133.599
;MESH:NONMESH
G0 F600 X125.679 Y133.599 Z0.35
G0 F3600 X93.17 Y166.83
G0 X93.1 Y166.9
;TIME_ELAPSED:280.110637
;LAYER:1
M106 S255
;TYPE:WALL-INNER
;MESH:xyzCalibration_cube.stl
G1 F1125 X93.1 Y133.1 E273.61356
G1 X126.9 Y133.1 E275.64156
G1 X126.9 Y166.9 E277.66956
G1 X93.1 Y166.9 E279.69756
G0 F5400 X92.7 Y167.3
;TYPE:WALL-OUTER
G1 F750 X92.7 Y132.7 E281.77356
G1 X127.3 Y132.7 E283.84956
G1 X127.3 Y167.3 E285.92556
G1 X92.7 Y167.3 E288.00156
G0 F5400 X92.7 Y167.1
G0 X93.49 Y166.51
;TYPE:SKIN
G1 F750 X93.49 Y133.49 E289.98276
G1 X126.51 Y133.49 E291.96396
G1 X126.51 Y166.51 E293.94516
G1 X93.49 Y166.51 E295.92636
G0 F5400 X93.669 Y133.735
G1 F750 X93.736 Y133.669 E295.93201
G0 F5400 X94.301 Y133.669
G1 F750 X93.669 Y134.301 E295.98563
G0 F5400 X93.669 Y134.867
G1 F750 X94.867 Y133.669 E296.08729
G0 F5400 X95.433 Y133.669
G1 F750 X93.669 Y135.432 E296.23692
G0 F5400 X93.669 Y135.998
G1 F750 X95.998 Y133.669 E296.43455
G0 F5400 X96.564 Y133.669
G1 F750 X93.669 Y136.564 E296.6802
G0 F5400 X93.669 Y137.129
G1 F750 X97.13 Y133.669 E296.97383
G0 F5400 X97.695 Y133.669
G1 F750 X93.669 Y137.695 E297.31545
G0 F5400 X93.669 Y138.261
G1 F750 X98.261 Y133.669 E297.70509
G0 F5400 X98.827 Y133.669
G1 F750 X93.669 Y138.826 E298.14272
G0 F5400 X93.669 Y139.392
G1 F750 X99.393 Y133.669 E298.62837
G0 F5400 X99.958 Y133.669
G1 F750 X93.669 Y139.958 E299.16201
G0 F5400 X93.669 Y140.524
G1 F750 X100.524 Y133.669 E299.74368
G0 F5400 X101.09 Y133.669
G1 F750 X93.669 Y141.089 E300.37333
G0 F5400 X93.669 Y141.655
G1 F750 X101.655 Y133.669 E301.05096
G0 F5400 X102.221 Y133.669
G1 F750 X93.669 Y142.221 E301.77663
G0 F5400 X93.669 Y142.786
G1 F750 X102.787 Y133.669 E302.55027
G0 F5400 X103.352 Y133.669
G1 F750 X93.669 Y143.352 E303.3719
G0 F5400 X93.669 Y143.918
G1 F750 X103.918 Y133.669 E304.24156
G0 F5400 X104.484 Y133.669
G1 F750 X93.669 Y144.483 E305.1592
G0 F5400 X93.669 Y145.049
G1 F750 X105.049 Y133.669 E306.12482
G0 F5400 X105.615 Y133.669
G1 F750 X93.669 Y145.615 E307.13847
G0 F5400 X93.669 Y146.18
G1 F750 X106.181 Y133.669 E308.20011
G0 F5400 X106.746 Y133.669
G1 F750 X93.669 Y146.746 E309.30973
G0 F5400 X93.669 Y147.312
G1 F750 X107.312 Y133.669 E310.46738
G0 F5400 X107.878 Y133.669
G1 F750 X93.669 Y147.877 E311.67301
G0 F5400 X93.669 Y148.443
G1 F750 X108.444 Y133.669 E312.92667
G0 F5400 X109.009 Y133.669
G1 F750 X93.669 Y149.009 E314.22831
G0 F5400 X93.669 Y149.575
G1 F750 X109.575 Y133.669 E315.57798
G0 F5400 X110.141 Y133.669
G1 F750 X93.669 Y150.14 E316.97563
G0 F5400 X93.669 Y150.706
G1 F750 X110.706 Y133.669 E318.42127
G0 F5400 X111.272 Y133.669
G1 F750 X93.669 Y151.272 E319.91493
G0 F5400 X93.669 Y151.837
G1 F750 X111.838 Y133.669 E321.45658
G0 F5400 X112.403 Y133.669
G1 F750 X93.669 Y152.403 E323.04621
G0 F5400 X93.669 Y152.969
G1 F750 X112.969 Y133.669 E324.68387
G0 F5400 X113.535 Y133.669
G1 F750 X93.669 Y153.534 E326.36952
G0 F5400 X93.669 Y154.1
G1 F750 X114.1 Y133.669 E328.10314
G0 F5400 X114.666 Y133.669
G1 F750 X93.669 Y154.666 E329.8848
G0 F5400 X93.669 Y155.231
G1 F750 X115.232 Y133.669 E331.71444
G0 F5400 X115.797 Y133.669
G1 F750 X93.669 Y155.797 E333.59206
G0 F5400 X93.669 Y156.363
G1 F750 X116.363 Y133.669 E335.51771
G0 F5400 X116.929 Y133.669
G1 F750 X93.669 Y156.928 E337.49134
G0 F5400 X93.669 Y157.494
G1 F750 X117.494 Y133.669 E339.51296
G0 F5400 X118.06 Y133.669
G1 F750 X93.669 Y158.06 E341.58261
G0 F5400 X93.669 Y158.625
G1 F750 X118.626 Y133.669 E343.70024
G0 F5400 X119.192 Y133.669
G1 F750 X93.669 Y159.191 E345.86589
G0 F5400 X93.669 Y159.757
G1 F750 X119.757 Y133.669 E348.07953
G0 F5400 X120.323 Y133.669
