;FLAVOR:UltiGCode
;TIME:12225
;MATERIAL:15303
;MATERIAL2:0
;NOZZLE_DIAMETER:0.4
;MINX:86.4
;MINY:126.4
;MINZ:0.2
;MAXX:133.6
;MAXY:173.6
;MAXZ:39.95
;Generated with Cura_SteamEngine 4.3.0
M82 ;absolute extrusion mode
;Basic settings: Layer height: 0.15 Walls: 0.8 Fill: {fill_density}
;Print time: 03:23:45
;Filament used: [0.0, 6.36]m [0.0, 18.9758858984375]g
;Filament cost: [0.0, 0.0]
M190 S60 ;Uncomment to add your own bed temperature line
M109 S200 ;Uncomment to add your own temperature line
G21        ;metric values
G91                                    ;relative positioning
G1 Z15.0 F120 ;move the platform down 15mm
G90        ;absolute positioning
M82        ;set extruder to absolute mode
M107       ;start with the fan off
G28 X0 Y0  ;move X/Y to min endstops
G28 Z0     ;move Z to min endstops
G605 S1
G28 X
G1 X0 Y0 Z15.0 F9000 ;move the platform down 15mm
; Prime the T0 nozzle
G92 E0
G0 X0 Y15 Z0.2 F1000
G1 Y165 E18.75 F1000
G0 X0.4
G1 Y15 E37.5 F1000
G0 X0.8
G1 Y165 E56.25 F1000
G0 X1.2
G1 Y15 E75 F1000
G0 X0 Y0 Z10 F1000
G92 E0                  ;zero the extruded length again
; End Prime	G1 F120
;Put printing message on LCD screen
M117 Gimli is Printing...

G92 E0
G92 E0
G10
;LAYER_COUNT:266
;LAYER:0
M107
G0 F3600 X87.794 Y127.171 Z0.2
;TYPE:SKIRT
G11
G1 F750 X88.241 Y126.873 E0.04298
G1 X88.726 Y126.645 E0.08585
G1 X89.24 Y126.492 E0.12875
G1 X89.908 Y126.41 E0.1826
G1 X90.229 Y126.401 E0.20829
G1 X90.33 Y126.4 E0.21637
G1 X129.345 Y126.4 E3.33757
G1 X130.043 Y126.41 E3.39341
G1 X130.577 Y126.458 E3.4363
G1 X131.098 Y126.584 E3.47919
G1 X131.595 Y126.787 E3.52213
G1 X132.056 Y127.061 E3.56504
G1 X132.471 Y127.4 E3.60791
G1 X132.831 Y127.798 E3.65084
G1 X133.128 Y128.244 E3.69371
G1 X133.356 Y128.73 E3.73665
G1 X133.508 Y129.244 E3.77953
G1 X133.59 Y129.909 E3.83314
G1 X133.599 Y130.229 E3.85875
G1 X133.6 Y130.33 E3.86683
G1 X133.6 Y169.309 E6.98515
G1 X133.591 Y170.036 E7.04331
G1 X133.544 Y170.57 E7.0862
G1 X133.419 Y171.091 E7.12906
G1 X133.217 Y171.588 E7.17198
G1 X132.944 Y172.05 E7.21491
G1 X132.606 Y172.466 E7.25779
G1 X132.209 Y172.827 E7.30071
G1 X131.763 Y173.125 E7.34363
G1 X131.278 Y173.353 E7.3865
G1 X130.764 Y173.507 E7.42943
G1 X130.092 Y173.59 E7.48359
G1 X129.771 Y173.599 E7.50928
G1 X129.67 Y173.6 E7.51736
G1 X90.661 Y173.6 E10.63808
G1 X89.963 Y173.591 E10.69393
G1 X89.428 Y173.544 E10.73689
G1 X88.907 Y173.418 E10.77978
G1 X88.41 Y173.216 E10.82269
G1 X87.949 Y172.943 E10.86556
G1 X87.533 Y172.604 E10.90849
G1 X87.172 Y172.208 E10.95135
G1 X86.874 Y171.762 E10.99427
G1 X86.646 Y171.276 E11.03721
G1 X86.493 Y170.762 E11.08012
G1 X86.41 Y170.088 E11.13444
G1 X86.401 Y169.755 E11.16109
G1 X86.4 Y169.658 E11.16885
G1 X86.4 Y130.625 E14.29149
G1 X86.409 Y129.96 E14.3447
G1 X86.457 Y129.426 E14.38759
G1 X86.583 Y128.905 E14.43047
G1 X86.785 Y128.408 E14.47339
G1 X87.058 Y127.947 E14.51625
G1 X87.397 Y127.531 E14.55918
G1 X87.794 Y127.171 E14.60206
G0 F3600 X88.18 Y127.383
G1 F750 X88.617 Y127.128 E14.64253
G1 X89.088 Y126.944 E14.68299
G1 X89.582 Y126.838 E14.72341
G1 X89.919 Y126.81 E14.75046
G1 X90.24 Y126.801 E14.77615
G1 X90.33 Y126.8 E14.78335
G1 X129.339 Y126.8 E17.90407
G1 X130.037 Y126.81 E17.95991
G1 X130.54 Y126.857 E18.00033
G1 X131.03 Y126.983 E18.04081
G1 X131.494 Y127.185 E18.08129
G1 X131.92 Y127.457 E18.12172
G1 X132.298 Y127.792 E18.16213
G1 X132.618 Y128.183 E18.20255
G1 X132.873 Y128.62 E18.24303
G1 X133.056 Y129.091 E18.28345
G1 X133.163 Y129.585 E18.32389
G1 X133.19 Y129.92 E18.35078
G1 X133.199 Y130.24 E18.37639
G1 X133.2 Y130.33 E18.38359
G1 X133.2 Y169.304 E21.50151
G1 X133.191 Y170.031 E21.55967
G1 X133.145 Y170.534 E21.60008
G1 X133.02 Y171.024 E21.64053
G1 X132.819 Y171.488 E21.68099
G1 X132.548 Y171.915 E21.72145
G1 X132.213 Y172.294 E21.76191
G1 X131.823 Y172.615 E21.80232
G1 X131.387 Y172.871 E21.84277
G1 X130.916 Y173.054 E21.88319
G1 X130.422 Y173.162 E21.92365
G1 X130.081 Y173.19 E21.95102
G1 X129.76 Y173.199 E21.97671
G1 X129.67 Y173.2 E21.98391
G1 X90.666 Y173.2 E25.10423
G1 X89.968 Y173.191 E25.16007
G1 X89.464 Y173.144 E25.20057
G1 X88.974 Y173.019 E25.24103
G1 X88.51 Y172.818 E25.28148
G1 X88.084 Y172.547 E25.32187
G1 X87.705 Y172.212 E25.36234
G1 X87.384 Y171.821 E25.40281
G1 X87.129 Y171.385 E25.44321
G1 X86.945 Y170.914 E25.48367
G1 X86.838 Y170.42 E25.5241
G1 X86.81 Y170.077 E25.55164
G1 X86.801 Y169.744 E25.57829
G1 X86.8 Y169.658 E25.58517
G1 X86.8 Y130.631 E28.70733
G1 X86.809 Y129.966 E28.76053
G1 X86.856 Y129.462 E28.80103
G1 X86.982 Y128.973 E28.84142
G1 X87.183 Y128.509 E28.88188
G1 X87.454 Y128.082 E28.92234
G1 X87.789 Y127.704 E28.96274
G1 X88.18 Y127.383 E29.00321
G10
;MESH:xyzCalibration_cube.stl
G0 F3600 X90.614 Y129.335
G0 X90.614 Y130.614
G0 X90.67 Y169.33
G0 X90.6 Y169.4
;TYPE:WALL-INNER
G11
G1 F750 X90.6 Y130.6 E32.10721
G1 X129.4 Y130.6 E35.21121
G1 X129.4 Y169.4 E38.31521
G1 X90.6 Y169.4 E41.41921
G0 F3600 X90.2 Y169.8
;TYPE:WALL-OUTER
G1 F750 X90.2 Y130.2 E44.58721
G1 X129.8 Y130.2 E47.75521
G1 X129.8 Y169.8 E50.92321
G1 X90.2 Y169.8 E54.09121
G0 F3600 X90.2 Y169.6
G0 X90.99 Y169.01
;TYPE:SKIN
G1 F750 X90.99 Y130.99 E57.13281
G1 X129.01 Y130.99 E60.17441
G1 X129.01 Y169.01 E63.21601
G1 X90.99 Y169.01 E66.25761
G0 F3600 X91.329 Y168.828
G1 F750 X91.17 Y168.669 E66.2756
G0 F3600 X91.17 Y168.103
G1 F750 X91.895 Y168.828 E66.35763
G0 F3600 X92.461 Y168.828
G1 F750 X91.17 Y167.537 E66.50369
G0 F3600 X91.17 Y166.971
G1 F750 X93.026 Y168.828 E66.71373
G0 F3600 X93.592 Y168.828
G1 F750 X91.17 Y166.406 E66.98774
G0 F3600 X91.17 Y165.84
G1 F750 X94.158 Y168.828 E67.3258
G0 F3600 X94.724 Y168.828
G1 F750 X91.17 Y165.274 E67.72789
G0 F3600 X91.17 Y164.709
G1 F750 X95.289 Y168.828 E68.1939
G0 F3600 X95.855 Y168.828
G1 F750 X91.17 Y164.143 E68.72395
G0 F3600 X91.17 Y163.577
G1 F750 X96.421 Y168.828 E69.31803
G0 F3600 X96.986 Y168.828
G1 F750 X91.17 Y163.012 E69.97603
G0 F3600 X91.17 Y162.446
G1 F750 X97.552 Y168.828 E70.69807
G0 F3600 X98.118 Y168.828
G1 F750 X91.17 Y161.88 E71.48415
G0 F3600 X91.17 Y161.315
G1 F750 X98.683 Y168.828 E72.33415
G0 F3600 X99.249 Y168.828
G1 F750 X91.17 Y160.749 E73.24818
G0 F3600 X91.17 Y160.183
G1 F750 X99.815 Y168.828 E74.22625
G0 F3600 X100.38 Y168.828
G1 F750 X91.17 Y159.618 E75.26825
G0 F3600 X91.17 Y159.052
G1 F750 X100.946 Y168.828 E76.37427
G0 F3600 X101.512 Y168.828
G1 F750 X91.17 Y158.486 E77.54434
G0 F3600 X91.17 Y157.92
G1 F750 X102.077 Y168.828 E78.77838
G0 F3600 X102.643 Y168.828
G1 F750 X91.17 Y157.355 E80.0764
G0 F3600 X91.17 Y156.789
G1 F750 X103.209 Y168.828 E81.43846
G0 F3600 X103.774 Y168.828
G1 F750 X91.17 Y156.223 E82.8645
G0 F3600 X91.17 Y155.658
G1 F750 X104.34 Y168.828 E84.35451
G0 F3600 X104.906 Y168.828
G1 F750 X91.17 Y155.092 E85.90856
G0 F3600 X91.17 Y154.526
G1 F750 X105.472 Y168.828 E87.52665
G0 F3600 X106.037 Y168.828
G1 F750 X91.17 Y153.961 E89.20866
G0 F3600 X91.17 Y153.395
G1 F750 X106.603 Y168.828 E90.9547
G0 F3600 X107.169 Y168.828
G1 F750 X91.17 Y152.829 E92.76478
G0 F3600 X91.17 Y152.264
G1 F750 X107.734 Y168.828 E94.63879
G0 F3600 X108.3 Y168.828
G1 F750 X91.17 Y151.698 E96.57682
G0 F3600 X91.17 Y151.132
G1 F750 X108.866 Y168.828 E98.5789
G0 F3600 X109.431 Y168.828
G1 F750 X91.17 Y150.567 E100.64489
G0 F3600 X91.17 Y150.001
G1 F750 X109.997 Y168.828 E102.77493
G0 F3600 X110.563 Y168.828
G1 F750 X91.17 Y149.435 E104.96899
G0 F3600 X91.17 Y148.87
G1 F750 X111.128 Y168.828 E107.22698
G0 F3600 X111.694 Y168.828
G1 F750 X91.17 Y148.304 E109.54901
G0 F3600 X91.17 Y147.738
G1 F750 X112.26 Y168.828 E111.93507
G0 F3600 X112.825 Y168.828
G1 F750 X91.17 Y147.172 E114.38511
G0 F3600 X91.17 Y146.607
G1 F750 X113.391 Y168.828 E116.89913
G0 F3600 X113.957 Y168.828
G1 F750 X91.17 Y146.041 E119.47719
G0 F3600 X91.17 Y145.475
G1 F750 X114.523 Y168.828 E122.11928
G0 F3600 X115.088 Y168.828
G1 F750 X91.17 Y144.91 E124.82529
G0 F3600 X91.17 Y144.344
G1 F750 X115.654 Y168.828 E127.59534
G0 F3600 X116.22 Y168.828
G1 F750 X91.17 Y143.778 E130.42942
G0 F3600 X91.17 Y143.213
G1 F750 X116.785 Y168.828 E133.32743
G0 F3600 X117.351 Y168.828
G1 F750 X91.17 Y142.647 E136.28947
G0 F3600 X91.17 Y142.081
G1 F750 X117.917 Y168.828 E139.31555
G0 F3600 X118.482 Y168.828
G1 F750 X91.17 Y141.516 E142.40555
G0 F3600 X91.17 Y140.95
G1 F750 X119.048 Y168.828 E145.55958
G0 F3600 X119.614 Y168.828
G1 F750 X91.17 Y140.384 E148.77765
G0 F3600 X91.17 Y139.819
G1 F750 X120.179 Y168.828 E152.05965
G0 F3600 X120.745 Y168.828
G1 F750 X91.17 Y139.253 E155.40568
G0 F3600 X91.17 Y138.687
G1 F750 X121.311 Y168.828 E158.81574
G0 F3600 X121.876 Y168.828
G1 F750 X91.17 Y138.121 E162.28979
G0 F3600 X91.17 Y137.556
G1 F750 X122.442 Y168.828 E165.82781
G0 F3600 X123.008 Y168.828
G1 F750 X91.17 Y136.99 E169.42987
G0 F3600 X91.17 Y136.424
G1 F750 X123.573 Y168.828 E173.0959
G0 F3600 X124.139 Y168.828
G1 F750 X91.17 Y135.859 E176.82592
G0 F3600 X91.17 Y135.293
G1 F750 X124.705 Y168.828 E180.61997
G0 F3600 X125.271 Y168.828
G1 F750 X91.17 Y134.727 E184.47806
G0 F3600 X91.17 Y134.162
G1 F750 X125.836 Y168.828 E188.40007
G0 F3600 X126.402 Y168.828
G1 F750 X91.17 Y133.596 E192.38612
G0 F3600 X91.17 Y133.03
G1 F750 X126.968 Y168.828 E196.4362
G0 F3600 X127.533 Y168.828
G1 F750 X91.17 Y132.465 E200.5502
G0 F3600 X91.17 Y131.899
G1 F750 X128.099 Y168.828 E204.72824
G0 F3600 X128.665 Y168.828
G1 F750 X91.17 Y131.333 E208.97032
G0 F3600 X91.571 Y131.169
G1 F750 X128.829 Y168.427 E213.18558
G0 F3600 X128.829 Y167.862
G1 F750 X92.137 Y131.169 E217.33686
G0 F3600 X92.703 Y131.169
G1 F750 X128.829 Y167.296 E221.42411
G0 F3600 X128.829 Y166.73
G1 F750 X93.268 Y131.169 E225.44738
G0 F3600 X93.834 Y131.169
G1 F750 X128.829 Y166.165 E229.40666
G0 F3600 X128.829 Y165.599
G1 F750 X94.4 Y131.169 E233.30192
G0 F3600 X94.965 Y131.169
G1 F750 X128.829 Y165.033 E237.13319
G0 F3600 X128.829 Y164.468
G1 F750 X95.531 Y131.169 E240.90049
G0 F3600 X96.097 Y131.169
G1 F750 X128.829 Y163.902 E244.60375
G0 F3600 X128.829 Y163.336
G1 F750 X96.662 Y131.169 E248.24303
G0 F3600 X97.228 Y131.169
G1 F750 X128.829 Y162.771 E251.81833
G0 F3600 X128.829 Y162.205
G1 F750 X97.794 Y131.169 E255.32959
G0 F3600 X98.359 Y131.169
G1 F750 X128.829 Y161.639 E258.77688
G0 F3600 X128.829 Y161.073
G1 F750 X98.925 Y131.169 E262.16013
G0 F3600 X99.491 Y131.169
G1 F750 X128.829 Y160.508 E265.47941
G0 F3600 X128.829 Y159.942
G1 F750 X100.057 Y131.169 E268.73464
G0 F3600 X100.622 Y131.169
G1 F750 X128.829 Y159.376 E271.9259
G0 F3600 X128.829 Y158.811
G1 F750 X101.188 Y131.169 E275.05318
G0 F3600 X101.754 Y131.169
G1 F750 X128.829 Y158.245 E278.11642
G0 F3600 X128.829 Y157.679
G1 F750 X102.319 Y131.169 E281.11569
G0 F3600 X102.885 Y131.169
G1 F750 X128.829 Y157.114 E284.05097
G0 F3600 X128.829 Y156.548
G1 F750 X103.451 Y131.169 E286.92222
G0 F3600 X104.016 Y131.169
G1 F750 X128.829 Y155.982 E289.72949
G0 F3600 X128.829 Y155.417
G1 F750 X104.582 Y131.169 E292.47278
G0 F3600 X105.148 Y131.169
G1 F750 X128.829 Y154.851 E295.15204
G0 F3600 X128.829 Y154.285
G1 F750 X105.713 Y131.169 E297.76732
G0 F3600 X106.279 Y131.169
G1 F750 X128.829 Y153.72 E300.31861
G0 F3600 X128.829 Y153.154
G1 F750 X106.845 Y131.169 E302.80588
G0 F3600 X107.41 Y131.169
G1 F750 X128.829 Y152.588 E305.22916
G0 F3600 X128.829 Y152.023
G1 F750 X107.976 Y131.169 E307.58846
G0 F3600 X108.542 Y131.169
G1 F750 X128.829 Y151.457 E309.88373
G0 F3600 X128.829 Y150.891
G1 F750 X109.107 Y131.169 E312.11502
G0 F3600 X109.673 Y131.169
G1 F750 X128.829 Y150.325 E314.28227
G0 F3600 X128.829 Y149.76
G1 F750 X110.239 Y131.169 E316.38555
G0 F3600 X110.805 Y131.169
G1 F750 X128.829 Y149.194 E318.42479
G0 F3600 X128.829 Y148.628
G1 F750 X111.37 Y131.169 E320.40005
G0 F3600 X111.936 Y131.169
G1 F750 X128.829 Y148.063 E322.31133
G0 F3600 X128.829 Y147.497
G1 F750 X112.502 Y131.169 E324.15858
G0 F3600 X113.067 Y131.169
G1 F750 X128.829 Y146.931 E325.94184
G0 F3600 X128.829 Y146.366
G1 F750 X113.633 Y131.169 E327.66113
G0 F3600 X114.199 Y131.169
G1 F750 X128.829 Y145.8 E329.31638
G0 F3600 X128.829 Y145.234
G1 F750 X114.764 Y131.169 E330.90766
G0 F3600 X115.33 Y131.169
G1 F750 X128.829 Y144.669 E332.43495
G0 F3600 X128.829 Y144.103
G1 F750 X115.896 Y131.169 E333.89821
G0 F3600 X116.461 Y131.169
G1 F750 X128.829 Y143.537 E335.29749
G0 F3600 X128.829 Y142.972
G1 F750 X117.027 Y131.169 E336.63279
G0 F3600 X117.593 Y131.169
G1 F750 X128.829 Y142.406 E337.90405
G0 F3600 X128.829 Y141.84
G1 F750 X118.158 Y131.169 E339.11134
G0 F3600 X118.724 Y131.169
G1 F750 X128.829 Y141.274 E340.25459
G0 F3600 X128.829 Y140.709
G1 F750 X119.29 Y131.169 E341.33386
G0 F3600 X119.856 Y131.169
G1 F750 X128.829 Y140.143 E342.3491
G0 F3600 X128.829 Y139.577
G1 F750 X120.421 Y131.169 E343.30035
G0 F3600 X120.987 Y131.169
G1 F750 X128.829 Y139.012 E344.18763
G0 F3600 X128.829 Y138.446
G1 F750 X121.553 Y131.169 E345.01087
G0 F3600 X122.118 Y131.169
G1 F750 X128.829 Y137.88 E345.77014
G0 F3600 X128.829 Y137.315
G1 F750 X122.684 Y131.169 E346.46542
G0 F3600 X123.25 Y131.169
G1 F750 X128.829 Y136.749 E347.09667
G0 F3600 X128.829 Y136.183
G1 F750 X123.815 Y131.169 E347.66394
G0 F3600 X124.381 Y131.169
G1 F750 X128.829 Y135.618 E348.16723
G0 F3600 X128.829 Y135.052
G1 F750 X124.947 Y131.169 E348.60648
G0 F3600 X125.512 Y131.169
G1 F750 X128.829 Y134.486 E348.98176
G0 F3600 X128.829 Y133.921
G1 F750 X126.078 Y131.169 E349.29305
G0 F3600 X126.644 Y131.169
G1 F750 X128.829 Y133.355 E349.54032
G0 F3600 X128.829 Y132.789
G1 F750 X127.209 Y131.169 E349.7236
G0 F3600 X127.775 Y131.169
G1 F750 X128.829 Y132.224 E349.8429
G0 F3600 X128.829 Y131.658
G1 F750 X128.341 Y131.169 E349.89817
;MESH:NONMESH
G0 F600 X128.341 Y131.169 Z0.35
G0 F3600 X90.67 Y169.33
G0 X90.6 Y169.4
;TIME_ELAPSED:358.931805
;LAYER:1
M106 S255
;TYPE:WALL-INNER
;MESH:xyzCalibration_cube.stl
G1 F1125 X90.6 Y130.6 E352.22617
G1 X129.4 Y130.6 E354.55417
G1 X129.4 Y169.4 E356.88217
G1 X90.6 Y169.4 E359.21017
G0 F5400 X90.2 Y169.8
;TYPE:WALL-OUTER
G1 F750 X90.2 Y130.2 E361.58617
G1 X129.8 Y130.2 E363.96217
G1 X129.8 Y169.8 E366.33817
G1 X90.2 Y169.8 E368.71417
G0 F5400 X90.2 Y169.6
G0 X90.99 Y169.01
;TYPE:SKIN
G1 F750 X90.99 Y130.99 E370.99537
G1 X129.01 Y130.99 E373.27657
G1 X129.01 Y169.01 E375.55777
G1 X90.99 Y169.01 E377.83897
G0 F5400 X91.17 Y131.709
G1 F750 X91.711 Y131.169 E377.88483
G0 F5400 X92.276 Y131.169
G1 F750 X91.17 Y132.275 E377.97868
G0 F5400 X91.17 Y132.841
G1 F750 X92.842 Y131.169 E378.12055
G0 F5400 X93.408 Y131.169
G1 F750 X91.17 Y133.407 E378.31045
G0 F5400 X91.17 Y133.972
G1 F750 X93.973 Y131.169 E378.5483
G0 F5400 X94.539 Y131.169
G1 F750 X91.17 Y134.538 E378.83416
G0 F5400 X91.17 Y135.104
G1 F750 X95.105 Y131.169 E379.16806
G0 F5400 X95.67 Y131.169
G1 F750 X91.17 Y135.669 E379.5499
G0 F5400 X91.17 Y136.235
G1 F750 X96.236 Y131.169 E379.97976
G0 F5400 X96.802 Y131.169
G1 F750 X91.17 Y136.801 E380.45765
G0 F5400 X91.17 Y137.366
G1 F750 X97.367 Y131.169 E380.98349
G0 F5400 X97.933 Y131.169
G1 F750 X91.17 Y137.932 E381.55735
G0 F5400 X91.17 Y138.498
G1 F750 X98.499 Y131.169 E382.17923
G0 F5400 X99.064 Y131.169
G1 F750 X91.17 Y139.063 E382.84906
G0 F5400 X91.17 Y139.629
G1 F750 X99.63 Y131.169 E383.56692
G0 F5400 X100.196 Y131.169
G1 F750 X91.17 Y140.195 E384.3328
G0 F5400 X91.17 Y140.76
G1 F750 X100.762 Y131.169 E385.14666
G0 F5400 X101.327 Y131.169
G1 F750 X91.17 Y141.326 E386.00851
G0 F5400 X91.17 Y141.892
G1 F750 X101.893 Y131.169 E386.91839
G0 F5400 X102.459 Y131.169
G1 F750 X91.17 Y142.457 E387.87625
G0 F5400 X91.17 Y143.023
G1 F750 X103.024 Y131.169 E388.8821
G0 F5400 X103.59 Y131.169
G1 F750 X91.17 Y143.589 E389.93597
G0 F5400 X91.17 Y144.155
G1 F750 X104.156 Y131.169 E391.03787
G0 F5400 X104.721 Y131.169
G1 F750 X91.17 Y144.72 E392.18771
G0 F5400 X91.17 Y145.286
G1 F750 X105.287 Y131.169 E393.38557
G0 F5400 X105.853 Y131.169
G1 F750 X91.17 Y145.852 E394.63147
G0 F5400 X91.17 Y146.417
G1 F750 X106.418 Y131.169 E395.9253
G0 F5400 X106.984 Y131.169
G1 F750 X91.17 Y146.983 E397.26717
G0 F5400 X91.17 Y147.549
G1 F750 X107.55 Y131.169 E398.65705
G0 F5400 X108.115 Y131.169
G1 F750 X91.17 Y148.114 E400.09489
G0 F5400 X91.17 Y148.68
G1 F750 X108.681 Y131.169 E401.58074
