;FLAVOR:Marlin
;TIME:1585
;Filament used: 2.41144m, 0m
;Layer height: 0.3
;MINX:33.963
;MINY:84.463
;MINZ:0.3
;MAXX:75.037
;MAXY:125.537
;MAXZ:22.8
;Generated with Cura_SteamEngine 4.1.0
T0
M140 S60
M105
M190 S60
M104 S200
M105
M109 S200
M82 ;absolute extrusion mode

;Basic settings: Layer height: 0.3 Walls: 1.2 Fill: {fill_density}
;Print time: 00:26:25
;Filament used: [0.0, 2.41]m [0.0, 8.004270878906249]g
;Filament cost: [0.0, 0.20010677197265622]
;M190 S60 ;Uncomment to add your own bed temperature line
;M109 S200.0 ;Uncomment to add your own temperature line
G21        ;metric values
G90        ;absolute positioning
M82        ;set extruder to absolute mode
M107       ;start with the fan off
G28 X0 Y0  ;move X/Y to min endstops
G28 Z0     ;move Z to min endstops
G1 X0 Y0 Z15.0 F120 ;move the platform down 15mm
G92 E0                  ;zero the extruded length
G1 F200 E25              ;extrude 3mm of feed stock
G92 E0                  ;zero the extruded length again
G1 F120
;Put printing message on LCD screen
M117 Printing...
G92 E0
G92 E0
G1 F1500 E-6.5
;LAYER_COUNT:76
;LAYER:0
M107
G0 F3600 X45.098 Y86.742 Z0.3
;TYPE:SKIRT
G1 F1500 E0
G1 X45.164 Y86.708 E0.0037
G1 X45.652 Y86.46 E0.03101
G1 X45.848 Y86.367 E0.04184
G1 X46.062 Y86.274 E0.05348
G1 X46.131 Y86.245 E0.05721
G1 X46.431 Y86.122 E0.07339
G1 X46.467 Y86.107 E0.07533
G1 X47.315 Y85.77 E0.12086
G1 X47.374 Y85.748 E0.124
G1 X47.978 Y85.52 E0.15621
G1 X48.341 Y85.405 E0.17521
G1 X48.874 Y85.266 E0.20269
G1 X48.941 Y85.249 E0.20614
G1 X50.34 Y84.913 E0.27792
G1 X50.387 Y84.902 E0.28033
G1 X51.046 Y84.753 E0.31403
G1 X51.45 Y84.685 E0.33447
G1 X51.762 Y84.651 E0.35013
G1 X51.868 Y84.641 E0.35544
G1 X53.486 Y84.513 E0.43642
G1 X53.534 Y84.51 E0.43882
G1 X54.205 Y84.466 E0.47237
G1 X54.634 Y84.463 E0.49377
G1 X55.623 Y84.516 E0.54318
G1 X55.685 Y84.52 E0.54628
G1 X56.487 Y84.577 E0.58639
G1 X56.542 Y84.581 E0.58914
G1 X57.202 Y84.638 E0.62219
G1 X57.603 Y84.696 E0.64241
G1 X58.367 Y84.85 E0.68129
G1 X58.419 Y84.861 E0.68394
G1 X59.355 Y85.064 E0.73173
G1 X59.409 Y85.076 E0.73449
G1 X60.074 Y85.231 E0.76855
G1 X60.462 Y85.345 E0.78873
G1 X61.208 Y85.61 E0.82822
G1 X61.26 Y85.629 E0.83099
G1 X62.116 Y85.948 E0.87656
G1 X62.162 Y85.965 E0.87901
G1 X62.762 Y86.198 E0.91112
G1 X62.968 Y86.286 E0.9223
G1 X63.399 Y86.485 E0.94598
G1 X63.6 Y86.585 E0.95718
G1 X64.443 Y87.04 E1.00497
G1 X64.542 Y87.095 E1.01062
G1 X65.084 Y87.41 E1.0419
G1 X65.172 Y87.464 E1.04705
G1 X65.717 Y87.802 E1.07904
G1 X65.812 Y87.862 E1.08465
G1 X66.223 Y88.135 E1.10927
G1 X66.389 Y88.252 E1.1194
G1 X67.002 Y88.711 E1.1576
G1 X67.083 Y88.774 E1.16272
G1 X67.545 Y89.141 E1.19216
G1 X67.623 Y89.205 E1.19719
G1 X67.887 Y89.427 E1.2144
G1 X67.967 Y89.496 E1.21967
G1 X68.153 Y89.662 E1.23211
G1 X68.19 Y89.696 E1.23462
G1 X68.688 Y90.153 E1.26834
G1 X68.764 Y90.224 E1.27353
G1 X68.982 Y90.436 E1.2887
G1 X69.086 Y90.542 E1.29611
G1 X69.709 Y91.2 E1.34132
G1 X69.839 Y91.344 E1.35099
G1 X70.251 Y91.829 E1.38274
G1 X70.319 Y91.912 E1.3881
G1 X70.706 Y92.396 E1.41901
G1 X70.777 Y92.488 E1.42481
G1 X71.248 Y93.118 E1.46405
G1 X71.309 Y93.202 E1.46923
G1 X71.506 Y93.482 E1.48631
G1 X71.631 Y93.673 E1.4977
G1 X72.125 Y94.479 E1.54487
G1 X72.182 Y94.575 E1.55044
G1 X72.608 Y95.321 E1.59329
G1 X72.657 Y95.409 E1.59832
G1 X72.758 Y95.598 E1.60901
G1 X72.792 Y95.664 E1.61271
G1 X73.04 Y96.152 E1.64002
G1 X73.133 Y96.348 E1.65085
G1 X73.226 Y96.562 E1.66249
G1 X73.255 Y96.631 E1.66622
G1 X73.378 Y96.931 E1.6824
G1 X73.393 Y96.967 E1.68435
G1 X73.73 Y97.815 E1.72987
G1 X73.753 Y97.875 E1.73308
G1 X73.981 Y98.48 E1.76533
G1 X74.095 Y98.84 E1.78417
G1 X74.234 Y99.372 E1.8116
G1 X74.251 Y99.44 E1.8151
G1 X74.579 Y100.804 E1.88509
G1 X74.589 Y100.848 E1.88734
G1 X74.747 Y101.543 E1.9229
G1 X74.817 Y101.962 E1.94409
G1 X74.85 Y102.274 E1.95975
G1 X74.859 Y102.367 E1.96441
G1 X74.986 Y103.959 E2.04409
G1 X74.989 Y104.011 E2.04668
G1 X75.034 Y104.703 E2.08128
G1 X75.037 Y105.128 E2.10249
G1 X74.983 Y106.145 E2.1533
G1 X74.979 Y106.213 E2.15669
G1 X74.923 Y106.99 E2.19556
G1 X74.919 Y107.042 E2.19816
G1 X74.861 Y107.711 E2.23166
G1 X74.803 Y108.111 E2.25183
G1 X74.654 Y108.851 E2.28949
G1 X74.643 Y108.904 E2.29219
G1 X74.434 Y109.866 E2.3413
G1 X74.422 Y109.921 E2.34411
G1 X74.269 Y110.576 E2.37767
G1 X74.155 Y110.962 E2.39775
G1 X73.89 Y111.708 E2.43724
G1 X73.871 Y111.76 E2.44001
G1 X73.552 Y112.616 E2.48558
G1 X73.535 Y112.662 E2.48803
G1 X73.302 Y113.262 E2.52014
G1 X73.214 Y113.468 E2.53132
G1 X73.015 Y113.899 E2.555
G1 X72.915 Y114.1 E2.5662
G1 X72.46 Y114.943 E2.61399
G1 X72.405 Y115.042 E2.61964
G1 X72.09 Y115.584 E2.65092
G1 X72.036 Y115.672 E2.65607
G1 X71.698 Y116.217 E2.68806
G1 X71.639 Y116.31 E2.69356
G1 X71.367 Y116.72 E2.71811
G1 X71.248 Y116.888 E2.72838
G1 X70.788 Y117.502 E2.76665
G1 X70.726 Y117.583 E2.77174
G1 X70.356 Y118.049 E2.80143
G1 X70.29 Y118.129 E2.8066
G1 X70.071 Y118.389 E2.82356
G1 X70.004 Y118.467 E2.82869
G1 X69.863 Y118.625 E2.83926
G1 X69.831 Y118.66 E2.84162
G1 X69.349 Y119.186 E2.87722
G1 X69.276 Y119.264 E2.88255
G1 X69.064 Y119.482 E2.89772
G1 X68.957 Y119.587 E2.9052
G1 X68.29 Y120.218 E2.951
G1 X68.146 Y120.348 E2.96068
G1 X67.67 Y120.752 E2.99183
G1 X67.588 Y120.819 E2.99711
G1 X67.104 Y121.206 E3.02803
G1 X67.012 Y121.277 E3.03383
G1 X66.382 Y121.748 E3.07307
G1 X66.298 Y121.809 E3.07825
G1 X66.018 Y122.006 E3.09533
G1 X65.827 Y122.131 E3.10672
G1 X65.021 Y122.625 E3.15388
G1 X64.925 Y122.682 E3.15945
G1 X64.179 Y123.108 E3.20231
G1 X64.091 Y123.157 E3.20734
G1 X63.902 Y123.258 E3.21803
G1 X63.836 Y123.292 E3.22173
G1 X63.348 Y123.54 E3.24904
G1 X63.112 Y123.65 E3.26203
G1 X62.598 Y123.866 E3.28985
G1 X62.533 Y123.893 E3.29336
G1 X61.685 Y124.23 E3.33889
G1 X61.626 Y124.252 E3.34203
G1 X61.022 Y124.48 E3.37424
G1 X60.659 Y124.595 E3.39323
G1 X60.126 Y124.734 E3.42071
G1 X60.059 Y124.751 E3.42416
G1 X58.669 Y125.085 E3.49548
G1 X58.622 Y125.096 E3.49789
G1 X57.954 Y125.247 E3.53206
G1 X57.55 Y125.315 E3.5525
G1 X57.238 Y125.349 E3.56816
G1 X57.132 Y125.359 E3.57347
G1 X55.514 Y125.487 E3.65444
G1 X55.466 Y125.49 E3.65684
G1 X54.795 Y125.534 E3.69039
G1 X54.366 Y125.537 E3.71179
G1 X53.377 Y125.484 E3.76121
G1 X53.315 Y125.48 E3.76431
G1 X52.513 Y125.423 E3.80442
G1 X52.458 Y125.419 E3.80717
G1 X51.798 Y125.362 E3.84022
G1 X51.397 Y125.304 E3.86044
G1 X50.633 Y125.15 E3.89932
G1 X50.582 Y125.139 E3.90192
G1 X49.636 Y124.934 E3.95021
G1 X49.579 Y124.922 E3.95312
G1 X48.924 Y124.769 E3.98668
G1 X48.538 Y124.655 E4.00676
G1 X47.792 Y124.39 E4.04625
G1 X47.74 Y124.371 E4.04901
G1 X46.884 Y124.052 E4.09459
G1 X46.838 Y124.035 E4.09704
G1 X46.238 Y123.802 E4.12915
G1 X46.032 Y123.714 E4.14032
G1 X45.601 Y123.515 E4.16401
G1 X45.4 Y123.415 E4.17521
G1 X44.557 Y122.96 E4.223
G1 X44.459 Y122.905 E4.22861
G1 X43.915 Y122.589 E4.25999
G1 X43.825 Y122.535 E4.26523
G1 X43.282 Y122.198 E4.29711
G1 X43.188 Y122.138 E4.30268
G1 X42.777 Y121.865 E4.32729
G1 X42.611 Y121.748 E4.33743
G1 X41.998 Y121.289 E4.37563
G1 X41.917 Y121.226 E4.38075
G1 X41.45 Y120.855 E4.41051
G1 X41.371 Y120.79 E4.41561
G1 X41.112 Y120.572 E4.4325
G1 X41.033 Y120.504 E4.4377
G1 X40.847 Y120.338 E4.45014
G1 X40.81 Y120.304 E4.45265
G1 X40.311 Y119.846 E4.48644
G1 X40.235 Y119.775 E4.49163
G1 X40.018 Y119.564 E4.50673
G1 X39.913 Y119.457 E4.51421
G1 X39.281 Y118.789 E4.56009
G1 X39.15 Y118.643 E4.56987
G1 X38.732 Y118.15 E4.60212
G1 X38.665 Y118.068 E4.6074
G1 X38.293 Y117.602 E4.63715
G1 X38.223 Y117.512 E4.64284
G1 X37.752 Y116.882 E4.68208
G1 X37.692 Y116.8 E4.68715
G1 X37.494 Y116.519 E4.7043
G1 X37.367 Y116.325 E4.71587
G1 X36.874 Y115.52 E4.76296
G1 X36.819 Y115.427 E4.76835
G1 X36.392 Y114.68 E4.81128
G1 X36.339 Y114.584 E4.81675
G1 X36.239 Y114.396 E4.82738
G1 X36.206 Y114.333 E4.83092
G1 X35.953 Y113.834 E4.85884
G1 X35.861 Y113.638 E4.86964
G1 X35.773 Y113.435 E4.88068
G1 X35.745 Y113.369 E4.88425
G1 X35.622 Y113.069 E4.90043
G1 X35.609 Y113.035 E4.90225
G1 X35.256 Y112.149 E4.94983
G1 X35.229 Y112.081 E4.95348
G1 X35.016 Y111.513 E4.98374
G1 X34.903 Y111.155 E5.00247
G1 X34.765 Y110.624 E5.02984
G1 X34.749 Y110.559 E5.03318
G1 X34.413 Y109.16 E5.10496
G1 X34.401 Y109.112 E5.10743
G1 X34.251 Y108.448 E5.14139
G1 X34.184 Y108.04 E5.16202
G1 X34.151 Y107.733 E5.17743
G1 X34.141 Y107.632 E5.18249
G1 X34.013 Y106.014 E5.26346
G1 X34.01 Y105.966 E5.26586
G1 X33.966 Y105.297 E5.29931
G1 X33.963 Y104.869 E5.32067
G1 X34.016 Y103.878 E5.37018
G1 X34.02 Y103.815 E5.37333
G1 X34.077 Y103.013 E5.41344
G1 X34.081 Y102.961 E5.41604
G1 X34.138 Y102.296 E5.44934
G1 X34.197 Y101.887 E5.46996
G1 X34.351 Y101.128 E5.5086
G1 X34.361 Y101.082 E5.51094
G1 X34.566 Y100.136 E5.55924
G1 X34.578 Y100.079 E5.56214
G1 X34.731 Y99.424 E5.5957
G1 X34.845 Y99.038 E5.61578
G1 X35.11 Y98.292 E5.65528
G1 X35.129 Y98.24 E5.65804
G1 X35.448 Y97.384 E5.70361
G1 X35.465 Y97.338 E5.70606
G1 X35.698 Y96.738 E5.73817
G1 X35.786 Y96.532 E5.74935
G1 X35.985 Y96.101 E5.77303
G1 X36.085 Y95.9 E5.78423
G1 X36.54 Y95.057 E5.83202
G1 X36.595 Y94.958 E5.83767
G1 X36.91 Y94.416 E5.86895
G1 X36.964 Y94.328 E5.8741
G1 X37.302 Y93.783 E5.9061
G1 X37.361 Y93.69 E5.91159
G1 X37.633 Y93.28 E5.93614
G1 X37.752 Y93.112 E5.94641
G1 X38.212 Y92.498 E5.98468
G1 X38.274 Y92.416 E5.98981
G1 X38.653 Y91.939 E6.02021
G1 X38.72 Y91.858 E6.02545
G1 X38.93 Y91.609 E6.0417
G1 X38.996 Y91.533 E6.04673
G1 X39.162 Y91.347 E6.05916
G1 X39.196 Y91.31 E6.06167
G1 X39.653 Y90.812 E6.09539
G1 X39.724 Y90.736 E6.10058
G1 X39.936 Y90.518 E6.11575
G1 X40.042 Y90.413 E6.12319
G1 X40.715 Y89.776 E6.16943
G1 X40.864 Y89.644 E6.17936
G1 X41.334 Y89.246 E6.21008
G1 X41.412 Y89.181 E6.21515
G1 X41.896 Y88.794 E6.24607
G1 X41.988 Y88.723 E6.25186
G1 X42.618 Y88.252 E6.29111
G1 X42.702 Y88.191 E6.29629
G1 X42.982 Y87.994 E6.31337
G1 X43.173 Y87.869 E6.32475
G1 X43.979 Y87.375 E6.37192
G1 X44.075 Y87.318 E6.37749
G1 X44.821 Y86.892 E6.42035
G1 X44.909 Y86.843 E6.42537
G1 X45.098 Y86.742 E6.43606
G0 F3600 X45.287 Y87.095
G1 F1500 X45.345 Y87.064 E6.43934
G1 X45.833 Y86.816 E6.46665
G1 X46.008 Y86.734 E6.4763
G1 X46.222 Y86.641 E6.48794
G1 X46.283 Y86.615 E6.49125
G1 X46.583 Y86.492 E6.50742
G1 X46.615 Y86.479 E6.50914
G1 X47.463 Y86.142 E6.55467
G1 X47.515 Y86.122 E6.55745
G1 X48.119 Y85.894 E6.58966
G1 X48.441 Y85.792 E6.60651
G1 X48.974 Y85.653 E6.63399
G1 X49.035 Y85.637 E6.63714
G1 X50.434 Y85.301 E6.70892
G1 X50.475 Y85.292 E6.71101
G1 X51.134 Y85.143 E6.74472
G1 X51.493 Y85.083 E6.76288
G1 X51.805 Y85.049 E6.77854
G1 X51.9 Y85.04 E6.7833
G1 X53.518 Y84.912 E6.86427
G1 X53.561 Y84.909 E6.86642
G1 X54.232 Y84.865 E6.89997
G1 X54.612 Y84.863 E6.91893
G1 X55.601 Y84.916 E6.96834
G1 X55.657 Y84.919 E6.97114
G1 X56.459 Y84.976 E7.01125
G1 X56.507 Y84.98 E7.01366
G1 X57.167 Y85.037 E7.04671
G1 X57.524 Y85.088 E7.0647
G1 X58.288 Y85.242 E7.10358
G1 X58.334 Y85.252 E7.10593
G1 X59.27 Y85.455 E7.15371
G1 X59.318 Y85.466 E7.15617
G1 X59.983 Y85.621 E7.19023
G1 X60.328 Y85.722 E7.20817
G1 X61.074 Y85.987 E7.24767
G1 X61.12 Y86.003 E7.2501
G1 X61.976 Y86.322 E7.29567
G1 X62.017 Y86.338 E7.29787
G1 X62.617 Y86.571 E7.32998
G1 X62.8 Y86.649 E7.3399
G1 X63.231 Y86.848 E7.36359
G1 X63.41 Y86.937 E7.37356
G1 X64.253 Y87.392 E7.42135
G1 X64.341 Y87.441 E7.42638
G1 X64.883 Y87.756 E7.45765
G1 X64.962 Y87.804 E7.46227
G1 X65.507 Y88.142 E7.49426
G1 X65.591 Y88.195 E7.49922
G1 X66.002 Y88.468 E7.52383
G1 X66.149 Y88.572 E7.53282
G1 X66.762 Y89.031 E7.57102
G1 X66.834 Y89.087 E7.57557
G1 X67.296 Y89.454 E7.60501
G1 X67.366 Y89.511 E7.60951
G1 X67.63 Y89.733 E7.62672
G1 X67.701 Y89.795 E7.63142
G1 X67.887 Y89.961 E7.64386
G1 X67.92 Y89.99 E7.64605
G1 X68.418 Y90.447 E7.67977
G1 X68.485 Y90.511 E7.6844
G1 X68.703 Y90.723 E7.69957
G1 X68.796 Y90.817 E7.70616
G1 X69.419 Y91.475 E7.75137
G1 X69.534 Y91.603 E7.75996
G1 X69.946 Y92.088 E7.79171
G1 X70.006 Y92.162 E7.79646
G1 X70.393 Y92.646 E7.82738
G1 X70.457 Y92.728 E7.83257
G1 X70.928 Y93.358 E7.87181
G1 X70.982 Y93.433 E7.87642
G1 X71.179 Y93.713 E7.8935
G1 X71.29 Y93.882 E7.90359
G1 X71.784 Y94.688 E7.95075
G1 X71.835 Y94.773 E7.9557
G1 X72.261 Y95.519 E7.99856
G1 X72.304 Y95.598 E8.00304
G1 X72.405 Y95.787 E8.01373
G1 X72.436 Y95.845 E8.01701
G1 X72.684 Y96.333 E8.04432
G1 X72.766 Y96.508 E8.05397
G1 X72.859 Y96.722 E8.06561
G1 X72.885 Y96.783 E8.06892
G1 X73.008 Y97.083 E8.08509
G1 X73.021 Y97.115 E8.08681
G1 X73.358 Y97.963 E8.13234
G1 X73.378 Y98.017 E8.13521
G1 X73.606 Y98.622 E8.16747
G1 X73.708 Y98.941 E8.18418
G1 X73.847 Y99.473 E8.21161
G1 X73.862 Y99.534 E8.21474
G1 X74.19 Y100.898 E8.28473
G1 X74.199 Y100.937 E8.28673
G1 X74.357 Y101.632 E8.32229
G1 X74.419 Y102.004 E8.3411
G1 X74.452 Y102.316 E8.35676
G1 X74.46 Y102.399 E8.36092
G1 X74.587 Y103.991 E8.44059
G1 X74.59 Y104.037 E8.44289
G1 X74.635 Y104.729 E8.47749
G1 X74.637 Y105.107 E8.49635
G1 X74.583 Y106.124 E8.54716
G1 X74.58 Y106.184 E8.55016
G1 X74.524 Y106.961 E8.58902
G1 X74.52 Y107.007 E8.59133
G1 X74.462 Y107.676 E8.62483
G1 X74.411 Y108.032 E8.64277
G1 X74.262 Y108.772 E8.68043
G1 X74.252 Y108.819 E8.68283
G1 X74.043 Y109.781 E8.73194
G1 X74.032 Y109.83 E8.73445
G1 X73.879 Y110.485 E8.768
G1 X73.778 Y110.828 E8.78584
G1 X73.513 Y111.574 E8.82534
G1 X73.497 Y111.62 E8.82777
G1 X73.178 Y112.476 E8.87334
G1 X73.162 Y112.517 E8.87554
G1 X72.929 Y113.117 E8.90765
G1 X72.851 Y113.3 E8.91758
G1 X72.652 Y113.731 E8.94126
G1 X72.563 Y113.91 E8.95123
G1 X72.108 Y114.753 E8.99903
G1 X72.059 Y114.841 E9.00405
G1 X71.744 Y115.383 E9.03533
G1 X71.696 Y115.462 E9.03994
G1 X71.358 Y116.007 E9.07193
G1 X71.306 Y116.089 E9.07678
G1 X71.034 Y116.499 E9.10133
G1 X70.928 Y116.649 E9.11049
G1 X70.468 Y117.263 E9.14876
G1 X70.413 Y117.334 E9.15325
G1 X70.043 Y117.8 E9.18293
G1 X69.984 Y117.872 E9.18758
G1 X69.765 Y118.132 E9.20454
G1 X69.706 Y118.201 E9.20906
G1 X69.565 Y118.359 E9.21963
G1 X69.536 Y118.39 E9.22175
G1 X69.054 Y118.916 E9.25734
G1 X68.989 Y118.985 E9.26207
G1 X68.777 Y119.203 E9.27724
G1 X68.682 Y119.297 E9.28391
G1 X68.015 Y119.928 E9.32972
G1 X67.887 Y120.043 E9.3383
G1 X67.411 Y120.447 E9.36945
G1 X67.338 Y120.506 E9.37413
G1 X66.854 Y120.893 E9.40505
G1 X66.772 Y120.957 E9.41024
G1 X66.142 Y121.428 E9.44948
G1 X66.067 Y121.482 E9.45409
G1 X65.787 Y121.679 E9.47117
G1 X65.618 Y121.79 E9.48126
G1 X64.812 Y122.284 E9.52842
G1 X64.727 Y122.335 E9.53337
G1 X63.981 Y122.761 E9.57623
G1 X63.902 Y122.804 E9.58072
G1 X63.713 Y122.905 E9.59141
G1 X63.655 Y122.936 E9.59469
G1 X63.167 Y123.184 E9.622
G1 X62.957 Y123.281 E9.63354
G1 X62.443 Y123.497 E9.66135
G1 X62.385 Y123.521 E9.66449
G1 X61.537 Y123.858 E9.71001
G1 X61.485 Y123.878 E9.71279
G1 X60.881 Y124.106 E9.745
G1 X60.559 Y124.208 E9.76185
G1 X60.026 Y124.347 E9.78933
G1 X59.966 Y124.362 E9.79242
G1 X58.576 Y124.696 E9.86374
G1 X58.534 Y124.706 E9.86589
G1 X57.866 Y124.857 E9.90006
G1 X57.507 Y124.917 E9.91822
G1 X57.195 Y124.951 E9.93388
G1 X57.1 Y124.96 E9.93864
G1 X55.482 Y125.088 E10.01961
G1 X55.439 Y125.091 E10.02176
G1 X54.768 Y125.135 E10.05531
G1 X54.388 Y125.137 E10.07427
G1 X53.399 Y125.084 E10.12368
G1 X53.343 Y125.081 E10.12648
G1 X52.541 Y125.024 E10.16659
G1 X52.493 Y125.02 E10.169
G1 X51.833 Y124.963 E10.20205
G1 X51.476 Y124.912 E10.22004
G1 X50.712 Y124.758 E10.25892
G1 X50.666 Y124.748 E10.26127
G1 X49.72 Y124.543 E10.30956
G1 X49.67 Y124.532 E10.31212
G1 X49.015 Y124.379 E10.34567
G1 X48.672 Y124.278 E10.36351
G1 X47.926 Y124.013 E10.40301
G1 X47.88 Y123.997 E10.40544
G1 X47.024 Y123.678 E10.45101
G1 X46.983 Y123.662 E10.45321
G1 X46.383 Y123.429 E10.48532
G1 X46.2 Y123.351 E10.49525
G1 X45.769 Y123.152 E10.51893
G1 X45.59 Y123.063 E10.5289
G1 X44.747 Y122.608 E10.5767
G1 X44.66 Y122.559 E10.58168
G1 X44.116 Y122.243 E10.61306
G1 X44.036 Y122.195 E10.61772
G1 X43.493 Y121.858 E10.6496
G1 X43.409 Y121.805 E10.65456
G1 X42.998 Y121.532 E10.67917
G1 X42.851 Y121.428 E10.68816
G1 X42.238 Y120.969 E10.72636
G1 X42.165 Y120.913 E10.73095
G1 X41.698 Y120.542 E10.76071
G1 X41.628 Y120.484 E10.76524
G1 X41.369 Y120.266 E10.78213
G1 X41.299 Y120.205 E10.78677
G1 X41.113 Y120.039 E10.7992
G1 X41.08 Y120.01 E10.8014
