;FLAVOR:Marlin
;TIME:9201
;Filament used: 16.7869m, 0m
;Layer height: 0.3
;MINX:33.365
;MINY:71.92
;MINZ:0.3
;MAXX:75.635
;MAXY:140.855
;MAXZ:129.9
;Generated with Cura_SteamEngine 4.1.0
T0
M140 S60
M105
M190 S60
M104 S200
M105
M109 S200
M82 ;absolute extrusion mode

;Basic settings: Layer height: 0.3 Walls: 1.2 Fill: {fill_density}
;Print time: 02:33:21
;Filament used: [0.0, 16.79]m [0.0, 55.7205834375]g
;Filament cost: [0.0, 1.3930145859375]
;M190 S60 ;Uncomment to add your own bed temperature line
;M109 S200.0 ;Uncomment to add your own temperature line
G21        ;metric values
G90        ;absolute positioning
M82        ;set extruder to absolute mode
M107       ;start with the fan off
G28 X0 Y0  ;move X/Y to min endstops
G28 Z0     ;move Z to min endstops
G1 X0 Y0 Z15.0 F120 ;move the platform down 15mm
G92 E0                  ;zero the extruded length
G1 F200 E25              ;extrude 3mm of feed stock
G92 E0                  ;zero the extruded length again
G1 F120
;Put printing message on LCD screen
M117 Printing...
G92 E0
G92 E0
G1 F1500 E-6.5
;LAYER_COUNT:433
;LAYER:0
M107
G0 F3600 X38.887 Y72.807 Z0.3
;TYPE:SKIRT
G1 F1500 E0
G1 X39.605 Y72.477 E0.03942
G1 X40.352 Y72.222 E0.0788
G1 X41.121 Y72.043 E0.11819
G1 X41.905 Y71.943 E0.15763
G1 X42.5 Y71.92 E0.18733
G1 X66.5 Y71.92 E1.3847
G1 X67.289 Y71.96 E1.42411
G1 X68.069 Y72.079 E1.46348
G1 X68.834 Y72.277 E1.5029
G1 X69.574 Y72.551 E1.54227
G1 X70.283 Y72.899 E1.58167
G1 X70.954 Y73.317 E1.62111
G1 X71.578 Y73.8 E1.66048
G1 X72.015 Y74.205 E1.6902
G1 X73.35 Y75.54 E1.7844
G1 X73.88 Y76.126 E1.82382
G1 X74.347 Y76.762 E1.86318
G1 X74.748 Y77.442 E1.90257
G1 X75.078 Y78.16 E1.94199
G1 X75.333 Y78.907 E1.98137
G1 X75.512 Y79.676 E2.02076
G1 X75.612 Y80.46 E2.06019
G1 X75.635 Y81.065 E2.0904
G1 X75.565 Y133.065 E4.68469
G1 X75.524 Y133.854 E4.72411
G1 X75.403 Y134.635 E4.76353
G1 X75.205 Y135.399 E4.80291
G1 X74.929 Y136.139 E4.84231
G1 X74.581 Y136.848 E4.88172
G1 X74.162 Y137.517 E4.9211
G1 X73.678 Y138.141 E4.9605
G1 X73.134 Y138.713 E4.99988
G1 X72.534 Y139.227 E5.0393
G1 X71.886 Y139.678 E5.07868
G1 X71.195 Y140.06 E5.11808
G1 X70.469 Y140.371 E5.15748
G1 X69.716 Y140.607 E5.19685
G1 X68.942 Y140.766 E5.23627
G1 X68.156 Y140.845 E5.27568
G1 X67.367 Y140.845 E5.31504
G1 X66.581 Y140.765 E5.35446
G1 X66.099 Y140.675 E5.37892
G1 X65.003 Y140.435 E5.4349
G1 X60.831 Y139.752 E5.64581
G1 X56.61 Y139.406 E5.8571
G1 X52.439 Y139.402 E6.0652
G1 X48.214 Y139.744 E6.27667
G1 X44.011 Y140.433 E6.48916
G1 X42.891 Y140.677 E6.54635
G1 X42.112 Y140.806 E6.58574
G1 X41.324 Y140.855 E6.62513
G1 X40.535 Y140.825 E6.66452
G1 X39.753 Y140.715 E6.70392
G1 X38.986 Y140.527 E6.74332
G1 X38.242 Y140.262 E6.78272
G1 X37.529 Y139.923 E6.82211
G1 X36.853 Y139.514 E6.86153
G1 X36.223 Y139.038 E6.90092
G1 X35.644 Y138.502 E6.94028
G1 X35.122 Y137.909 E6.9797
G1 X34.662 Y137.267 E7.0191
G1 X34.27 Y136.581 E7.05852
G1 X33.949 Y135.86 E7.09789
G1 X33.703 Y135.109 E7.13732
G1 X33.534 Y134.338 E7.1767
G1 X33.444 Y133.553 E7.21612
G1 X33.428 Y133.065 E7.24048
G1 X33.365 Y81.064 E9.83482
G1 X33.404 Y80.276 E9.87418
G1 X33.523 Y79.495 E9.9136
G1 X33.719 Y78.73 E9.953
G1 X33.993 Y77.989 E9.99241
G1 X34.339 Y77.28 E10.03177
G1 X34.756 Y76.609 E10.07118
G1 X35.239 Y75.984 E10.11059
G1 X35.65 Y75.54 E10.14078
G1 X36.985 Y74.205 E10.23497
G1 X37.571 Y73.675 E10.27439
G1 X38.207 Y73.208 E10.31375
G1 X38.887 Y72.807 E10.35314
G0 F3600 X39.126 Y73.134
G1 F1500 X39.828 Y72.819 E10.39152
G1 X40.559 Y72.579 E10.42991
G1 X41.31 Y72.416 E10.46825
G1 X42.075 Y72.332 E10.50665
G1 X42.5 Y72.32 E10.52786
G1 X66.5 Y72.32 E11.72522
G1 X67.268 Y72.36 E11.76359
G1 X68.028 Y72.479 E11.80197
G1 X68.771 Y72.677 E11.84033
G1 X69.49 Y72.951 E11.87872
G1 X70.176 Y73.298 E11.91707
G1 X70.823 Y73.714 E11.95545
G1 X71.423 Y74.195 E11.99381
G1 X71.733 Y74.487 E12.01506
G1 X73.068 Y75.822 E12.10925
G1 X73.582 Y76.394 E12.14762
G1 X74.035 Y77.016 E12.18601
G1 X74.421 Y77.681 E12.22437
G1 X74.736 Y78.383 E12.26275
G1 X74.976 Y79.114 E12.30114
G1 X75.139 Y79.865 E12.33948
G1 X75.223 Y80.63 E12.37787
G1 X75.235 Y81.065 E12.39959
G1 X75.165 Y133.065 E14.99388
G1 X75.124 Y133.833 E15.03225
G1 X75.003 Y134.593 E15.07064
G1 X74.805 Y135.336 E15.109
G1 X74.53 Y136.054 E15.14736
G1 X74.182 Y136.74 E15.18574
G1 X73.765 Y137.386 E15.2241
G1 X73.283 Y137.986 E15.2625
G1 X72.741 Y138.532 E15.30088
G1 X72.146 Y139.019 E15.33924
G1 X71.503 Y139.441 E15.37761
G1 X70.82 Y139.795 E15.41599
G1 X70.104 Y140.076 E15.45436
G1 X69.363 Y140.28 E15.49271
G1 X68.604 Y140.407 E15.5311
G1 X67.836 Y140.455 E15.56949
G1 X67.068 Y140.422 E15.60784
G1 X66.185 Y140.284 E15.65243
G1 X65.1 Y140.047 E15.70784
G1 X60.866 Y139.353 E15.92189
G1 X56.63 Y139.006 E16.13393
G1 X52.419 Y139.002 E16.34402
G1 X48.177 Y139.345 E16.55635
G1 X43.92 Y140.043 E16.77157
G1 X42.806 Y140.286 E16.82845
G1 X42.047 Y140.411 E16.86683
G1 X41.279 Y140.456 E16.90521
G1 X40.511 Y140.421 E16.94356
G1 X39.75 Y140.307 E16.98195
G1 X39.005 Y140.114 E17.02035
G1 X38.285 Y139.845 E17.0587
G1 X37.596 Y139.503 E17.09707
G1 X36.946 Y139.091 E17.13547
G1 X36.343 Y138.614 E17.17382
G1 X35.792 Y138.077 E17.21221
G1 X35.3 Y137.486 E17.25057
G1 X34.873 Y136.847 E17.28892
G1 X34.513 Y136.167 E17.3273
G1 X34.227 Y135.453 E17.36568
G1 X34.016 Y134.713 E17.40407
G1 X33.883 Y133.956 E17.44241
G1 X33.828 Y133.065 E17.48695
G1 X33.765 Y81.064 E20.08129
G1 X33.804 Y80.296 E20.11966
G1 X33.923 Y79.536 E20.15803
G1 X34.119 Y78.792 E20.19642
G1 X34.392 Y78.073 E20.23479
G1 X34.738 Y77.386 E20.27317
G1 X35.154 Y76.739 E20.31154
G1 X35.634 Y76.138 E20.34991
G1 X35.932 Y75.822 E20.37158
G1 X37.267 Y74.487 E20.46578
G1 X37.839 Y73.973 E20.50414
G1 X38.461 Y73.52 E20.54253
G1 X39.126 Y73.134 E20.58089
G0 F3600 X39.363 Y73.462
G1 F1500 X40.049 Y73.163 E20.61823
G1 X40.763 Y72.939 E20.65556
G1 X41.496 Y72.792 E20.69286
G1 X42.5 Y72.72 E20.74308
G1 X66.5 Y72.72 E21.94044
G1 X67.247 Y72.76 E21.97776
G1 X67.985 Y72.879 E22.01506
G1 X68.707 Y73.077 E22.05241
G1 X69.403 Y73.35 E22.08971
G1 X70.066 Y73.697 E22.12704
G1 X70.689 Y74.112 E22.16439
G1 X71.45 Y74.77 E22.21458
G1 X72.785 Y76.105 E22.30877
G1 X73.285 Y76.662 E22.34611
G1 X73.722 Y77.268 E22.38339
G1 X74.093 Y77.918 E22.42072
G1 X74.392 Y78.604 E22.45806
G1 X74.616 Y79.318 E22.49539
G1 X74.763 Y80.051 E22.53269
G1 X74.835 Y81.064 E22.58336
G1 X74.765 Y133.064 E25.17765
G1 X74.724 Y133.811 E25.21497
G1 X74.604 Y134.55 E25.25233
G1 X74.405 Y135.271 E25.28964
G1 X74.131 Y135.967 E25.32696
G1 X73.784 Y136.629 E25.36425
G1 X73.368 Y137.251 E25.40158
G1 X72.888 Y137.825 E25.43891
G1 X72.35 Y138.345 E25.47624
G1 X71.759 Y138.804 E25.51357
G1 X71.123 Y139.197 E25.55087
G1 X70.448 Y139.52 E25.58821
G1 X69.743 Y139.77 E25.62552
G1 X69.015 Y139.942 E25.66284
G1 X68.273 Y140.037 E25.70016
G1 X67.525 Y140.051 E25.73749
G1 X66.78 Y139.985 E25.7748
G1 X66.27 Y139.894 E25.80065
G1 X65.154 Y139.65 E25.85764
G1 X60.926 Y138.957 E26.07139
G1 X56.639 Y138.606 E26.28599
G1 X52.4 Y138.602 E26.49747
G1 X48.13 Y138.948 E26.7112
G1 X43.842 Y139.65 E26.92798
G1 X42.72 Y139.895 E26.98527
G1 X41.982 Y140.015 E27.02258
G1 X41.235 Y140.056 E27.0599
G1 X40.488 Y140.017 E27.09722
G1 X39.75 Y139.898 E27.13451
G1 X39.028 Y139.701 E27.17185
G1 X38.331 Y139.429 E27.20918
G1 X37.668 Y139.083 E27.24649
G1 X37.045 Y138.669 E27.28381
G1 X36.47 Y138.19 E27.32114
G1 X35.949 Y137.653 E27.35847
G1 X35.489 Y137.064 E27.39576
G1 X35.094 Y136.428 E27.43311
G1 X34.769 Y135.754 E27.47044
G1 X34.518 Y135.05 E27.50773
G1 X34.343 Y134.322 E27.54508
G1 X34.248 Y133.58 E27.5824
G1 X34.228 Y133.064 E27.60817
G1 X34.165 Y81.063 E30.20251
G1 X34.204 Y80.316 E30.23983
G1 X34.323 Y79.578 E30.27712
G1 X34.519 Y78.856 E30.31445
G1 X34.792 Y78.159 E30.35179
G1 X35.137 Y77.496 E30.38908
G1 X35.552 Y76.873 E30.42643
G1 X36.215 Y76.105 E30.47704
G1 X37.55 Y74.77 E30.57124
G1 X38.107 Y74.27 E30.60858
G1 X38.713 Y73.833 E30.64585
G1 X39.363 Y73.462 E30.68319
G0 F3600 X39.599 Y73.792
G1 F1500 X40.268 Y73.509 E30.71943
G1 X40.964 Y73.301 E30.75567
G1 X41.679 Y73.171 E30.79193
G1 X42.5 Y73.12 E30.83297
G1 X66.5 Y73.12 E32.03033
G1 X67.225 Y73.16 E32.06656
G1 X67.942 Y73.279 E32.10282
G1 X68.641 Y73.477 E32.13906
G1 X69.314 Y73.75 E32.1753
G1 X69.953 Y74.095 E32.21153
G1 X70.55 Y74.509 E32.24777
G1 X71.167 Y75.053 E32.28881
G1 X72.502 Y76.388 E32.383
G1 X72.986 Y76.929 E32.41922
G1 X73.409 Y77.52 E32.45548
G1 X73.763 Y78.154 E32.4917
G1 X74.046 Y78.823 E32.52794
G1 X74.254 Y79.519 E32.56419
G1 X74.384 Y80.234 E32.60044
G1 X74.435 Y81.064 E32.64193
G1 X74.365 Y133.064 E35.23622
G1 X74.324 Y133.789 E35.27245
G1 X74.204 Y134.505 E35.30867
G1 X74.005 Y135.204 E35.34493
G1 X73.731 Y135.877 E35.38118
G1 X73.385 Y136.515 E35.41739
G1 X72.971 Y137.112 E35.45364
G1 X72.493 Y137.66 E35.48991
G1 X71.959 Y138.151 E35.52611
G1 X71.373 Y138.581 E35.56237
G1 X70.744 Y138.944 E35.5986
G1 X70.079 Y139.236 E35.63483
G1 X69.386 Y139.453 E35.67106
G1 X68.673 Y139.592 E35.7073
G1 X67.949 Y139.652 E35.74355
G1 X67.223 Y139.633 E35.77978
G1 X66.355 Y139.503 E35.82357
G1 X65.226 Y139.256 E35.88123
G1 X60.974 Y138.559 E36.09619
G1 X56.66 Y138.206 E36.31214
G1 X52.392 Y138.202 E36.52507
G1 X48.07 Y138.552 E36.7414
G1 X43.77 Y139.256 E36.95878
G1 X42.635 Y139.504 E37.01675
G1 X41.918 Y139.62 E37.05298
G1 X41.193 Y139.656 E37.0892
G1 X40.468 Y139.612 E37.12543
G1 X39.752 Y139.489 E37.16168
G1 X39.054 Y139.288 E37.19792
G1 X38.382 Y139.011 E37.23418
G1 X37.745 Y138.662 E37.27042
G1 X37.15 Y138.245 E37.30667
G1 X36.605 Y137.766 E37.34287
G1 X36.115 Y137.229 E37.37913
G1 X35.687 Y136.642 E37.41538
G1 X35.327 Y136.012 E37.45158
G1 X35.038 Y135.345 E37.48784
G1 X34.824 Y134.651 E37.52408
G1 X34.687 Y133.938 E37.5603
G1 X34.628 Y133.064 E37.604
G1 X34.565 Y81.063 E40.19834
G1 X34.604 Y80.338 E40.23457
G1 X34.723 Y79.621 E40.27083
G1 X34.919 Y78.922 E40.30705
G1 X35.191 Y78.248 E40.34331
G1 X35.536 Y77.609 E40.37954
G1 X35.949 Y77.011 E40.41579
G1 X36.498 Y76.388 E40.45722
G1 X37.833 Y75.053 E40.55141
G1 X38.374 Y74.569 E40.58763
G1 X38.965 Y74.146 E40.62389
G1 X39.599 Y73.792 E40.66012
G0 F3600 X39.834 Y74.123
G1 F1500 X40.485 Y73.856 E40.69522
G1 X41.163 Y73.666 E40.73035
G1 X41.858 Y73.553 E40.76548
G1 X42.5 Y73.52 E40.79755
G1 X66.5 Y73.52 E41.99491
G1 X67.203 Y73.56 E42.03004
G1 X67.897 Y73.679 E42.06517
G1 X68.572 Y73.877 E42.10027
G1 X69.221 Y74.149 E42.13537
G1 X69.835 Y74.494 E42.17051
G1 X70.406 Y74.905 E42.20561
G1 X70.884 Y75.336 E42.23772
G1 X72.219 Y76.671 E42.33191
G1 X72.688 Y77.196 E42.36703
G1 X73.094 Y77.771 E42.40215
G1 X73.432 Y78.389 E42.43729
G1 X73.699 Y79.04 E42.4724
G1 X73.889 Y79.718 E42.50753
G1 X74.002 Y80.413 E42.54266
G1 X74.035 Y81.063 E42.57513
G1 X73.965 Y133.063 E45.16942
G1 X73.924 Y133.766 E45.20455
G1 X73.804 Y134.46 E45.23969
G1 X73.606 Y135.135 E45.27478
G1 X73.332 Y135.784 E45.30993
G1 X72.987 Y136.398 E45.34507
G1 X72.574 Y136.968 E45.38018
G1 X72.1 Y137.488 E45.41529
G1 X71.569 Y137.951 E45.45044
G1 X70.99 Y138.35 E45.48552
G1 X70.369 Y138.682 E45.52065
G1 X69.714 Y138.941 E45.55579
G1 X69.034 Y139.124 E45.59092
G1 X68.338 Y139.228 E45.62603
G1 X67.634 Y139.254 E45.66118
G1 X66.933 Y139.199 E45.69626
G1 X66.441 Y139.112 E45.72118
G1 X65.304 Y138.864 E45.77924
G1 X61.021 Y138.162 E45.99577
G1 X56.68 Y137.806 E46.21307
G1 X52.372 Y137.802 E46.428
G1 X48.021 Y138.154 E46.64578
G1 X43.698 Y138.862 E46.86433
G1 X42.55 Y139.113 E46.92296
G1 X41.855 Y139.224 E46.95807
G1 X41.151 Y139.256 E46.99323
G1 X40.449 Y139.207 E47.02834
G1 X39.757 Y139.079 E47.06345
G1 X39.084 Y138.873 E47.09856
G1 X38.438 Y138.593 E47.13369
G1 X37.828 Y138.241 E47.16882
G1 X37.262 Y137.822 E47.20396
G1 X36.748 Y137.342 E47.23904
G1 X36.291 Y136.806 E47.27419
G1 X35.897 Y136.222 E47.30933
G1 X35.573 Y135.597 E47.34446
G1 X35.321 Y134.94 E47.37956
G1 X35.146 Y134.258 E47.41469
G1 X35.049 Y133.561 E47.4498
G1 X35.028 Y133.064 E47.47461
G1 X34.965 Y81.063 E50.06896
G1 X35.004 Y80.36 E50.10408
G1 X35.123 Y79.666 E50.13921
G1 X35.319 Y78.99 E50.17433
G1 X35.591 Y78.34 E50.20948
G1 X35.935 Y77.726 E50.24459
G1 X36.346 Y77.154 E50.27973
G1 X36.781 Y76.671 E50.31216
G1 X38.116 Y75.336 E50.40635
G1 X38.641 Y74.867 E50.44148
G1 X39.216 Y74.461 E50.47659
G1 X39.834 Y74.123 E50.51174
G0 F3600 X40.066 Y74.455
G1 F1500 X40.7 Y74.206 E50.54572
G1 X41.359 Y74.033 E50.57971
G1 X42.033 Y73.939 E50.61366
G1 X42.5 Y73.92 E50.63698
G1 X66.5 Y73.92 E51.83434
G1 X67.18 Y73.96 E51.86833
G1 X67.85 Y74.079 E51.90228
G1 X68.502 Y74.276 E51.93626
G1 X69.126 Y74.548 E51.97022
G1 X69.714 Y74.892 E52.00421
G1 X70.258 Y75.302 E52.03819
G1 X70.601 Y75.619 E52.06149
G1 X71.936 Y76.954 E52.15568
G1 X72.389 Y77.463 E52.18968
G1 X72.778 Y78.021 E52.22361
G1 X73.1 Y78.621 E52.25759
G1 X73.349 Y79.255 E52.29157
G1 X73.522 Y79.914 E52.32556
G1 X73.616 Y80.588 E52.35951
G1 X73.635 Y81.063 E52.38323
G1 X73.565 Y133.063 E54.97752
G1 X73.524 Y133.742 E55.01146
G1 X73.404 Y134.413 E55.04547
G1 X73.206 Y135.064 E55.07941
G1 X72.933 Y135.688 E55.11339
G1 X72.589 Y136.275 E55.14734
G1 X72.178 Y136.819 E55.18135
G1 X71.707 Y137.31 E55.2153
G1 X71.181 Y137.742 E55.24926
G1 X70.608 Y138.11 E55.28323
G1 X69.996 Y138.409 E55.31721
G1 X69.353 Y138.633 E55.35118
G1 X68.689 Y138.781 E55.38512
G1 X68.011 Y138.85 E55.41912
G1 X67.33 Y138.839 E55.4531
G1 X66.526 Y138.721 E55.49365
G1 X65.395 Y138.474 E55.5514
G1 X61.07 Y137.765 E55.77006
G1 X56.688 Y137.406 E55.98941
G1 X52.353 Y137.402 E56.20568
G1 X47.986 Y137.755 E56.42426
G1 X43.624 Y138.47 E56.64479
G1 X42.465 Y138.723 E56.70397
G1 X41.792 Y138.829 E56.73796
G1 X41.112 Y138.855 E56.77191
G1 X40.433 Y138.801 E56.80589
G1 X39.765 Y138.668 E56.83988
G1 X39.117 Y138.458 E56.87386
G1 X38.499 Y138.174 E56.90779
G1 X37.918 Y137.819 E56.94176
G1 X37.383 Y137.398 E56.97573
G1 X36.9 Y136.917 E57.00973
G1 X36.478 Y136.384 E57.04365
G1 X36.12 Y135.804 E57.07765
G1 X35.833 Y135.186 E57.11165
G1 X35.621 Y134.54 E57.14557
G1 X35.486 Y133.872 E57.17957
G1 X35.428 Y133.063 E57.22003
G1 X35.365 Y81.062 E59.81438
G1 X35.404 Y80.382 E59.84836
G1 X35.523 Y79.712 E59.88231
G1 X35.719 Y79.06 E59.91627
G1 X35.99 Y78.435 E59.95026
G1 X36.333 Y77.847 E59.98422
G1 X36.742 Y77.303 E60.01818
G1 X37.064 Y76.954 E60.04187
G1 X38.399 Y75.619 E60.13606
G1 X38.908 Y75.166 E60.17005
G1 X39.466 Y74.777 E60.20399
G1 X40.066 Y74.455 E60.23796
G0 F3600 X39.715 Y75.094
G1 F1500 X40.297 Y74.79 E60.27072
G1 X40.912 Y74.559 E60.3035
G1 X41.551 Y74.404 E60.3363
G1 X42.5 Y74.32 E60.38383
G1 X66.5 Y74.32 E61.5812
G1 X67.156 Y74.36 E61.61398
G1 X67.802 Y74.479 E61.64676
G1 X68.429 Y74.676 E61.67955
G1 X69.027 Y74.948 E61.71232
G1 X69.588 Y75.29 E61.7451
G1 X70.318 Y75.902 E61.79263
G1 X71.653 Y77.237 E61.88682
G1 X72.089 Y77.729 E61.91961
G1 X72.461 Y78.27 E61.95237
G1 X72.765 Y78.852 E61.98513
G1 X72.996 Y79.467 E62.0179
G1 X73.151 Y80.106 E62.05071
G1 X73.235 Y81.062 E62.09859
G1 X73.165 Y133.062 E64.69288
G1 X73.124 Y133.718 E64.72567
G1 X73.004 Y134.364 E64.75845
G1 X72.806 Y134.99 E64.79121
G1 X72.534 Y135.588 E64.82398
G1 X72.191 Y136.149 E64.85679
G1 X71.783 Y136.663 E64.88953
G1 X71.315 Y137.124 E64.9223
G1 X70.794 Y137.525 E64.9551
G1 X70.229 Y137.86 E64.98787
G1 X69.627 Y138.124 E65.02067
G1 X68.998 Y138.312 E65.05342
G1 X68.35 Y138.423 E65.08622
G1 X67.694 Y138.455 E65.11899
G1 X67.039 Y138.406 E65.15176
G1 X66.612 Y138.33 E65.1734
G1 X65.47 Y138.08 E65.23172
G1 X61.118 Y137.367 E65.45174
G1 X56.709 Y137.006 E65.67244
G1 X52.332 Y137.002 E65.89081
G1 X47.938 Y137.358 E66.11074
G1 X43.548 Y138.077 E66.33268
G1 X42.379 Y138.332 E66.39237
G1 X41.73 Y138.433 E66.42514
G1 X41.074 Y138.454 E66.45789
G1 X40.419 Y138.395 E66.4907
G1 X39.777 Y138.257 E66.52346
G1 X39.156 Y138.043 E66.55623
G1 X38.566 Y137.754 E66.589
G1 X38.015 Y137.396 E66.62179
G1 X37.512 Y136.974 E66.65454
G1 X37.063 Y136.493 E66.68737
G1 X36.677 Y135.962 E66.72012
G1 X36.358 Y135.388 E66.75288
G1 X36.11 Y134.779 E66.78569
G1 X35.939 Y134.145 E66.81845
G1 X35.846 Y133.495 E66.85121
G1 X35.828 Y133.063 E66.87278
G1 X35.765 Y81.062 E69.46712
G1 X35.804 Y80.406 E69.49991
G1 X35.923 Y79.76 E69.53268
