; <IceSL Dec 15 2018 13:51:47>
;FLAVOR:UltiGCode
;TIME:4289
;MATERIAL:9097.4530751899
;MATERIAL2:0
M107
; add_brim : 	True
; add_raft : 	False
; bed_size_x_mm : 	109
; bed_size_y_mm : 	210
; bed_temp_degree_c : 	50
; brim_distance_to_print_mm : 	1
; brim_num_contours : 	4
; cavitiy_num_iterations : 	5
; cavity_brush : 	0
; cavity_tearing_method : 	Cross
; cover_thickness_mm_0 : 	1.2
; enable_active_temperature_control : 	False
; enable_curved_covers_0 : 	True
; enable_fan : 	True
; enable_fan_first_layer : 	False
; enable_fit_single_path : 	True
; extruder_0 : 	0
; extruder_count : 	1
; extruder_degrees_per_sec_0 : 	2
; extruder_mix_count_0 : 	1
; extruder_mix_ratios_0 : 	(1)
; extruder_purge_volume_mm3 : 	24
; extruder_swap_at_location : 	False
; extruder_swap_location_x_mm : 	0
; extruder_swap_location_y_mm : 	0
; extruder_swap_retract_length_mm : 	6
; extruder_swap_retract_speed_mm_per_sec : 	20
; extruder_swap_zlift_mm : 	1
; extruder_temp_degree_c_0 : 	200
; fan_speed_percent : 	100
; fan_speed_percent_on_bridges : 	100
; filament_diameter_mm_0 : 	1.75
; filament_priming_mm_0 : 	6
; fill_tiny_gaps_0 : 	True
; first_layer_print_speed_mm_per_sec : 	10
; first_layer_saved : 	0
; flow_dampener_e_length_mm : 	3
; flow_dampener_path_length_end_mm : 	3
; flow_dampener_path_length_start_mm : 	3
; flow_multiplier_0 : 	1
; gen_cavity : 	False
; gen_shield : 	False
; gen_supports : 	False
; gen_tower : 	False
; idle_extruder_temp_degree_c_0 : 	100
; infill_angle_0 : 	0
; infill_extruder_0 : 	0
; infill_percentage_0 : 	33
; infill_type_0 : 	Cubic
; kgon_min_angle_0 : 	45
; kgon_norm_alpha_0 : 	0.5
; kgon_x_shrink_0 : 	1
; labeling_mm_per_pixels_0 : 	0.1
; last_layer_saved : 	0
; material_mixing_enable_optimizer : 	True
; micro_mixing_field : 	
; mixing_shield_speed_multiplier : 	1.5
; mixing_wipe_length_mm : 	3
; nozzle_diameter_mm : 	0.4
; num_shells_0 : 	2
; path_width_speed_adjustement_exponent : 	3
; perimeter_print_speed_mm_per_sec : 	20
; pfoam_min_percentage_0 : 	20
; priming_mm_per_sec : 	30
; print_kickback_length_mm : 	3
; print_perimeter_0 : 	True
; print_speed_microlayers_mm_per_sec : 	200
; print_speed_mm_per_sec : 	30
; printer : 	ultimaker2
; process_thin_features : 	False
; raft_spacing : 	1
; save_layer_subset : 	False
; seam_location_field : 	
; shield_brim_num_contours : 	1
; shield_distance_to_part_mm : 	2
; shield_num_contours : 	1
; slicing_algorithm : 	Auto select
; speed_multiplier_0 : 	1
; support_algorithm : 	Wings
; support_anchor_diameter : 	7.2
; support_extruder : 	0
; support_flow_multiplier : 	1
; support_infills : 	False
; support_interdiction_field : 	
; support_max_bridge_len_mm : 	10
; support_max_connector_height : 	8
; support_min_connector_height : 	1.5
; support_pillar_cross_length : 	2.5
; support_print_speed_mm_per_sec : 	20
; support_spacing_min_mm : 	2
; support_wing_angle : 	30
; support_wing_min_width : 	4
; support_wing_rib_width : 	2
; thickening_ratio : 	1.25
; tile_size_mm : 	30
; tower_brim_num_contours : 	12
; tower_side_x_mm : 	10
; tower_side_y_mm : 	15
; travel_avoid_top_covers : 	False
; travel_max_length_without_retract : 	20
; travel_speed_mm_per_sec : 	80
; travel_straight : 	False
; use_different_thickness_first_layer : 	True
; xy_max_deviation_mm : 	0.025
; xy_mm_per_pixels : 	0.001
; z_layer_height_first_layer_mm : 	0.3
; z_layer_height_mm : 	0.2
M106 S0
;(<layer>)
G0 F600 Z0.300000
G10
G0 F4800.000 X27.159 Y105.432
G11
G1 F600.000 X27.094 Y104.910 E0.063123
G1 F600.000 X27.159 Y104.568 E0.104898
G1 F600.000 X27.321 Y104.069 E0.167855
G1 F600.000 X27.663 Y103.511 E0.246391
G1 F600.000 X28.011 Y103.163 E0.305448
G1 F600.000 X28.568 Y102.822 E0.383820
G1 F600.000 X29.100 Y102.649 E0.450950
G1 F600.000 X29.500 Y102.580 E0.499659
G1 F600.000 X59.541 Y101.865 E4.105600
G1 F600.000 X69.464 Y101.696 E5.296533
G1 F600.000 X70.238 Y101.789 E5.390081
G1 F600.000 X70.606 Y101.895 E5.436036
G1 F600.000 X71.141 Y102.132 E5.506254
G1 F600.000 X71.564 Y102.422 E5.567797
G1 F600.000 X72.078 Y102.936 E5.655026
G1 F600.000 X72.368 Y103.359 E5.716569
G1 F600.000 X72.605 Y103.894 E5.786786
G1 F600.000 X72.711 Y104.263 E5.832858
G1 F600.000 X72.788 Y104.802 E5.898194
G1 F600.000 X72.788 Y105.198 E5.945714
G1 F600.000 X72.711 Y105.737 E6.011051
G1 F600.000 X72.605 Y106.106 E6.057122
G1 F600.000 X72.368 Y106.641 E6.127339
G1 F600.000 X72.078 Y107.064 E6.188882
G1 F600.000 X71.564 Y107.578 E6.276111
G1 F600.000 X71.141 Y107.868 E6.337655
G1 F600.000 X70.606 Y108.105 E6.407873
G1 F600.000 X70.238 Y108.211 E6.453828
G1 F600.000 X69.464 Y108.304 E6.547376
G1 F600.000 X59.532 Y108.135 E7.739388
G1 F600.000 X29.500 Y107.420 E11.344250
G1 F600.000 X29.100 Y107.351 E11.392959
G1 F600.000 X28.568 Y107.178 E11.460089
G1 F600.000 X28.011 Y106.837 E11.538461
G1 F600.000 X27.663 Y106.489 E11.597519
G1 F600.000 X27.321 Y105.931 E11.676054
G1 F600.000 X27.199 Y105.557 E11.723272
G0 F4800.000 X27.159 Y105.432
G0 F4800.000 X26.307 Y103.427
G1 F600.000 X26.830 Y102.648 E11.835866
G1 F600.000 X27.399 Y102.131 E11.928123
G1 F600.000 X28.204 Y101.679 E12.038909
G1 F600.000 X28.905 Y101.465 E12.126861
G1 F600.000 X29.470 Y101.380 E12.195424
G1 F600.000 X59.520 Y100.665 E15.802444
G1 F600.000 X69.443 Y100.496 E16.993378
G1 F600.000 X70.580 Y100.638 E17.130877
G1 F600.000 X71.103 Y100.803 E17.196686
G1 F600.000 X71.830 Y101.150 E17.293354
G1 F600.000 X72.419 Y101.581 E17.380938
G1 F600.000 X73.075 Y102.268 E17.494923
G1 F600.000 X73.469 Y102.881 E17.582367
G1 F600.000 X73.760 Y103.571 E17.672230
G1 F600.000 X73.900 Y104.100 E17.737896
G1 F600.000 X73.988 Y104.812 E17.823984
G1 F600.000 X73.975 Y105.376 E17.891684
G1 F600.000 X73.862 Y106.076 E17.976770
G1 F600.000 X73.697 Y106.603 E18.043037
G1 F600.000 X73.350 Y107.330 E18.139706
G1 F600.000 X72.919 Y107.919 E18.227287
G1 F600.000 X72.232 Y108.574 E18.341192
G1 F600.000 X71.620 Y108.969 E18.428600
G1 F600.000 X70.925 Y109.262 E18.519110
G1 F600.000 X70.377 Y109.403 E18.587011
G1 F600.000 X69.443 Y109.504 E18.699745
G1 F600.000 X59.502 Y109.335 E19.892838
G1 F600.000 X29.284 Y108.601 E23.520067
G1 F600.000 X28.711 Y108.485 E23.590221
G1 F600.000 X27.926 Y108.192 E23.690771
G1 F600.000 X27.148 Y107.670 E23.803198
G1 F600.000 X26.631 Y107.102 E23.895365
G1 F600.000 X26.176 Y106.288 E24.007267
G1 F600.000 X25.965 Y105.548 E24.099607
G1 F600.000 X25.917 Y104.676 E24.204407
G1 F600.000 X26.025 Y104.178 E24.265556
G1 F600.000 X26.272 Y103.521 E24.349787
G0 F4800.000 X26.307 Y103.427
G0 F4800.000 X27.598 Y102.478
G1 F600.000 X28.323 Y102.061 E24.450150
G1 F600.000 X28.967 Y101.860 E24.531105
G1 F600.000 X29.480 Y101.780 E24.593409
G1 F600.000 X59.527 Y101.065 E28.200069
G1 F600.000 X69.450 Y100.896 E29.391003
G1 F600.000 X70.463 Y101.021 E29.513485
G1 F600.000 X70.934 Y101.165 E29.572588
G1 F600.000 X71.597 Y101.475 E29.660416
G1 F600.000 X72.132 Y101.859 E29.739441
G1 F600.000 X72.740 Y102.487 E29.844332
G1 F600.000 X73.101 Y103.038 E29.923378
G1 F600.000 X73.374 Y103.676 E30.006651
G1 F600.000 X73.503 Y104.152 E30.065832
G1 F600.000 X73.588 Y104.806 E30.144974
G1 F600.000 X73.580 Y105.314 E30.205942
G1 F600.000 X73.479 Y105.960 E30.284403
G1 F600.000 X73.335 Y106.434 E30.343851
G1 F600.000 X73.025 Y107.097 E30.431677
G1 F600.000 X72.641 Y107.632 E30.510702
G1 F600.000 X72.013 Y108.240 E30.615593
G1 F600.000 X71.463 Y108.601 E30.694542
G1 F600.000 X70.823 Y108.875 E30.778084
G1 F600.000 X70.332 Y109.005 E30.839033
G1 F600.000 X69.450 Y109.104 E30.945539
G1 F600.000 X59.512 Y108.935 E32.138271
G1 F600.000 X29.360 Y108.208 E35.757565
G1 F600.000 X28.846 Y108.109 E35.820374
G1 F600.000 X28.145 Y107.857 E35.909763
G1 F600.000 X27.440 Y107.397 E36.010780
G1 F600.000 X26.978 Y106.902 E36.092033
G1 F600.000 X26.559 Y106.174 E36.192829
G1 F600.000 X26.364 Y105.519 E36.274841
G1 F600.000 X26.309 Y104.757 E36.366516
G1 F600.000 X26.401 Y104.314 E36.420811
G1 F600.000 X26.642 Y103.646 E36.506031
G1 F600.000 X27.103 Y102.940 E36.607212
G1 F600.000 X27.536 Y102.536 E36.678310
G0 F4800.000 X27.598 Y102.478
G0 F4800.000 X29.490 Y102.180
G1 F600.000 X59.534 Y101.465 E40.284611
G1 F600.000 X69.457 Y101.296 E41.475544
G1 F600.000 X70.349 Y101.405 E41.583378
G1 F600.000 X70.768 Y101.529 E41.635815
G1 F600.000 X71.367 Y101.802 E41.714806
G1 F600.000 X71.847 Y102.139 E41.785187
G1 F600.000 X72.408 Y102.710 E41.881245
G1 F600.000 X72.734 Y103.197 E41.951569
G1 F600.000 X72.989 Y103.784 E42.028366
G1 F600.000 X73.107 Y104.206 E42.080952
G1 F600.000 X73.188 Y104.802 E42.153130
G1 F600.000 X73.184 Y105.255 E42.207493
G1 F600.000 X73.095 Y105.847 E42.279331
G1 F600.000 X72.971 Y106.268 E42.332001
G1 F600.000 X72.698 Y106.867 E42.410992
G1 F600.000 X72.361 Y107.347 E42.481369
G1 F600.000 X71.790 Y107.908 E42.577427
G1 F600.000 X71.303 Y108.234 E42.647755
G1 F600.000 X70.717 Y108.489 E42.724442
G1 F600.000 X70.286 Y108.608 E42.778099
G1 F600.000 X69.457 Y108.704 E42.878242
G1 F600.000 X59.522 Y108.535 E44.070618
G1 F600.000 X29.432 Y107.814 E47.682453
G1 F600.000 X28.976 Y107.731 E47.738075
G1 F600.000 X28.359 Y107.519 E47.816364
G1 F600.000 X27.728 Y107.120 E47.905952
G1 F600.000 X27.322 Y106.698 E47.976223
G1 F600.000 X26.941 Y106.055 E48.065914
G1 F600.000 X26.762 Y105.481 E48.138065
G1 F600.000 X26.701 Y104.835 E48.215931
G1 F600.000 X26.779 Y104.444 E48.263775
G1 F600.000 X26.980 Y103.860 E48.337891
G1 F600.000 X27.380 Y103.228 E48.427647
G1 F600.000 X27.802 Y102.822 E48.497913
G1 F600.000 X28.444 Y102.442 E48.587440
G1 F600.000 X29.032 Y102.255 E48.661480
G1 F600.000 X29.375 Y102.199 E48.703251
G0 F4800.000 X29.490 Y102.180
G10
G0 F4800.000 X29.553 Y103.180
G0 F4800.000 X29.604 Y103.978
G0 F4800.000 X29.624 Y104.278
G0 F4800.000 X29.631 Y104.378
G11
G1 F600.000 X29.259 Y104.490 E48.749870
G1 F600.000 X29.038 Y104.681 E48.784920
G1 F600.000 X28.932 Y104.938 E48.818283
G1 F600.000 X28.990 Y105.241 E48.855301
G1 F600.000 X29.181 Y105.462 E48.890350
G1 F600.000 X29.574 Y105.612 E48.940830
G1 F600.000 X59.574 Y106.335 E52.541874
G1 F600.000 X69.447 Y106.503 E53.726803
G1 F600.000 X69.902 Y106.440 E53.781925
G1 F600.000 X70.312 Y106.267 E53.835327
G1 F600.000 X70.726 Y105.871 E53.904072
G1 F600.000 X70.900 Y105.515 E53.951626
G1 F600.000 X70.994 Y105.029 E54.011028
G1 F600.000 X70.940 Y104.596 E54.063393
G1 F600.000 X70.766 Y104.188 E54.116619
G1 F600.000 X70.371 Y103.774 E54.185280
G1 F600.000 X70.015 Y103.600 E54.232834
G1 F600.000 X69.447 Y103.497 E54.302101
G1 F600.000 X59.576 Y103.665 E55.486797
G1 F600.000 X29.748 Y104.375 E59.067169
G0 F4800.000 X29.631 Y104.378
G0 F4800.000 X29.569 Y104.809
G1 F600.000 X29.436 Y105.050 E59.100201
G1 F600.000 X29.569 Y105.191 E59.123463
G1 F600.000 X59.584 Y105.935 E62.726368
G1 F600.000 X69.422 Y106.103 E63.907101
G1 F600.000 X69.794 Y106.052 E63.952160
G1 F600.000 X70.080 Y105.933 E63.989334
G1 F600.000 X70.391 Y105.640 E64.040611
G1 F600.000 X70.552 Y105.294 E64.086403
G1 F600.000 X70.590 Y105.028 E64.118645
G1 F600.000 X70.552 Y104.707 E64.157433
G1 F600.000 X70.431 Y104.419 E64.194923
G1 F600.000 X70.140 Y104.109 E64.245941
G1 F600.000 X69.851 Y103.965 E64.284691
G1 F600.000 X69.453 Y103.899 E64.333099
G1 F600.000 X59.586 Y104.065 E65.517303
G1 F600.000 X29.699 Y104.777 E69.104782
G0 F4800.000 X29.569 Y104.809
G0 F4800.000 X29.691 Y105.000
G0 F4800.000 X28.491 Y105.000
G1 F600.000 X28.653 Y105.499 E69.167740
G1 F600.000 X29.001 Y105.847 E69.226799
G1 F600.000 X29.533 Y106.020 E69.293930
G1 F600.000 X59.565 Y106.735 E72.898788
G1 F600.000 X69.488 Y106.904 E74.089722
G1 F600.000 X70.039 Y106.825 E74.156517
G1 F600.000 X70.574 Y106.588 E74.226738
G1 F600.000 X71.088 Y106.074 E74.313965
G1 F600.000 X71.325 Y105.539 E74.384178
G1 F600.000 X71.402 Y105.000 E74.449516
G1 F600.000 X71.325 Y104.461 E74.514854
G1 F600.000 X71.088 Y103.926 E74.585068
G1 F600.000 X70.574 Y103.412 E74.672295
G1 F600.000 X70.039 Y103.175 E74.742516
G1 F600.000 X69.488 Y103.096 E74.809311
G1 F600.000 X59.565 Y103.265 E76.000244
G1 F600.000 X29.533 Y103.980 E79.605110
G1 F600.000 X29.001 Y104.153 E79.672234
G1 F600.000 X28.653 Y104.501 E79.731285
G1 F600.000 X28.531 Y104.875 E79.778503
G0 F4800.000 X28.491 Y105.000
G0 F4800.000 X29.691 Y105.000
G10
G0 F4800.000 X69.412 Y105.703
G11
G1 F600.000 X69.707 Y105.661 E79.814262
G1 F600.000 X69.884 Y105.581 E79.837563
G1 F600.000 X70.082 Y105.383 E79.871162
G1 F600.000 X70.161 Y105.208 E79.894203
G1 F600.000 X70.190 Y105.000 E79.919411
G1 F600.000 X70.160 Y104.790 E79.944862
G1 F600.000 X70.083 Y104.618 E79.967484
G1 F600.000 X69.884 Y104.419 E80.001259
G1 F600.000 X69.707 Y104.339 E80.024559
G1 F600.000 X69.412 Y104.297 E80.060318
G1 F600.000 X59.595 Y104.465 E81.238533
G1 F600.000 X45.342 Y104.805 E82.949379
G1 F600.000 X45.342 Y105.195 E82.996185
G1 F600.000 X59.595 Y105.535 E84.707031
G1 F600.000 X69.335 Y105.702 E85.876045
G0 F4800.000 X69.412 Y105.703
G0 F4800.000 X69.386 Y105.302
G1 F600.000 X69.632 Y105.268 E85.905846
G1 F600.000 X69.768 Y105.131 E85.929016
G1 F600.000 X69.766 Y104.869 E85.960457
G1 F600.000 X69.632 Y104.732 E85.983452
G1 F600.000 X69.386 Y104.698 E86.013252
G1 F600.000 X63.198 Y104.803 E86.755920
G1 F600.000 X63.198 Y105.197 E86.803200
G1 F600.000 X69.289 Y105.300 E87.534264
G0 F4800.000 X69.386 Y105.302
G0 F4800.000 X69.236 Y105.000
G1 F4800.000 X65.836 Y105.000 E87.596939
G0 F4800.000 X62.958 Y104.961
G1 F600.000 X62.706 Y105.213 E87.639702
G0 F4800.000 X62.706 Y105.000
G1 F792.145 X47.334 Y105.000 E89.321190
G0 F4800.000 X45.102 Y104.962
G1 F600.000 X44.890 Y105.175 E89.357254
G0 F4800.000 X44.890 Y105.000
G1 F494.969 X30.486 Y105.000 E91.200233
G10
G0 F4800.000 X29.999 Y104.270
G0 F4800.000 X29.802 Y103.974
G0 F4800.000 X29.586 Y103.650
;(</layer>)
M106 S255
;(<layer>)
G0 F100 Z0.500000
G11
G1 F1800.000 X29.055 Y103.747 E91.243416
G1 F1800.000 X28.729 Y103.908 E91.272499
G1 F1800.000 X28.442 Y104.181 E91.304192
G1 F1800.000 X28.266 Y104.499 E91.333267
G1 F1800.000 X28.171 Y104.964 E91.371239
G1 F1800.000 X28.246 Y105.444 E91.410103
G1 F1800.000 X28.408 Y105.773 E91.439438
G1 F1800.000 X28.682 Y106.059 E91.471123
G1 F1800.000 X29.000 Y106.233 E91.500122
G1 F1800.000 X29.559 Y106.347 E91.545761
G1 F1800.000 X35.353 Y106.641 E92.009880
G1 F1800.000 X54.323 Y107.368 E93.528595
G1 F1800.000 X69.471 Y107.840 E94.741028
G1 F1800.000 X69.960 Y107.797 E94.780296
G1 F1800.000 X70.443 Y107.669 E94.820274
G1 F1800.000 X70.943 Y107.441 E94.864235
G1 F1800.000 X71.484 Y107.015 E94.919319
G1 F1800.000 X71.915 Y106.484 E94.974037
G1 F1800.000 X72.158 Y105.974 E95.019234
G1 F1800.000 X72.291 Y105.495 E95.058998
G1 F1800.000 X72.336 Y105.018 E95.097328
G1 F1800.000 X72.297 Y104.540 E95.135689
G1 F1800.000 X72.169 Y104.057 E95.175667
G1 F1800.000 X71.941 Y103.557 E95.219627
G1 F1800.000 X71.515 Y103.016 E95.274712
G1 F1800.000 X70.984 Y102.585 E95.329430
G1 F1800.000 X70.474 Y102.342 E95.374626
G1 F1800.000 X69.995 Y102.209 E95.414391
G1 F1800.000 X69.471 Y102.160 E95.456497
G1 F1800.000 X54.325 Y102.632 E96.668762
G1 F1800.000 X35.355 Y103.360 E98.187477
G1 F1800.000 X29.676 Y103.645 E98.642357
G0 F4800.000 X29.586 Y103.650
G0 F4800.000 X29.627 Y104.049
G1 F1800.000 X29.188 Y104.128 E98.678040
G1 F1800.000 X28.965 Y104.235 E98.697830
G1 F1800.000 X28.648 Y104.633 E98.738533
G1 F1800.000 X28.577 Y104.964 E98.765617
G1 F1800.000 X28.628 Y105.311 E98.793678
G1 F1800.000 X28.735 Y105.534 E98.813461
G1 F1800.000 X29.131 Y105.852 E98.854088
G1 F1800.000 X29.601 Y105.948 E98.892464
G1 F1800.000 X35.379 Y106.241 E99.355293
G1 F1800.000 X54.332 Y106.969 E100.872650
G1 F1800.000 X69.464 Y107.439 E102.083801
G1 F1800.000 X69.886 Y107.402 E102.117683
G1 F1800.000 X70.306 Y107.291 E102.152443
G1 F1800.000 X70.732 Y107.096 E102.189919
G1 F1800.000 X71.200 Y106.731 E102.237404
G1 F1800.000 X71.571 Y106.273 E102.284554
G1 F1800.000 X71.779 Y105.837 E102.323204
G1 F1800.000 X71.896 Y105.421 E102.357773
G1 F1800.000 X71.935 Y105.018 E102.390167
G1 F1800.000 X71.902 Y104.614 E102.422592
G1 F1800.000 X71.791 Y104.194 E102.457352
G1 F1800.000 X71.596 Y103.768 E102.494827
G1 F1800.000 X71.231 Y103.300 E102.542313
