;FLAVOR:Marlin
;TIME:1256
;Filament used: 0.83564m, 0m
;Layer height: 0.12
;POSTPROCESSED
;Generated with Cura_SteamEngine 3.6.0
T0
M140 S60
M105
M190 S60
M104 S200
M105
M109 S200
M82 ;absolute extrusion mode
; Printer start settings begin
; Calibration section to overwrite Firmware values
; Identifier CALIBR, CALRES and CALMPE, surrounded by #, + or - can be used in post processing
; #CALIBR# M92 X160 Y160 Z3200 ; +CALIBR+ Steps per unit
; #CALRESO# M201 X1000 Y1000 Z50 E1500 E1500 ; +CALRESO+ Max Accelleration
; #CALRESO# M203 X800 Y800 Z2 E90 E90 ; +CALRESO+ Max Feed
; #CALRESO# M205 X3.0 Y3.0 Z0.3 E5.0 ; +CALRESO+ Default Jerk
; #CALMPE#
M951 L32 R139 G32 N75 H300 D10 C0 ; +CALMPE+ Parking kinematic values / needs MPE kinematic to be compiled and activated in firmware
; #CALMPE#
M851 Z-0.55 ; +CALMPE+ System Z Probe Offset
; #CALMPE#
M218 T1 X0.75 Y0.0 Z0.25; +CALMPE+ T1 Nozzle offset values
; #CALMPE#
M206 X-32.00 Y0.00 Z0.00; +CALMPE+ Home Offset
; #REM#  M951 args: L: Left parking,R: Right parking, I: Grab Offset, J: Normal speed, H: High speed, D: Distance trav., C: Compenstion
; #CALMPE#
M951 L32 R140 I32 J4500 H9000 D10 C0 ; MPE Setup
; #CALMPE# M217 Z5.00 Z-Lift
G28 ;Home
G92 E5
G1 F1000 E0
; #MPE# G29 ; -MPE- Auto Bed Level, uses this if FW values are set correct.
; #MPE# G29 X3 Y3 L0 R109 F32 B168 ; +MPE+ Auto Bed Leveling, needed if not poroper defined in Firmware
G92 E-5
G1 E0 F400
G0 Z15.0 F100 ;Move the platform down 15mm
G0 X0 Y0 F9000 ;Move to front
T1
G0 X0 Y0 F9000 ;Move to front
G92 E-30
G1 F200 E0
T0
G0 X0 Y0 F9000 ;Move to front
G92 E-30
G1 F200 E0
; Printer start settings end
G92 E0
G1 F1500 E-6.5
;LAYER_COUNT:133
;LAYER:0
M107
G0 F3600 X48.812 Y93.718 Z0.2
;TYPE:SKIRT
G1 F1500 E0
G1 F1800 X49.624 Y93.381 E0.02924
G1 X51.088 Y92.926 E0.08023
G1 X51.771 Y92.768 E0.10355
G1 X52.372 Y92.674 E0.12378
G1 X52.989 Y92.618 E0.14439
G1 X54.369 Y92.582 E0.1903
G1 X54.988 Y92.605 E0.2109
G1 X55.318 Y92.651 E0.22198
G1 X56.924 Y92.931 E0.27621
G1 X57.526 Y93.077 E0.29681
G1 X57.912 Y93.215 E0.31044
G1 X59.384 Y93.815 E0.36331
G1 X60.067 Y94.159 E0.38875
G1 X60.912 Y94.673 E0.42164
G1 X61.511 Y95.105 E0.44621
G1 X62.5 Y95.939 E0.48924
G1 X62.972 Y96.395 E0.51107
G1 X63.501 Y96.982 E0.53735
G1 X63.976 Y97.604 E0.56338
G1 X64.844 Y98.958 E0.61687
G1 X65.261 Y99.769 E0.6472
G1 X65.8 Y101.119 E0.69555
G1 X66.052 Y101.974 E0.7252
G1 X66.297 Y103.222 E0.7675
G1 X66.386 Y104.056 E0.79539
G1 X66.413 Y105.475 E0.8426
G1 X66.346 Y106.372 E0.87252
G1 X66.11 Y107.758 E0.91928
G1 X65.903 Y108.554 E0.94663
G1 X65.504 Y109.681 E0.9864
G1 X65.172 Y110.415 E1.01319
G1 X64.454 Y111.704 E1.06227
G1 X64.039 Y112.329 E1.08722
G1 X63.528 Y112.981 E1.11477
G1 X63.096 Y113.461 E1.13625
G1 X62.193 Y114.339 E1.17814
G1 X61.702 Y114.757 E1.19959
G1 X61.064 Y115.229 E1.22598
G1 X60.437 Y115.621 E1.25058
G1 X59.134 Y116.304 E1.29951
G1 X58.335 Y116.635 E1.32827
G1 X56.979 Y117.058 E1.37552
G1 X56.1 Y117.244 E1.4054
G1 X54.739 Y117.401 E1.45097
G1 X53.858 Y117.422 E1.48028
G1 X52.456 Y117.325 E1.52702
G1 X51.665 Y117.203 E1.55364
G1 X50.534 Y116.931 E1.59233
G1 X49.921 Y116.739 E1.6137
G1 X49.186 Y116.454 E1.63992
G1 X48.598 Y116.18 E1.66149
G1 X47.341 Y115.485 E1.70926
G1 X46.593 Y114.973 E1.73941
G1 X45.525 Y114.084 E1.78563
G1 X44.989 Y113.562 E1.81052
G1 X44.334 Y112.816 E1.84353
G1 X43.861 Y112.178 E1.86995
G1 X43.106 Y110.96 E1.91761
G1 X42.725 Y110.203 E1.9458
G1 X42.192 Y108.861 E1.99383
G1 X41.948 Y108.041 E2.02228
G1 X41.72 Y106.914 E2.06052
G1 X41.628 Y106.12 E2.08711
G1 X41.581 Y104.689 E2.13473
G1 X41.6 Y104.07 E2.15533
G1 X41.662 Y103.636 E2.16991
G1 X42.019 Y101.756 E2.23356
G1 X42.265 Y100.901 E2.26315
G1 X42.557 Y100.155 E2.28979
G1 X42.801 Y99.628 E2.30911
G1 X43.406 Y98.505 E2.35154
G1 X43.771 Y97.931 E2.37416
G1 X44.231 Y97.308 E2.39992
G1 X44.594 Y96.872 E2.41879
G1 X45.282 Y96.14 E2.4522
G1 X45.802 Y95.663 E2.47567
G1 X46.812 Y94.864 E2.5185
G1 X47.553 Y94.381 E2.54792
G1 X48.104 Y94.09 E2.56865
G0 F1620 X48.812 Y93.718
G0 F3600 X48.999 Y94.072
G1 F1500 E2.59525
G1 F1800 X49.743 Y93.763 E2.62205
G1 X51.207 Y93.308 E2.67304
G1 X51.833 Y93.163 E2.69441
G1 X52.434 Y93.069 E2.71464
G1 X52.999 Y93.017 E2.73351
G1 X54.379 Y92.981 E2.77943
G1 X55.25 Y93.045 E2.80848
G1 X56.856 Y93.325 E2.8627
G1 X57.432 Y93.466 E2.88242
G1 X57.761 Y93.585 E2.89406
G1 X59.233 Y94.185 E2.94693
G1 X59.859 Y94.501 E2.97025
G1 X60.704 Y95.015 E3.00315
G1 X61.254 Y95.41 E3.02567
G1 X62.243 Y96.244 E3.0687
G1 X62.675 Y96.662 E3.08869
G1 X63.204 Y97.249 E3.11497
G1 X63.639 Y97.82 E3.13885
G1 X64.507 Y99.174 E3.19234
G1 X64.889 Y99.917 E3.22013
G1 X65.428 Y101.267 E3.26848
G1 X65.66 Y102.051 E3.29567
G1 X65.905 Y103.299 E3.33797
G1 X65.986 Y104.063 E3.36352
G1 X66.013 Y105.482 E3.41073
G1 X65.952 Y106.305 E3.43818
G1 X65.716 Y107.691 E3.48494
G1 X65.526 Y108.42 E3.51
G1 X65.127 Y109.547 E3.54976
G1 X64.823 Y110.22 E3.57432
G1 X64.105 Y111.509 E3.6234
G1 X63.724 Y112.082 E3.64628
G1 X63.213 Y112.734 E3.67384
G1 X62.817 Y113.175 E3.69355
G1 X61.914 Y114.053 E3.73544
G1 X61.464 Y114.435 E3.75507
G1 X60.826 Y114.907 E3.78147
G1 X60.252 Y115.267 E3.804
G1 X58.949 Y115.95 E3.85293
G1 X58.216 Y116.253 E3.87931
G1 X56.86 Y116.676 E3.92656
G1 X56.054 Y116.847 E3.95396
G1 X54.693 Y117.004 E3.99953
G1 X53.885 Y117.023 E4.02641
G1 X52.483 Y116.926 E4.07315
G1 X51.758 Y116.814 E4.09755
G1 X50.627 Y116.542 E4.13624
G1 X50.065 Y116.366 E4.15583
G1 X49.33 Y116.081 E4.18205
G1 X48.792 Y115.83 E4.2018
G1 X47.535 Y115.135 E4.24957
G1 X46.849 Y114.666 E4.27721
G1 X45.781 Y113.777 E4.32343
G1 X45.29 Y113.298 E4.34624
G1 X44.635 Y112.552 E4.37926
G1 X44.201 Y111.967 E4.40349
G1 X43.446 Y110.749 E4.45115
G1 X43.097 Y110.055 E4.47699
G1 X42.564 Y108.713 E4.52501
G1 X42.34 Y107.961 E4.55111
G1 X42.112 Y106.834 E4.58935
G1 X42.027 Y106.106 E4.61373
G1 X41.98 Y104.675 E4.66135
G1 X42.001 Y104.083 E4.68105
G1 X42.055 Y103.71 E4.69359
G1 X42.412 Y101.83 E4.75724
G1 X42.638 Y101.047 E4.78434
G1 X42.93 Y100.301 E4.81099
G1 X43.153 Y99.818 E4.82868
G1 X43.758 Y98.695 E4.87111
G1 X44.092 Y98.168 E4.89186
G1 X44.552 Y97.545 E4.91762
G1 X44.886 Y97.146 E4.93492
G1 X45.574 Y96.414 E4.96834
G1 X46.05 Y95.976 E4.98985
G1 X47.06 Y95.177 E5.03268
G1 X47.74 Y94.735 E5.05966
G1 X48.291 Y94.444 E5.08038
G0 F1620 X48.999 Y94.072
G0 F3600 X49.185 Y94.426
G1 F1500 E5.10699
G1 F1800 X49.862 Y94.145 E5.13137
G1 X51.326 Y93.69 E5.18236
G1 X51.895 Y93.558 E5.20179
G1 X52.496 Y93.464 E5.22202
G1 X53.01 Y93.417 E5.23919
G1 X54.39 Y93.381 E5.2851
G1 X55.181 Y93.439 E5.31148
G1 X56.787 Y93.719 E5.3657
G1 X57.336 Y93.856 E5.38452
G1 X57.61 Y93.956 E5.39423
G1 X59.082 Y94.556 E5.4471
G1 X59.651 Y94.843 E5.46829
G1 X60.496 Y95.357 E5.50119
G1 X60.996 Y95.716 E5.52166
G1 X61.985 Y96.55 E5.56469
G1 X62.377 Y96.93 E5.58285
G1 X62.906 Y97.517 E5.60913
G1 X63.302 Y98.036 E5.63084
G1 X64.17 Y99.39 E5.68434
G1 X64.518 Y100.066 E5.70962
G1 X65.057 Y101.416 E5.75797
G1 X65.267 Y102.128 E5.78266
G1 X65.512 Y103.376 E5.82496
G1 X65.586 Y104.071 E5.84821
G1 X65.613 Y105.49 E5.89541
G1 X65.557 Y106.237 E5.92033
G1 X65.321 Y107.623 E5.96709
G1 X65.149 Y108.287 E5.9899
G1 X64.75 Y109.414 E6.02967
G1 X64.473 Y110.025 E6.05198
G1 X63.755 Y111.314 E6.10106
G1 X63.409 Y111.835 E6.12186
G1 X62.898 Y112.487 E6.14941
G1 X62.538 Y112.888 E6.16733
G1 X61.635 Y113.766 E6.20922
G1 X61.226 Y114.114 E6.22709
G1 X60.588 Y114.586 E6.25348
G1 X60.066 Y114.913 E6.27397
G1 X58.763 Y115.596 E6.3229
G1 X58.097 Y115.872 E6.34688
G1 X56.741 Y116.295 E6.39412
G1 X56.008 Y116.45 E6.41904
G1 X54.647 Y116.607 E6.46461
G1 X53.913 Y116.623 E6.48903
G1 X52.511 Y116.526 E6.53577
G1 X51.852 Y116.425 E6.55794
G1 X50.721 Y116.153 E6.59663
G1 X50.21 Y115.993 E6.61444
G1 X49.475 Y115.708 E6.64066
G1 X48.986 Y115.48 E6.65861
G1 X47.729 Y114.785 E6.70638
G1 X47.105 Y114.358 E6.73153
G1 X46.037 Y113.469 E6.77775
G1 X45.59 Y113.034 E6.79849
G1 X44.935 Y112.288 E6.83151
G1 X44.541 Y111.756 E6.85353
G1 X43.786 Y110.538 E6.90119
G1 X43.468 Y109.907 E6.92469
G1 X42.935 Y108.565 E6.97272
G1 X42.732 Y107.882 E6.99642
G1 X42.504 Y106.755 E7.03466
G1 X42.427 Y106.093 E7.05683
G1 X42.38 Y104.662 E7.10445
G1 X42.402 Y104.097 E7.12326
G1 X42.448 Y103.785 E7.13374
G1 X42.805 Y101.905 E7.19739
G1 X43.01 Y101.193 E7.22203
G1 X43.302 Y100.447 E7.24868
G1 X43.506 Y100.008 E7.26478
G1 X44.111 Y98.885 E7.30721
G1 X44.414 Y98.406 E7.32606
G1 X44.874 Y97.783 E7.35182
G1 X45.177 Y97.42 E7.36754
G1 X45.865 Y96.688 E7.40095
G1 X46.298 Y96.29 E7.42052
G1 X47.308 Y95.491 E7.46335
G1 X47.926 Y95.089 E7.48787
G1 X48.477 Y94.798 E7.5086
G0 F1620 X49.185 Y94.426
G0 F3600 X49.372 Y94.78
G1 F1500 E7.5352
G1 F1800 X49.981 Y94.527 E7.55714
G1 X51.445 Y94.072 E7.60813
G1 X51.957 Y93.953 E7.62561
G1 X52.558 Y93.859 E7.64584
G1 X53.02 Y93.817 E7.66127
G1 X54.4 Y93.781 E7.70719
G1 X55.112 Y93.833 E7.73093
G1 X56.718 Y94.113 E7.78515
G1 X57.459 Y94.326 E7.8108
G1 X58.931 Y94.926 E7.86367
G1 X59.443 Y95.184 E7.88274
G1 X60.288 Y95.698 E7.91563
G1 X60.738 Y96.022 E7.93407
G1 X61.727 Y96.856 E7.9771
G1 X62.08 Y97.198 E7.99345
G1 X62.609 Y97.785 E8.01973
G1 X62.966 Y98.252 E8.03928
G1 X63.834 Y99.606 E8.09278
G1 X64.146 Y100.214 E8.11551
G1 X64.685 Y101.564 E8.16385
G1 X64.875 Y102.206 E8.18612
G1 X65.12 Y103.454 E8.22842
G1 X65.186 Y104.079 E8.24933
G1 X65.213 Y105.498 E8.29653
G1 X65.163 Y106.17 E8.31894
G1 X64.927 Y107.556 E8.36571
G1 X64.772 Y108.153 E8.38622
G1 X64.373 Y109.28 E8.42598
G1 X64.124 Y109.831 E8.4461
G1 X63.406 Y111.12 E8.49517
G1 X63.094 Y111.589 E8.51391
G1 X62.583 Y112.241 E8.54146
G1 X62.26 Y112.601 E8.55754
G1 X61.357 Y113.479 E8.59944
G1 X60.988 Y113.792 E8.61553
G1 X60.35 Y114.264 E8.64192
G1 X59.88 Y114.559 E8.66038
G1 X58.577 Y115.242 E8.70931
G1 X57.978 Y115.49 E8.73087
G1 X56.622 Y115.913 E8.77812
G1 X55.963 Y116.052 E8.80052
G1 X54.602 Y116.209 E8.84609
G1 X53.941 Y116.224 E8.86808
G1 X52.539 Y116.127 E8.91482
G1 X51.945 Y116.036 E8.93481
G1 X50.814 Y115.764 E8.9735
G1 X50.354 Y115.621 E8.98952
G1 X49.619 Y115.336 E9.01574
G1 X49.179 Y115.13 E9.0319
G1 X47.922 Y114.435 E9.07967
G1 X47.361 Y114.051 E9.10228
G1 X46.293 Y113.162 E9.1485
G1 X45.891 Y112.77 E9.16717
G1 X45.236 Y112.024 E9.20019
G1 X44.881 Y111.546 E9.22
G1 X44.126 Y110.328 E9.26766
G1 X43.84 Y109.76 E9.28881
G1 X43.307 Y108.418 E9.33684
G1 X43.124 Y107.803 E9.35818
G1 X42.896 Y106.676 E9.39642
G1 X42.827 Y106.08 E9.41638
G1 X42.78 Y104.649 E9.464
G1 X42.841 Y103.859 E9.49035
G1 X43.198 Y101.979 E9.554
G1 X43.383 Y101.339 E9.57616
G1 X43.675 Y100.593 E9.6028
G1 X43.858 Y100.198 E9.61728
G1 X44.463 Y99.075 E9.65971
G1 X44.736 Y98.644 E9.67668
G1 X45.196 Y98.021 E9.70243
G1 X45.469 Y97.693 E9.71663
G1 X46.157 Y96.961 E9.75004
G1 X46.546 Y96.604 E9.7676
G1 X47.556 Y95.805 E9.81043
G1 X48.113 Y95.443 E9.83253
G1 X48.664 Y95.152 E9.85325
G0 F1620 X49.372 Y94.78
G0 F3600 X49.558 Y95.134
G1 F1500 E9.87986
G1 F1800 X50.099 Y94.909 E9.89935
G1 X51.563 Y94.454 E9.95034
G1 X52.019 Y94.348 E9.96591
G1 X52.62 Y94.254 E9.98614
G1 X53.031 Y94.217 E9.99987
G1 X54.411 Y94.181 E10.04578
G1 X55.044 Y94.228 E10.06689
G1 X56.65 Y94.508 E10.12112
G1 X57.308 Y94.697 E10.14389
G1 X58.78 Y95.297 E10.19676
G1 X59.235 Y95.526 E10.2137
G1 X60.08 Y96.04 E10.24659
G1 X60.48 Y96.328 E10.26299
G1 X61.469 Y97.162 E10.30602
G1 X61.783 Y97.466 E10.32055
G1 X62.312 Y98.053 E10.34683
G1 X62.629 Y98.468 E10.3642
G1 X63.497 Y99.822 E10.4177
G1 X63.775 Y100.362 E10.4379
G1 X64.314 Y101.712 E10.48625
G1 X64.482 Y102.283 E10.50604
G1 X64.727 Y103.531 E10.54834
G1 X64.786 Y104.086 E10.56691
G1 X64.813 Y105.505 E10.61411
G1 X64.769 Y106.103 E10.63405
G1 X64.533 Y107.489 E10.68082
G1 X64.395 Y108.02 E10.69906
G1 X63.996 Y109.147 E10.73883
G1 X63.775 Y109.636 E10.75668
G1 X63.057 Y110.925 E10.80575
G1 X62.78 Y111.342 E10.8224
G1 X62.269 Y111.994 E10.84995
G1 X61.981 Y112.314 E10.86427
G1 X61.078 Y113.192 E10.90616
G1 X60.75 Y113.471 E10.92049
G1 X60.112 Y113.943 E10.94688
G1 X59.695 Y114.204 E10.96324
G1 X58.392 Y114.887 E11.01217
G1 X57.859 Y115.108 E11.03137
G1 X56.503 Y115.531 E11.07861
G1 X55.917 Y115.655 E11.09853
G1 X54.556 Y115.812 E11.1441
G1 X53.968 Y115.825 E11.16366
G1 X52.566 Y115.728 E11.2104
G1 X52.039 Y115.647 E11.22814
G1 X50.908 Y115.375 E11.26683
G1 X50.499 Y115.248 E11.28107
G1 X49.764 Y114.963 E11.30729
G1 X49.373 Y114.779 E11.32166
G1 X48.116 Y114.084 E11.36944
G1 X47.617 Y113.743 E11.38954
G1 X46.549 Y112.854 E11.43576
G1 X46.191 Y112.506 E11.45236
G1 X45.536 Y111.76 E11.48538
G1 X45.221 Y111.335 E11.50298
G1 X44.466 Y110.117 E11.55064
G1 X44.212 Y109.612 E11.56944
G1 X43.679 Y108.27 E11.61747
G1 X43.517 Y107.724 E11.63641
G1 X43.289 Y106.597 E11.67465
G1 X43.227 Y106.067 E11.6924
G1 X43.18 Y104.636 E11.74002
G1 X43.234 Y103.934 E11.76344
G1 X43.591 Y102.054 E11.82708
G1 X43.755 Y101.485 E11.84678
G1 X44.047 Y100.739 E11.87343
G1 X44.21 Y100.387 E11.88633
G1 X44.815 Y99.264 E11.92875
G1 X45.058 Y98.881 E11.94384
G1 X45.518 Y98.258 E11.9696
G1 X45.76 Y97.967 E11.98219
G1 X46.448 Y97.235 E12.0156
G1 X46.795 Y96.917 E12.03125
G1 X47.805 Y96.118 E12.07409
G1 X48.299 Y95.797 E12.09368
G1 X48.85 Y95.506 E12.11441
G0 F1620 X49.558 Y95.134
G1 F1500 E5.61441
;MESH:die.stl
G0 F3600 X48.786 Y98.528
G0 X49.308 Y99.241
G0 X48.134 Y101.08
G0 X48.217 Y101.135
;TYPE:WALL-OUTER
G1 F1500 E12.14101
G1 F1800 X47.574 Y102.338 E12.18638
G1 X47.18 Y103.644 E12.23175
G1 X47.046 Y104.999 E12.27704
G1 X47.18 Y106.355 E12.32236
G1 X47.574 Y107.66 E12.3677
G1 X48.217 Y108.863 E12.41307
G1 X49.082 Y109.916 E12.45839
G1 X50.135 Y110.782 E12.50374
G1 X51.338 Y111.425 E12.54911
G1 X52.643 Y111.819 E12.59445
G1 X53.999 Y111.954 E12.63977
G1 X55.355 Y111.819 E12.6851
G1 X56.66 Y111.425 E12.73044
G1 X57.863 Y110.782 E12.7758
G1 X58.916 Y109.916 E12.82115
G1 X59.782 Y108.863 E12.8665
G1 X60.424 Y107.66 E12.91185
G1 X60.819 Y106.355 E12.9572
G1 X60.953 Y104.999 E13.00252
G1 X60.819 Y103.644 E13.04781
G1 X60.424 Y102.338 E13.09319
G1 X59.782 Y101.135 E13.13854
G1 X58.916 Y100.083 E13.18386
G1 X57.863 Y99.218 E13.22918
G1 X56.66 Y98.574 E13.27457
G1 X55.355 Y98.18 E13.31991
G1 X53.999 Y98.046 E13.36523
G1 X52.643 Y98.18 E13.41055
G1 X51.338 Y98.574 E13.45589
G1 X50.135 Y99.218 E13.50127
G1 X49.082 Y100.083 E13.5466
G1 X48.725 Y100.517 E13.56529
G0 F1620 X48.217 Y101.135
G0 F3600 X48.123 Y101.311
G0 X48.036 Y101.263
G0 X49.054 Y100.055
G0 X50.113 Y99.185
G0 X51.323 Y98.538
G0 X52.636 Y98.141
G0 X53.999 Y98.006
G0 X55.362 Y98.141
G0 X56.675 Y98.538
G0 X57.885 Y99.185
G0 X58.944 Y100.055
G0 X59.727 Y101.007
G0 X61.22 Y103.633
G0 X61.318 Y103.615
G1 F1500 E13.5919
G1 F1800 X61.416 Y104.309 E13.61521
G1 X61.449 Y104.998 E13.63815
G1 X61.415 Y105.69 E13.6612
G1 X61.318 Y106.378 E13.6843
G1 X61.156 Y107.055 E13.70746
G1 X60.917 Y107.74 E13.73159
G1 X60.623 Y108.385 E13.75516
G1 X60.56 Y108.508 E13.75976
G1 X60.223 Y109.088 E13.78207
G1 X59.782 Y109.689 E13.80686
G1 X59.259 Y110.27 E13.83286
G1 X58.698 Y110.777 E13.85801
G1 X58.088 Y111.223 E13.88315
G1 X57.515 Y111.558 E13.90522
G1 X57.351 Y111.64 E13.91132
G1 X56.74 Y111.918 E13.93365
G1 X56.055 Y112.157 E13.95778
G1 X55.379 Y112.319 E13.9809
G1 X54.69 Y112.416 E14.00404
G1 X54 Y112.449 E14.02702
G1 X53.309 Y112.415 E14.05003
G1 X52.62 Y112.318 E14.07317
G1 X51.944 Y112.156 E14.09629
G1 X51.259 Y111.917 E14.12042
G1 X50.613 Y111.623 E14.14403
G1 X50.481 Y111.555 E14.14897
G1 X49.911 Y111.223 E14.17091
G1 X49.308 Y110.781 E14.19577
G1 X48.727 Y110.257 E14.2218
G1 X48.221 Y109.697 E14.2469
G1 X47.775 Y109.088 E14.272
G1 X47.438 Y108.509 E14.29429
