;FLAVOR:Marlin
;TIME:1336
;Filament used: 0.0650757m, 0.842938m
;Layer height: 0.12
;POSTPROCESSED
;Generated with Cura_SteamEngine 3.6.0
T0
M140 S60
M105
M190 S60
M104 S200
M104 T1 S200
M105
M109 S200
M105
M109 T1 S200
M82 ;absolute extrusion mode
; Printer start settings begin
; Calibration section to overwrite Firmware values
; Identifier CALIBR, CALRES and CALMPE, surrounded by #, + or - can be used in post processing
; #CALIBR# M92 X160 Y160 Z3200 ; +CALIBR+ Steps per unit
; #CALRESO# M201 X1000 Y1000 Z50 E1500 E1500 ; +CALRESO+ Max Accelleration
; #CALRESO# M203 X800 Y800 Z2 E90 E90 ; +CALRESO+ Max Feed
; #CALRESO# M205 X3.0 Y3.0 Z0.3 E5.0 ; +CALRESO+ Default Jerk
; #CALMPE#
M951 L32 R139 G32 N75 H300 D10 C0 ; +CALMPE+ Parking kinematic values / needs MPE kinematic to be compiled and activated in firmware
; #CALMPE#
M851 Z-0.55 ; +CALMPE+ System Z Probe Offset
; #CALMPE#
M218 T1 X0.75 Y0.0 Z0.25; +CALMPE+ T1 Nozzle offset values
; #CALMPE#
M206 X-32.00 Y0.00 Z0.00; +CALMPE+ Home Offset
; #REM#  M951 args: L: Left parking,R: Right parking, I: Grab Offset, J: Normal speed, H: High speed, D: Distance trav., C: Compenstion
; #CALMPE#
M951 L32 R140 I32 J4500 H9000 D10 C0 ; MPE Setup
; #CALMPE# M217 Z5.00 Z-Lift
G28 ;Home
G92 E5
G1 F1000 E0
; #MPE# G29 ; -MPE- Auto Bed Level, uses this if FW values are set correct.
; #MPE# G29 X3 Y3 L0 R109 F32 B168 ; +MPE+ Auto Bed Leveling, needed if not poroper defined in Firmware
G92 E-5
G1 E0 F400
G0 Z15.0 F100 ;Move the platform down 15mm
G0 X0 Y0 F9000 ;Move to front
T1
G0 X0 Y0 F9000 ;Move to front
G92 E-30
G1 F200 E0
T0
G0 X0 Y0 F9000 ;Move to front
G92 E-30
G1 F200 E0
; Printer start settings end
G92 E0
G1 F1500 E-6.5
;LAYER_COUNT:133
;LAYER:0
M107
G0 F3600 X48.295 Y93.98 Z0.2
;TYPE:SKIRT
G1 F1500 E0
G1 F1800 X49.832 Y93.307 E0.05581
G1 X50.414 Y93.096 E0.0764
G1 X50.737 Y93.014 E0.08748
G1 X52.015 Y92.736 E0.13098
G1 X52.898 Y92.628 E0.16057
G1 X54.401 Y92.585 E0.21058
G1 X55.02 Y92.607 E0.23118
G1 X55.454 Y92.671 E0.24577
G1 X57.249 Y93.02 E0.30659
G1 X57.848 Y93.177 E0.32719
G1 X58.215 Y93.316 E0.34024
G1 X59.454 Y93.844 E0.38503
G1 X60.067 Y94.159 E0.40796
G1 X60.912 Y94.673 E0.44085
G1 X61.511 Y95.105 E0.46542
G1 X62.5 Y95.939 E0.50845
G1 X62.972 Y96.395 E0.53027
G1 X63.501 Y96.982 E0.55656
G1 X63.976 Y97.604 E0.58259
G1 X64.844 Y98.958 E0.63608
G1 X65.261 Y99.769 E0.66641
G1 X65.8 Y101.119 E0.71476
G1 X66.052 Y101.974 E0.74441
G1 X66.297 Y103.222 E0.78671
G1 X66.386 Y104.056 E0.8146
G1 X66.413 Y105.475 E0.86181
G1 X66.354 Y106.321 E0.89001
G1 X65.819 Y109.676 E1.00301
G1 X65.133 Y115.092 E1.18459
G1 X64.759 Y120.443 E1.363
G1 X64.69 Y125.856 E1.54305
G1 X64.923 Y131.213 E1.72139
G1 X65.462 Y136.581 E1.90083
G1 X66.305 Y141.919 E2.08057
G1 X66.82 Y144.476 E2.16733
G1 X68.126 Y149.776 E2.34888
G1 X69.705 Y154.917 E2.52775
G1 X71.571 Y159.956 E2.70647
G1 X72.6 Y162.412 E2.79504
G1 X74.913 Y167.331 E2.97583
G1 X78.464 Y173.927 E3.22499
G1 X78.722 Y174.49 E3.24558
G1 X78.832 Y174.812 E3.2569
G1 X79.391 Y176.66 E3.32112
G1 X79.532 Y177.263 E3.34171
G1 X79.574 Y177.576 E3.35222
G1 X79.767 Y179.52 E3.41719
G1 X79.788 Y180.139 E3.43779
G1 X79.767 Y180.464 E3.44862
G1 X79.576 Y182.404 E3.51346
G1 X79.476 Y183.015 E3.53405
G1 X79.386 Y183.348 E3.54553
G1 X78.785 Y185.298 E3.61339
G1 X78.429 Y186.151 E3.64414
G1 X77.534 Y187.821 E3.70716
G1 X77.207 Y188.347 E3.72776
G1 X77.014 Y188.598 E3.73829
G1 X75.782 Y190.1 E3.8029
G1 X75.359 Y190.553 E3.82351
G1 X75.104 Y190.776 E3.83478
G1 X73.544 Y192.048 E3.90173
G1 X73.04 Y192.408 E3.92233
G1 X72.761 Y192.568 E3.93303
G1 X71.046 Y193.478 E3.9976
G1 X70.481 Y193.732 E4.0182
G1 X70.183 Y193.833 E4.02867
G1 X68.325 Y194.394 E4.09322
G1 X67.722 Y194.535 E4.11382
G1 X67.41 Y194.576 E4.12428
G1 X65.497 Y194.765 E4.18822
G1 X64.878 Y194.786 E4.20882
G1 X64.563 Y194.766 E4.21932
G1 X62.589 Y194.575 E4.28528
G1 X61.977 Y194.475 E4.30591
G1 X61.66 Y194.391 E4.31681
G1 X59.79 Y193.825 E4.3818
G1 X59.21 Y193.608 E4.40239
G1 X58.917 Y193.464 E4.41325
G1 X57.195 Y192.543 E4.4782
G1 X56.669 Y192.216 E4.4988
G1 X56.421 Y192.026 E4.50919
G1 X54.897 Y190.78 E4.57467
G1 X54.444 Y190.358 E4.59526
G1 X54.222 Y190.106 E4.60643
G1 X52.978 Y188.588 E4.67171
G1 X52.618 Y188.085 E4.69228
G1 X52.452 Y187.799 E4.70328
G1 X51.522 Y186.049 E4.76919
G1 X51.268 Y185.484 E4.78979
G1 X51.163 Y185.175 E4.80065
G1 X50.599 Y183.295 E4.86593
G1 X50.46 Y182.692 E4.88651
G1 X50.418 Y182.364 E4.89751
G1 X50.234 Y180.402 E4.96305
G1 X50.237 Y179.478 E4.99379
G1 X50.427 Y177.572 E5.05749
G1 X50.504 Y177.07 E5.07439
G1 X52.014 Y169.816 E5.32083
G1 X52.41 Y167.252 E5.40712
G1 X53.012 Y161.877 E5.58701
G1 X53.309 Y156.489 E5.76649
G1 X53.301 Y151.111 E5.94536
G1 X52.987 Y145.724 E6.12484
G1 X52.374 Y140.397 E6.30318
G1 X51.449 Y135.05 E6.48367
G1 X50.888 Y132.467 E6.57158
G1 X50.245 Y129.855 E6.66105
G1 X48.73 Y124.672 E6.84065
G1 X46.927 Y119.589 E7.02003
G1 X44.833 Y114.603 E7.1999
G1 X42.729 Y110.235 E7.36115
G1 X42.538 Y109.78 E7.37757
G1 X42.088 Y108.532 E7.42169
G1 X41.883 Y107.774 E7.44781
G1 X41.695 Y106.754 E7.4823
G1 X41.616 Y105.991 E7.50782
G1 X41.584 Y104.556 E7.55556
G1 X41.61 Y103.937 E7.57616
G1 X41.673 Y103.524 E7.59006
G1 X42.026 Y101.726 E7.651
G1 X42.184 Y101.127 E7.67161
G1 X42.321 Y100.769 E7.68436
G1 X42.839 Y99.554 E7.72829
G1 X43.109 Y99.015 E7.74834
G1 X43.522 Y98.308 E7.77557
G1 X43.866 Y97.798 E7.79603
G1 X44.429 Y97.068 E7.82669
G1 X44.883 Y96.558 E7.8494
G1 X45.832 Y95.635 E7.89343
G1 X46.503 Y95.091 E7.92216
G1 X47.544 Y94.392 E7.96387
G1 X47.594 Y94.365 E7.96576
G0 F1620 X48.295 Y93.98
G0 F3600 X48.455 Y94.346
G1 F1500 E7.99237
G1 F1800 X49.992 Y93.673 E8.04817
G1 X50.822 Y93.405 E8.07718
G1 X52.1 Y93.127 E8.12068
G1 X52.909 Y93.028 E8.14779
G1 X54.412 Y92.985 E8.1978
G1 X55.005 Y93.008 E8.21754
G1 X55.378 Y93.064 E8.23009
G1 X57.173 Y93.413 E8.29091
G1 X57.746 Y93.565 E8.31062
G1 X58.058 Y93.684 E8.32173
G1 X59.297 Y94.212 E8.36652
G1 X59.859 Y94.501 E8.38754
G1 X60.704 Y95.015 E8.42044
G1 X61.254 Y95.41 E8.44296
G1 X62.243 Y96.244 E8.48599
G1 X62.675 Y96.662 E8.50598
G1 X63.204 Y97.249 E8.53227
G1 X63.639 Y97.82 E8.55614
G1 X64.507 Y99.174 E8.60963
G1 X64.889 Y99.917 E8.63742
G1 X65.428 Y101.267 E8.68577
G1 X65.66 Y102.051 E8.71296
G1 X65.905 Y103.299 E8.75526
G1 X65.986 Y104.063 E8.78082
G1 X66.013 Y105.482 E8.82802
G1 X65.959 Y106.258 E8.85389
G1 X65.423 Y109.624 E8.96726
G1 X64.735 Y115.049 E9.14914
G1 X64.36 Y120.428 E9.32848
G1 X64.29 Y125.851 E9.50886
G1 X64.525 Y131.251 E9.68864
G1 X65.065 Y136.631 E9.86848
G1 X65.912 Y141.991 E10.04896
G1 X66.433 Y144.582 E10.13687
G1 X67.736 Y149.868 E10.31794
G1 X69.325 Y155.041 E10.49793
G1 X71.204 Y160.117 E10.67795
G1 X72.231 Y162.568 E10.76634
G1 X74.552 Y167.504 E10.94776
G1 X78.112 Y174.116 E11.19752
G1 X78.45 Y174.928 E11.22678
G1 X79.009 Y176.776 E11.29099
G1 X79.175 Y177.615 E11.31944
G1 X79.368 Y179.559 E11.38441
G1 X79.369 Y180.425 E11.41322
G1 X79.178 Y182.365 E11.47805
G1 X79.004 Y183.23 E11.5074
G1 X78.403 Y185.18 E11.57527
G1 X78.076 Y185.962 E11.60346
G1 X77.181 Y187.632 E11.66648
G1 X76.705 Y188.344 E11.69496
G1 X75.473 Y189.846 E11.75958
G1 X74.852 Y190.466 E11.78876
G1 X73.292 Y191.738 E11.85571
G1 X72.573 Y192.215 E11.88441
G1 X70.858 Y193.125 E11.94898
G1 X70.068 Y193.45 E11.9774
G1 X68.21 Y194.011 E12.04195
G1 X67.371 Y194.178 E12.0704
G1 X65.458 Y194.367 E12.13434
G1 X64.601 Y194.368 E12.16284
G1 X62.627 Y194.177 E12.2288
G1 X61.776 Y194.008 E12.25766
G1 X59.906 Y193.442 E12.32264
G1 X59.106 Y193.111 E12.35144
G1 X57.384 Y192.19 E12.41639
G1 X56.674 Y191.716 E12.44478
G1 X55.15 Y190.47 E12.51026
G1 X54.532 Y189.853 E12.5393
G1 X53.288 Y188.335 E12.60458
G1 X52.806 Y187.611 E12.63351
G1 X51.876 Y185.861 E12.69942
G1 X51.547 Y185.06 E12.72822
G1 X50.983 Y183.18 E12.79351
G1 X50.816 Y182.327 E12.82241
G1 X50.632 Y180.365 E12.88796
G1 X50.635 Y179.518 E12.91613
G1 X50.825 Y177.612 E12.97984
G1 X50.895 Y177.151 E12.99535
G1 X52.412 Y169.861 E13.24301
G1 X52.803 Y167.331 E13.32815
G1 X53.413 Y161.891 E13.51022
G1 X53.709 Y156.51 E13.68947
G1 X53.701 Y151.105 E13.86924
G1 X53.386 Y145.689 E14.04968
G1 X52.769 Y140.338 E14.22883
G1 X51.84 Y134.966 E14.41016
G1 X51.274 Y132.357 E14.49895
G1 X50.636 Y129.766 E14.5877
G1 X49.11 Y124.547 E14.76856
G1 X47.299 Y119.443 E14.94869
G1 X45.205 Y114.454 E15.12864
G1 X43.089 Y110.062 E15.29079
G1 X42.914 Y109.644 E15.30586
G1 X42.464 Y108.396 E15.34999
G1 X42.276 Y107.702 E15.3739
G1 X42.088 Y106.682 E15.4084
G1 X42.016 Y105.982 E15.4318
G1 X41.984 Y104.547 E15.47954
G1 X42.011 Y103.955 E15.49926
G1 X42.065 Y103.601 E15.51117
G1 X42.418 Y101.803 E15.57211
G1 X42.572 Y101.231 E15.59181
G1 X42.688 Y100.925 E15.6027
G1 X43.206 Y99.71 E15.64663
G1 X43.455 Y99.217 E15.665
G1 X43.868 Y98.51 E15.69223
G1 X44.183 Y98.042 E15.71099
G1 X44.746 Y97.312 E15.74165
G1 X45.162 Y96.845 E15.76246
G1 X46.111 Y95.922 E15.80649
G1 X46.726 Y95.423 E15.83283
G1 X47.755 Y94.732 E15.87405
G0 F1620 X47.767 Y94.724
G0 X48.455 Y94.346
G0 F3600 X48.616 Y94.713
G1 F1500 E15.90066
G1 F1800 X50.153 Y94.04 E15.95647
G1 X50.907 Y93.795 E15.98284
G1 X52.185 Y93.517 E16.02634
G1 X52.921 Y93.428 E16.051
G1 X54.424 Y93.385 E16.10101
G1 X54.988 Y93.408 E16.11978
G1 X55.301 Y93.457 E16.13032
G1 X57.096 Y93.806 E16.19114
G1 X57.901 Y94.052 E16.21913
G1 X59.14 Y94.58 E16.26393
G1 X59.651 Y94.843 E16.28304
G1 X60.496 Y95.357 E16.31594
G1 X60.996 Y95.716 E16.33641
G1 X61.985 Y96.55 E16.37944
G1 X62.377 Y96.93 E16.3976
G1 X62.906 Y97.517 E16.42388
G1 X63.302 Y98.036 E16.44559
G1 X64.17 Y99.39 E16.49909
G1 X64.518 Y100.066 E16.52438
G1 X65.057 Y101.416 E16.57272
G1 X65.267 Y102.128 E16.59741
G1 X65.512 Y103.376 E16.63971
G1 X65.586 Y104.071 E16.66296
G1 X65.613 Y105.49 E16.71017
G1 X65.564 Y106.195 E16.73367
G1 X65.026 Y109.572 E16.84741
G1 X64.337 Y115.007 E17.02962
G1 X63.96 Y120.413 E17.20986
G1 X63.889 Y125.863 E17.39115
G1 X64.125 Y131.273 E17.57125
G1 X64.668 Y136.682 E17.75206
G1 X65.521 Y142.082 E17.93389
G1 X66.036 Y144.643 E18.02078
G1 X67.35 Y149.971 E18.2033
G1 X68.949 Y155.176 E18.3844
G1 X70.831 Y160.261 E18.56474
G1 X71.866 Y162.732 E18.65385
G1 X74.196 Y167.685 E18.8359
G1 X77.76 Y174.306 E19.08599
G1 X78.067 Y175.044 E19.11258
G1 X78.626 Y176.892 E19.17679
G1 X78.777 Y177.655 E19.20266
G1 X78.97 Y179.599 E19.26764
G1 X78.971 Y180.386 E19.29382
G1 X78.78 Y182.326 E19.35865
G1 X78.622 Y183.112 E19.38532
G1 X78.021 Y185.062 E19.45319
G1 X77.724 Y185.773 E19.47881
G1 X76.829 Y187.443 E19.54183
G1 X76.396 Y188.091 E19.56775
G1 X75.164 Y189.593 E19.63237
G1 X74.599 Y190.156 E19.65889
G1 X73.039 Y191.428 E19.72584
G1 X72.386 Y191.861 E19.7519
G1 X70.671 Y192.771 E19.81648
G1 X69.952 Y193.067 E19.84234
G1 X68.094 Y193.628 E19.90689
G1 X67.331 Y193.78 E19.93277
G1 X65.418 Y193.969 E19.9967
G1 X64.64 Y193.969 E20.02258
G1 X62.666 Y193.778 E20.08854
G1 X61.892 Y193.625 E20.11478
G1 X60.022 Y193.059 E20.17977
G1 X59.295 Y192.758 E20.20594
G1 X57.573 Y191.837 E20.27089
G1 X56.927 Y191.407 E20.2967
G1 X55.403 Y190.161 E20.36217
G1 X54.841 Y189.599 E20.38861
G1 X53.597 Y188.081 E20.45388
G1 X53.159 Y187.423 E20.48017
G1 X52.229 Y185.673 E20.54609
G1 X51.93 Y184.945 E20.57226
G1 X51.366 Y183.065 E20.63755
G1 X51.214 Y182.289 E20.66385
G1 X51.03 Y180.327 E20.72939
G1 X51.033 Y179.557 E20.755
G1 X51.223 Y177.651 E20.81871
G1 X51.287 Y177.233 E20.83277
G1 X52.803 Y169.948 E21.08026
G1 X53.202 Y167.367 E21.16713
G1 X53.81 Y161.939 E21.34879
G1 X54.109 Y156.514 E21.5295
G1 X54.101 Y151.082 E21.71017
G1 X53.786 Y145.674 E21.89035
G1 X53.162 Y140.258 E22.07168
G1 X52.237 Y134.905 E22.25236
G1 X51.667 Y132.282 E22.34163
G1 X51.019 Y129.649 E22.43182
G1 X49.492 Y124.427 E22.61278
G1 X47.672 Y119.296 E22.79385
G1 X45.573 Y114.296 E22.97421
G1 X43.449 Y109.888 E23.13696
G1 X43.29 Y109.509 E23.15063
G1 X42.84 Y108.261 E23.19475
G1 X42.669 Y107.629 E23.21653
G1 X42.481 Y106.609 E23.25102
G1 X42.416 Y105.973 E23.27229
G1 X42.384 Y104.538 E23.32003
G1 X42.411 Y103.974 E23.33881
G1 X42.458 Y103.678 E23.34878
G1 X42.811 Y101.88 E23.40972
G1 X43.056 Y101.082 E23.43748
G1 X43.574 Y99.867 E23.48142
G1 X43.8 Y99.418 E23.49813
G1 X44.213 Y98.711 E23.52537
G1 X44.5 Y98.286 E23.54242
G1 X45.063 Y97.556 E23.57309
G1 X45.441 Y97.132 E23.59198
G1 X46.39 Y96.209 E23.63601
G1 X46.949 Y95.755 E23.65996
G1 X47.918 Y95.104 E23.69879
G0 F1620 X47.99 Y95.056
G0 X48.616 Y94.713
G0 F3600 X48.776 Y95.079
G1 F1500 E23.7254
G1 F1800 X50.313 Y94.406 E23.7812
G1 X50.992 Y94.186 E23.80494
G1 X52.27 Y93.908 E23.84844
G1 X52.932 Y93.827 E23.87063
G1 X54.435 Y93.784 E23.92064
G1 X55.225 Y93.849 E23.947
G1 X57.02 Y94.198 E24.00782
G1 X57.744 Y94.42 E24.03301
G1 X58.983 Y94.948 E24.0778
G1 X59.443 Y95.184 E24.095
G1 X60.288 Y95.698 E24.12789
G1 X60.738 Y96.022 E24.14634
G1 X61.727 Y96.856 E24.18937
G1 X62.08 Y97.198 E24.20571
G1 X62.609 Y97.785 E24.232
G1 X62.966 Y98.252 E24.25155
G1 X63.834 Y99.606 E24.30504
G1 X64.146 Y100.214 E24.32777
G1 X64.685 Y101.564 E24.37612
G1 X64.875 Y102.206 E24.39839
G1 X65.12 Y103.454 E24.44069
G1 X65.186 Y104.079 E24.46159
G1 X65.213 Y105.498 E24.50879
G1 X65.169 Y106.133 E24.52996
G1 X64.629 Y109.524 E24.64417
G1 X63.939 Y114.965 E24.82659
G1 X63.56 Y120.397 E25.0077
G1 X63.489 Y125.857 E25.18931
G1 X63.727 Y131.313 E25.37095
G1 X64.271 Y136.73 E25.55203
G1 X65.128 Y142.154 E25.73467
G1 X65.65 Y144.748 E25.82268
G1 X66.964 Y150.08 E26.00532
G1 X68.565 Y155.291 E26.18664
G1 X70.462 Y160.415 E26.36837
G1 X71.498 Y162.888 E26.45755
G1 X73.835 Y167.859 E26.64024
G1 X77.408 Y174.495 E26.89092
G1 X77.684 Y175.16 E26.91486
G1 X78.243 Y177.008 E26.97908
G1 X78.379 Y177.694 E27.00234
G1 X78.572 Y179.638 E27.06732
G1 X78.573 Y180.347 E27.0909
G1 X78.382 Y182.287 E27.15573
G1 X78.239 Y182.994 E27.17972
G1 X77.638 Y184.944 E27.24759
G1 X77.371 Y185.585 E27.27069
G1 X76.476 Y187.255 E27.33371
G1 X76.086 Y187.837 E27.35701
G1 X74.854 Y189.339 E27.42162
G1 X74.346 Y189.846 E27.44549
G1 X72.786 Y191.118 E27.51244
G1 X72.198 Y191.508 E27.53591
G1 X70.483 Y192.418 E27.60048
G1 X69.837 Y192.684 E27.62372
G1 X67.979 Y193.245 E27.68827
G1 X67.292 Y193.382 E27.71157
G1 X65.379 Y193.571 E27.77551
G1 X64.678 Y193.571 E27.79882
G1 X62.704 Y193.38 E27.86478
G1 X62.008 Y193.243 E27.88838
G1 X60.138 Y192.677 E27.95336
G1 X59.483 Y192.405 E27.97695
G1 X57.761 Y191.484 E28.0419
G1 X57.18 Y191.097 E28.06512
G1 X55.656 Y189.851 E28.13059
G1 X55.151 Y189.346 E28.15435
G1 X53.907 Y187.828 E28.21962
G1 X53.512 Y187.235 E28.24332
G1 X52.582 Y185.485 E28.30923
G1 X52.313 Y184.83 E28.33279
G1 X51.749 Y182.95 E28.39807
G1 X51.613 Y182.252 E28.42172
G1 X51.429 Y180.29 E28.48726
G1 X51.431 Y179.597 E28.51031
G1 X51.621 Y177.691 E28.57402
G1 X51.679 Y177.314 E28.58671
G1 X53.195 Y170.03 E28.83416
G1 X53.598 Y167.423 E28.9219
G1 X54.209 Y161.971 E29.10437
G1 X54.509 Y156.518 E29.28601
G1 X54.501 Y151.075 E29.46705
G1 X54.184 Y145.623 E29.64869
G1 X53.56 Y140.213 E29.82982
G1 X52.629 Y134.826 E30.01165
G1 X52.062 Y132.216 E30.10048
G1 X51.402 Y129.533 E30.19238
G1 X49.874 Y124.307 E30.37347
G1 X48.044 Y119.151 E30.55545
G1 X45.93 Y114.116 E30.73707
G1 X43.81 Y109.714 E30.89958
G1 X43.666 Y109.373 E30.91189
G1 X43.216 Y108.125 E30.95601
G1 X43.063 Y107.557 E30.97558
G1 X42.875 Y106.537 E31.01008
G1 X42.816 Y105.964 E31.02923
G1 X42.784 Y104.529 E31.07697
G1 X42.85 Y103.755 E31.10281
G1 X43.203 Y101.957 E31.16375
G1 X43.424 Y101.239 E31.18874
G1 X43.942 Y100.024 E31.23267
G1 X44.146 Y99.62 E31.24772
G1 X44.559 Y98.913 E31.27496
G1 X44.816 Y98.53 E31.2903
G1 X45.379 Y97.8 E31.32096
