;FLAVOR:Marlin
;TIME:3997
;Filament used: 1.25489m, 1.63224m
;Layer height: 0.12
;POSTPROCESSED
;Generated with Cura_SteamEngine 3.6.0
T0
M140 S60
M105
M190 S60
M104 S200
M104 T1 S200
M105
M109 S200
M105
M109 T1 S200
M82 ;absolute extrusion mode
; Printer start settings begin
; Calibration section to overwrite Firmware values
; Identifier CALIBR, CALRES and CALMPE, surrounded by #, + or - can be used in post processing
; #CALIBR# M92 X160 Y160 Z3200 ; +CALIBR+ Steps per unit
; #CALRESO# M201 X1000 Y1000 Z50 E1500 E1500 ; +CALRESO+ Max Accelleration
; #CALRESO# M203 X800 Y800 Z2 E90 E90 ; +CALRESO+ Max Feed
; #CALRESO# M205 X3.0 Y3.0 Z0.3 E5.0 ; +CALRESO+ Default Jerk
; #CALMPE#
M951 L32 R139 G32 N75 H300 D10 C0 ; +CALMPE+ Parking kinematic values / needs MPE kinematic to be compiled and activated in firmware
; #CALMPE#
M851 Z-0.55 ; +CALMPE+ System Z Probe Offset
; #CALMPE#
M218 T1 X0.75 Y0.0 Z0.25; +CALMPE+ T1 Nozzle offset values
; #CALMPE#
M206 X-32.00 Y0.00 Z0.00; +CALMPE+ Home Offset
; #REM#  M951 args: L: Left parking,R: Right parking, I: Grab Offset, J: Normal speed, H: High speed, D: Distance trav., C: Compenstion
; #CALMPE#
M951 L32 R140 I32 J4500 H9000 D10 C0 ; MPE Setup
; #CALMPE# M217 Z5.00 Z-Lift
G28 ;Home
G92 E5
G1 F1000 E0
; #MPE# G29 ; -MPE- Auto Bed Level, uses this if FW values are set correct.
; #MPE# G29 X3 Y3 L0 R109 F32 B168 ; +MPE+ Auto Bed Leveling, needed if not poroper defined in Firmware
G92 E-5
G1 E0 F400
G0 Z15.0 F100 ;Move the platform down 15mm
G0 X0 Y0 F9000 ;Move to front
T1
G0 X0 Y0 F9000 ;Move to front
G92 E-30
G1 F200 E0
T0
G0 X0 Y0 F9000 ;Move to front
G92 E-30
G1 F200 E0
; Printer start settings end
G92 E0
G1 F1500 E-6.5
;LAYER_COUNT:167
;LAYER:0
M107
G0 F3600 X47.979 Y92.437 Z0.2
;TYPE:SKIRT
G1 F1500 E0
G1 F1800 X48.47 Y92.202 E0.0181
G1 X49.127 Y91.931 E0.04174
G1 X49.767 Y91.718 E0.06418
G1 X51.397 Y91.301 E0.12014
G1 X52.07 Y91.179 E0.14289
G1 X52.938 Y91.085 E0.17192
G1 X53.494 Y91.057 E0.19044
G1 X54.716 Y91.067 E0.23109
G1 X55.503 Y91.139 E0.25737
G1 X57.261 Y91.446 E0.31673
G1 X57.863 Y91.591 E0.33732
G1 X58.201 Y91.711 E0.34925
G1 X59.993 Y92.42 E0.41335
G1 X60.769 Y92.812 E0.44227
G1 X61.962 Y93.557 E0.48905
G1 X62.656 Y94.082 E0.51799
G1 X64.086 Y95.387 E0.58238
G1 X64.515 Y95.834 E0.60299
G1 X64.772 Y96.166 E0.61695
G1 X65.932 Y97.81 E0.68387
G1 X66.342 Y98.51 E0.71085
G1 X66.791 Y99.451 E0.74553
G1 X67.041 Y100.089 E0.76832
G1 X67.556 Y101.741 E0.82588
G1 X67.728 Y102.505 E0.85192
G1 X67.888 Y103.648 E0.89031
G1 X67.933 Y104.398 E0.9153
G1 X67.903 Y106.086 E0.97145
G1 X67.828 Y106.85 E0.99698
G1 X67.353 Y109.493 E1.0863
G1 X66.537 Y114.892 E1.26791
G1 X66.036 Y120.246 E1.44676
G1 X65.838 Y125.64 E1.62629
G1 X65.943 Y131.015 E1.8051
G1 X66.354 Y136.381 E1.98409
G1 X67.069 Y141.731 E2.16362
G1 X68.087 Y147.037 E2.34331
G1 X68.698 Y149.628 E2.43185
G1 X69.379 Y152.186 E2.5199
G1 X70.999 Y157.374 E2.70067
G1 X72.895 Y162.424 E2.88008
G1 X75.062 Y167.335 E3.05861
G1 X78.503 Y174.001 E3.30812
G1 X78.832 Y174.812 E3.33723
G1 X79.391 Y176.66 E3.40145
G1 X79.532 Y177.263 E3.42204
G1 X79.574 Y177.576 E3.43255
G1 X79.767 Y179.52 E3.49752
G1 X79.788 Y180.139 E3.51812
G1 X79.767 Y180.464 E3.52896
G1 X79.576 Y182.404 E3.59379
G1 X79.476 Y183.015 E3.61438
G1 X79.386 Y183.348 E3.62586
G1 X78.785 Y185.298 E3.69373
G1 X78.429 Y186.151 E3.72447
G1 X77.534 Y187.821 E3.78749
G1 X77.207 Y188.347 E3.80809
G1 X77.014 Y188.598 E3.81862
G1 X75.782 Y190.1 E3.88323
G1 X75.359 Y190.553 E3.90384
G1 X75.104 Y190.776 E3.91511
G1 X73.544 Y192.048 E3.98206
G1 X73.04 Y192.408 E4.00266
G1 X72.761 Y192.568 E4.01336
G1 X71.046 Y193.478 E4.07793
G1 X70.481 Y193.732 E4.09853
G1 X70.183 Y193.833 E4.109
G1 X68.325 Y194.394 E4.17355
G1 X67.722 Y194.535 E4.19415
G1 X67.41 Y194.576 E4.20461
G1 X65.497 Y194.765 E4.26855
G1 X64.878 Y194.786 E4.28915
G1 X64.563 Y194.766 E4.29965
G1 X62.589 Y194.575 E4.36561
G1 X61.977 Y194.475 E4.38624
G1 X61.66 Y194.391 E4.39714
G1 X59.79 Y193.825 E4.46213
G1 X59.21 Y193.608 E4.48272
G1 X58.917 Y193.464 E4.49358
G1 X57.195 Y192.543 E4.55853
G1 X56.669 Y192.216 E4.57913
G1 X56.421 Y192.026 E4.58952
G1 X54.897 Y190.78 E4.655
G1 X54.444 Y190.358 E4.67559
G1 X54.222 Y190.106 E4.68676
G1 X52.978 Y188.588 E4.75204
G1 X52.618 Y188.085 E4.77261
G1 X52.452 Y187.799 E4.78361
G1 X51.522 Y186.049 E4.84952
G1 X51.268 Y185.484 E4.87013
G1 X51.163 Y185.175 E4.88098
G1 X50.599 Y183.295 E4.94626
G1 X50.46 Y182.692 E4.96684
G1 X50.418 Y182.364 E4.97784
G1 X50.234 Y180.402 E5.04338
G1 X50.216 Y179.783 E5.06398
G1 X50.248 Y179.373 E5.07766
G1 X50.547 Y176.922 E5.15978
G1 X50.602 Y176.578 E5.17137
G1 X51.453 Y172.244 E5.31827
G1 X52.211 Y166.887 E5.49822
G1 X52.663 Y161.528 E5.6771
G1 X52.811 Y156.144 E5.85624
G1 X52.655 Y150.759 E6.03542
G1 X52.196 Y145.414 E6.21385
G1 X51.429 Y140.056 E6.39387
G1 X50.363 Y134.764 E6.57342
G1 X49.734 Y132.206 E6.66103
G1 X49.017 Y129.605 E6.75077
G1 X47.36 Y124.467 E6.93033
G1 X45.415 Y119.431 E7.10988
G1 X43.187 Y114.507 E7.28964
G1 X41.423 Y111.037 E7.41911
G1 X41.237 Y110.623 E7.43421
G1 X40.825 Y109.578 E7.47157
G1 X40.632 Y108.975 E7.49263
G1 X40.336 Y107.784 E7.53344
G1 X40.228 Y107.194 E7.55339
G1 X40.095 Y106.077 E7.59081
G1 X40.061 Y105.451 E7.61166
G1 X40.075 Y104.283 E7.65051
G1 X40.118 Y103.703 E7.66985
G1 X40.261 Y102.637 E7.70563
G1 X40.366 Y102.094 E7.72402
G1 X40.663 Y100.924 E7.76417
G1 X40.885 Y100.258 E7.78752
G1 X41.382 Y99.066 E7.83047
G1 X41.611 Y98.591 E7.84801
G1 X41.988 Y97.909 E7.87393
G1 X42.287 Y97.436 E7.89254
G1 X43.05 Y96.371 E7.93612
G1 X43.531 Y95.799 E7.96097
G1 X44.67 Y94.642 E8.01497
G1 X45.193 Y94.183 E8.03812
G1 X45.923 Y93.63 E8.06858
G1 X46.5 Y93.254 E8.09148
G1 X47.279 Y92.823 E8.1211
G0 F1620 X47.979 Y92.437
G0 F3600 X48.172 Y92.788
G1 F1500 E8.1477
G1 F1800 X48.622 Y92.571 E8.16432
G1 X49.279 Y92.3 E8.18796
G1 X49.866 Y92.105 E8.20853
G1 X51.496 Y91.688 E8.26449
G1 X52.113 Y91.577 E8.28534
G1 X52.981 Y91.483 E8.31438
G1 X53.491 Y91.457 E8.33136
G1 X54.713 Y91.467 E8.37201
G1 X55.434 Y91.533 E8.39609
G1 X57.192 Y91.84 E8.45545
G1 X57.768 Y91.981 E8.47517
G1 X58.054 Y92.083 E8.48527
G1 X59.846 Y92.792 E8.54937
G1 X60.558 Y93.151 E8.57589
G1 X61.751 Y93.896 E8.62267
G1 X62.386 Y94.378 E8.64918
G1 X63.816 Y95.683 E8.71357
G1 X64.226 Y96.111 E8.73329
G1 X64.445 Y96.396 E8.74524
G1 X65.605 Y98.04 E8.81216
G1 X65.981 Y98.682 E8.83691
G1 X66.43 Y99.623 E8.87159
G1 X66.66 Y100.208 E8.89249
G1 X67.175 Y101.86 E8.95005
G1 X67.332 Y102.56 E8.97391
G1 X67.492 Y103.703 E9.0123
G1 X67.533 Y104.391 E9.03522
G1 X67.503 Y106.079 E9.09137
G1 X67.435 Y106.779 E9.11476
G1 X66.958 Y109.431 E9.20438
G1 X66.14 Y114.846 E9.38653
G1 X65.636 Y120.229 E9.56635
G1 X65.437 Y125.633 E9.74621
G1 X65.544 Y131.036 E9.92595
G1 X65.957 Y136.428 E10.10582
G1 X66.673 Y141.788 E10.28567
G1 X67.697 Y147.13 E10.46658
G1 X68.302 Y149.693 E10.55417
G1 X68.999 Y152.311 E10.64428
G1 X70.623 Y157.513 E10.82554
G1 X72.519 Y162.562 E11.00492
G1 X74.699 Y167.5 E11.18445
G1 X78.148 Y174.184 E11.43461
G1 X78.45 Y174.928 E11.46132
G1 X79.009 Y176.776 E11.52553
G1 X79.175 Y177.615 E11.55398
G1 X79.368 Y179.559 E11.61895
G1 X79.369 Y180.425 E11.64776
G1 X79.178 Y182.365 E11.71259
G1 X79.004 Y183.23 E11.74194
G1 X78.403 Y185.18 E11.80981
G1 X78.076 Y185.962 E11.838
G1 X77.181 Y187.632 E11.90102
G1 X76.705 Y188.344 E11.9295
G1 X75.473 Y189.846 E11.99412
G1 X74.852 Y190.466 E12.0233
G1 X73.292 Y191.738 E12.09025
G1 X72.573 Y192.215 E12.11895
G1 X70.858 Y193.125 E12.18352
G1 X70.068 Y193.45 E12.21193
G1 X68.21 Y194.011 E12.27649
G1 X67.371 Y194.178 E12.30494
G1 X65.458 Y194.367 E12.36888
G1 X64.601 Y194.368 E12.39738
G1 X62.627 Y194.177 E12.46334
G1 X61.776 Y194.008 E12.4922
G1 X59.906 Y193.442 E12.55718
G1 X59.106 Y193.111 E12.58598
G1 X57.384 Y192.19 E12.65093
G1 X56.674 Y191.716 E12.67932
G1 X55.15 Y190.47 E12.7448
G1 X54.532 Y189.853 E12.77384
G1 X53.288 Y188.335 E12.83912
G1 X52.806 Y187.611 E12.86805
G1 X51.876 Y185.861 E12.93396
G1 X51.547 Y185.06 E12.96276
G1 X50.983 Y183.18 E13.02804
G1 X50.816 Y182.327 E13.05695
G1 X50.632 Y180.365 E13.1225
G1 X50.617 Y179.772 E13.14223
G1 X50.645 Y179.421 E13.15394
G1 X50.944 Y176.97 E13.23606
G1 X50.994 Y176.656 E13.24664
G1 X51.848 Y172.306 E13.39408
G1 X52.61 Y166.925 E13.57484
G1 X53.062 Y161.554 E13.75411
G1 X53.211 Y156.151 E13.93388
G1 X53.055 Y150.747 E14.1137
G1 X52.592 Y145.359 E14.29356
G1 X51.824 Y139.991 E14.47392
G1 X50.754 Y134.681 E14.65408
G1 X50.122 Y132.109 E14.74217
G1 X49.401 Y129.495 E14.83236
G1 X47.734 Y124.327 E15.01297
G1 X45.78 Y119.264 E15.19347
G1 X43.551 Y114.34 E15.37324
G1 X41.78 Y110.856 E15.50323
G1 X41.609 Y110.476 E15.51709
G1 X41.197 Y109.431 E15.55445
G1 X41.02 Y108.878 E15.57377
G1 X40.724 Y107.687 E15.61458
G1 X40.625 Y107.146 E15.63288
G1 X40.492 Y106.029 E15.67029
G1 X40.461 Y105.456 E15.68938
G1 X40.475 Y104.288 E15.72823
G1 X40.514 Y103.756 E15.74597
G1 X40.657 Y102.69 E15.78174
G1 X40.753 Y102.192 E15.79861
G1 X41.05 Y101.022 E15.83876
G1 X41.254 Y100.412 E15.86015
G1 X41.751 Y99.22 E15.90311
G1 X41.961 Y98.784 E15.9192
G1 X42.338 Y98.102 E15.94512
G1 X42.612 Y97.668 E15.96219
G1 X43.375 Y96.603 E16.00577
G1 X43.816 Y96.079 E16.02855
G1 X44.955 Y94.922 E16.08255
G1 X45.434 Y94.502 E16.10373
G1 X46.164 Y93.949 E16.13419
G1 X46.693 Y93.605 E16.15518
G1 X47.472 Y93.174 E16.18479
G0 F1620 X48.172 Y92.788
G0 F3600 X48.366 Y93.138
G1 F1500 E16.2114
G1 F1800 X48.775 Y92.941 E16.2265
G1 X49.432 Y92.67 E16.25014
G1 X49.966 Y92.493 E16.26885
G1 X51.596 Y92.076 E16.32481
G1 X52.156 Y91.974 E16.34374
G1 X53.024 Y91.88 E16.37278
G1 X53.488 Y91.857 E16.38823
G1 X54.71 Y91.867 E16.42888
G1 X55.365 Y91.927 E16.45075
G1 X57.123 Y92.234 E16.51011
G1 X57.907 Y92.455 E16.5372
G1 X59.699 Y93.164 E16.6013
G1 X60.346 Y93.49 E16.6254
G1 X61.539 Y94.235 E16.67218
G1 X62.116 Y94.673 E16.69627
G1 X63.546 Y95.978 E16.76066
G1 X63.936 Y96.388 E16.77948
G1 X64.118 Y96.627 E16.78947
G1 X65.278 Y98.271 E16.85639
G1 X65.62 Y98.854 E16.87887
G1 X66.069 Y99.795 E16.91355
G1 X66.278 Y100.328 E16.93259
G1 X66.793 Y101.98 E16.99015
G1 X66.935 Y102.615 E17.01179
G1 X67.095 Y103.758 E17.05018
G1 X67.133 Y104.384 E17.07104
G1 X67.103 Y106.072 E17.12719
G1 X67.041 Y106.709 E17.14848
G1 X66.562 Y109.376 E17.2386
G1 X65.744 Y114.786 E17.42058
G1 X65.236 Y120.213 E17.60187
G1 X65.037 Y125.626 E17.78203
G1 X65.144 Y131.057 E17.9627
G1 X65.558 Y136.459 E18.1429
G1 X66.28 Y141.865 E18.3243
G1 X67.303 Y147.201 E18.50501
G1 X67.92 Y149.816 E18.59437
G1 X68.613 Y152.42 E18.684
G1 X70.239 Y157.625 E18.86537
G1 X72.154 Y162.728 E19.04665
G1 X74.332 Y167.66 E19.22597
G1 X77.793 Y174.367 E19.477
G1 X78.067 Y175.044 E19.50129
G1 X78.626 Y176.892 E19.56551
G1 X78.777 Y177.655 E19.59138
G1 X78.97 Y179.599 E19.65635
G1 X78.971 Y180.386 E19.68253
G1 X78.78 Y182.326 E19.74736
G1 X78.622 Y183.112 E19.77403
G1 X78.021 Y185.062 E19.8419
G1 X77.724 Y185.773 E19.86752
G1 X76.829 Y187.443 E19.93054
G1 X76.396 Y188.091 E19.95646
G1 X75.164 Y189.593 E20.02108
G1 X74.599 Y190.156 E20.04761
G1 X73.039 Y191.428 E20.11455
G1 X72.386 Y191.861 E20.14061
G1 X70.671 Y192.771 E20.20519
G1 X69.952 Y193.067 E20.23105
G1 X68.094 Y193.628 E20.2956
G1 X67.331 Y193.78 E20.32148
G1 X65.418 Y193.969 E20.38541
G1 X64.64 Y193.969 E20.41129
G1 X62.666 Y193.778 E20.47725
G1 X61.892 Y193.625 E20.50349
G1 X60.022 Y193.059 E20.56848
G1 X59.295 Y192.758 E20.59465
G1 X57.573 Y191.837 E20.6596
G1 X56.927 Y191.407 E20.68541
G1 X55.403 Y190.161 E20.75088
G1 X54.841 Y189.599 E20.77732
G1 X53.597 Y188.081 E20.84259
G1 X53.159 Y187.423 E20.86888
G1 X52.229 Y185.673 E20.9348
G1 X51.93 Y184.945 E20.96097
G1 X51.366 Y183.065 E21.02626
G1 X51.214 Y182.289 E21.05256
G1 X51.03 Y180.327 E21.1181
G1 X51.018 Y179.762 E21.1369
G1 X51.042 Y179.47 E21.14664
G1 X51.341 Y177.019 E21.22877
G1 X51.387 Y176.733 E21.2384
G1 X52.241 Y172.382 E21.38588
G1 X53.006 Y166.978 E21.56741
G1 X53.462 Y161.564 E21.74811
G1 X53.612 Y156.144 E21.92845
G1 X53.454 Y150.72 E22.10893
G1 X52.991 Y145.32 E22.2892
G1 X52.219 Y139.927 E22.4704
G1 X51.142 Y134.581 E22.65178
G1 X50.511 Y132.013 E22.73973
G1 X49.786 Y129.385 E22.8304
G1 X48.113 Y124.197 E23.01171
G1 X46.15 Y119.112 E23.193
G1 X43.909 Y114.163 E23.37369
G1 X42.136 Y110.674 E23.50386
G1 X41.981 Y110.329 E23.51644
G1 X41.569 Y109.284 E23.5538
G1 X41.408 Y108.782 E23.57134
G1 X41.112 Y107.591 E23.61215
G1 X41.022 Y107.099 E23.62879
G1 X40.889 Y105.982 E23.6662
G1 X40.861 Y105.461 E23.68356
G1 X40.875 Y104.293 E23.72241
G1 X40.911 Y103.809 E23.73855
G1 X41.054 Y102.743 E23.77432
G1 X41.141 Y102.291 E23.78963
G1 X41.438 Y101.121 E23.82978
G1 X41.623 Y100.566 E23.84924
G1 X42.12 Y99.374 E23.89219
G1 X42.311 Y98.978 E23.90682
G1 X42.688 Y98.296 E23.93273
G1 X42.937 Y97.901 E23.94827
G1 X43.7 Y96.836 E23.99184
G1 X44.101 Y96.36 E24.01254
G1 X45.24 Y95.203 E24.06654
G1 X45.676 Y94.821 E24.08582
G1 X46.406 Y94.268 E24.11628
G1 X46.887 Y93.955 E24.13537
G1 X47.666 Y93.524 E24.16498
G0 F1620 X48.366 Y93.138
G0 F3600 X48.559 Y93.488
G1 F1500 E24.19159
G1 F1800 X48.927 Y93.311 E24.20517
G1 X49.584 Y93.04 E24.22881
G1 X50.065 Y92.88 E24.24567
G1 X51.695 Y92.463 E24.30163
G1 X52.199 Y92.372 E24.31866
G1 X53.067 Y92.278 E24.3477
G1 X53.484 Y92.257 E24.36159
G1 X54.706 Y92.267 E24.40223
G1 X55.296 Y92.321 E24.42194
G1 X57.054 Y92.628 E24.48129
G1 X57.759 Y92.826 E24.50565
G1 X59.551 Y93.535 E24.56975
G1 X60.134 Y93.829 E24.59146
G1 X61.327 Y94.574 E24.63824
G1 X61.847 Y94.969 E24.65996
G1 X63.277 Y96.274 E24.72435
G1 X63.791 Y96.858 E24.75023
G1 X64.951 Y98.502 E24.81715
G1 X65.259 Y99.027 E24.83739
G1 X65.708 Y99.968 E24.87207
G1 X65.896 Y100.447 E24.88919
G1 X66.411 Y102.099 E24.94674
G1 X66.539 Y102.671 E24.96624
G1 X66.699 Y103.814 E25.00462
G1 X66.733 Y104.377 E25.02338
G1 X66.703 Y106.065 E25.07954
G1 X66.647 Y106.638 E25.09868
G1 X66.172 Y109.282 E25.18803
G1 X65.344 Y114.76 E25.3723
G1 X64.839 Y120.16 E25.55269
G1 X64.637 Y125.637 E25.73498
G1 X64.744 Y131.078 E25.91598
G1 X65.16 Y136.507 E26.09708
G1 X65.881 Y141.905 E26.27821
G1 X66.915 Y147.299 E26.46088
G1 X67.53 Y149.905 E26.54994
G1 X68.233 Y152.545 E26.64081
G1 X69.863 Y157.764 E26.82266
G1 X71.778 Y162.867 E27.00395
G1 X73.977 Y167.846 E27.18498
G1 X77.437 Y174.551 E27.43593
G1 X77.684 Y175.16 E27.45779
G1 X78.243 Y177.008 E27.522
G1 X78.379 Y177.694 E27.54527
G1 X78.572 Y179.638 E27.61024
G1 X78.573 Y180.347 E27.63382
G1 X78.382 Y182.287 E27.69866
G1 X78.239 Y182.994 E27.72265
G1 X77.638 Y184.944 E27.79052
G1 X77.371 Y185.585 E27.81361
G1 X76.476 Y187.255 E27.87663
G1 X76.086 Y187.837 E27.89993
G1 X74.854 Y189.339 E27.96455
G1 X74.346 Y189.846 E27.98842
G1 X72.786 Y191.118 E28.05536
G1 X72.198 Y191.508 E28.07883
G1 X70.483 Y192.418 E28.14341
G1 X69.837 Y192.684 E28.16664
G1 X67.979 Y193.245 E28.23119
G1 X67.292 Y193.382 E28.25449
G1 X65.379 Y193.571 E28.31843
G1 X64.678 Y193.571 E28.34175
G1 X62.704 Y193.38 E28.40771
G1 X62.008 Y193.243 E28.4313
G1 X60.138 Y192.677 E28.49628
G1 X59.483 Y192.405 E28.51987
G1 X57.761 Y191.484 E28.58482
G1 X57.18 Y191.097 E28.60804
G1 X55.656 Y189.851 E28.67352
G1 X55.151 Y189.346 E28.69727
G1 X53.907 Y187.828 E28.76255
G1 X53.512 Y187.235 E28.78625
G1 X52.582 Y185.485 E28.85216
G1 X52.313 Y184.83 E28.87571
G1 X51.749 Y182.95 E28.94099
G1 X51.613 Y182.252 E28.96464
G1 X51.429 Y180.29 E29.03019
G1 X51.439 Y179.518 E29.05587
G1 X51.738 Y177.067 E29.13799
G1 X51.779 Y176.81 E29.14665
G1 X52.64 Y172.422 E29.29538
G1 X53.403 Y167.032 E29.47644
G1 X53.86 Y161.609 E29.65744
G1 X54.012 Y156.131 E29.83971
G1 X53.854 Y150.71 E30.02009
