;FLAVOR:UltiGCode
;TIME:681
;MATERIAL:934
;MATERIAL2:0
;NOZZLE_DIAMETER:0.4
;POSTPROCESSED
;Generated with Cura_SteamEngine 3.6.0
M82 ;absolute extrusion mode
; Printer start settings begin
G90
G21
; Calibration section to overwrite Firmware values
; Identifier CALIBR, CALRES and CALMPE, surrounded by #, + or - can be used in post processing
; #CALIBR# M92 X160 Y160 Z3200 ; +CALIBR+ Steps per unit
; #CALRESO# M201 X1000 Y1000 Z50 E1500 E1500 ; +CALRESO+ Max Accelleration
; #CALRESO# M203 X800 Y800 Z2 E90 E90 ; +CALRESO+ Max Feed
; #CALRESO# M205 X3.0 Y3.0 Z0.3 E5.0 ; +CALRESO+ Default Jerk
; #CALMPE#
M951 L32 R139 G32 N75 H300 D10 C0 ; +CALMPE+ Parking kinematic values / needs MPE kinematic to be compiled and activated in firmware
; #CALMPE#
M851 Z-0.55 ; +CALMPE+ System Z Probe Offset
; #CALMPE#
M218 T1 X0.75 Y0.0 Z0.25; +CALMPE+ T1 Nozzle offset values
; #CALMPE#
M206 X-32.00 Y0.00 Z0.00; +CALMPE+ Home Offset
; #REM#  M951 args: L: Left parking,R: Right parking, I: Grab Offset, J: Normal speed, H: High speed, D: Distance trav., C: Compenstion
; #CALMPE#
M951 L32 R140 I32 J4500 H9000 D10 C0 ; MPE Setup
; #CALMPE# M217 Z5.00 Z-Lift
G28 ;Home
G92 E5
G1 F1000 E0
; #MPE# G29 ; -MPE- Auto Bed Level, uses this if FW values are set correct.
; #MPE#
G29 X3 Y3 L0 R109 F32 B168 ; +MPE+ Auto Bed Leveling, needed if not poroper defined in Firmware
G92 E-5
G1 E0 F400
G0 Z15.0 F100 ;Move the platform down 15mm
G0 X0 Y0 F9000 ;Move to front
T1
G0 X0 Y0 F9000 ;Move to front
G92 E-30
G1 F200 E0
T0
G0 X0 Y0 F9000 ;Move to front
G92 E-30
G1 F200 E0
; Printer start settings end
G92 E0
G10
;LAYER_COUNT:106
;LAYER:0
M107
G0 F3600 X48.109 Y92.787 Z0.2
;TYPE:SKIRT
G11
G1 F1800 X49.101 Y92.316 E0.08785
G1 X49.83 Y92.014 E0.15098
G1 X50.462 Y91.818 E0.20391
G1 X51.523 Y91.539 E0.29168
G1 X52.296 Y91.378 E0.35485
G1 X53.159 Y91.291 E0.42424
G1 X54.616 Y91.226 E0.54091
G1 X55.406 Y91.231 E0.60411
G1 X56.28 Y91.33 E0.67448
G1 X57.361 Y91.515 E0.76222
G1 X58.131 Y91.687 E0.82534
G1 X58.949 Y91.964 E0.89443
G1 X60.305 Y92.508 E1.01131
G1 X61.022 Y92.839 E1.07449
G1 X61.973 Y93.427 E1.16393
G1 X63.155 Y94.282 E1.28064
G1 X63.77 Y94.777 E1.3438
G1 X64.543 Y95.571 E1.43245
G1 X65.485 Y96.687 E1.54928
G1 X65.964 Y97.315 E1.61247
G1 X66.421 Y98.074 E1.68334
G1 X66.933 Y99.043 E1.77102
G1 X67.267 Y99.759 E1.83423
G1 X67.477 Y100.344 E1.88395
G1 X67.807 Y101.392 E1.97185
G1 X68.006 Y102.157 E2.03509
G1 X68.11 Y102.795 E2.0868
G1 X68.242 Y103.882 E2.1744
G1 X68.298 Y104.669 E2.23752
G1 X68.266 Y105.543 E2.30748
G1 X68.131 Y106.998 E2.42438
G1 X68.018 Y107.779 E2.48751
G1 X67.801 Y108.63 E2.55777
G1 X67.47 Y109.676 E2.64554
G1 X67.193 Y110.416 E2.70875
G1 X66.804 Y111.195 E2.77841
G1 X66.079 Y112.463 E2.89526
G1 X65.653 Y113.127 E2.95838
G1 X64.942 Y113.985 E3.04752
G1 X63.933 Y115.039 E3.16425
G1 X63.359 Y115.581 E3.2274
G1 X62.464 Y116.24 E3.31632
G1 X61.229 Y117.02 E3.43318
G1 X60.541 Y117.407 E3.49633
G1 X59.516 Y117.83 E3.58503
G1 X58.13 Y118.289 E3.70184
G1 X57.369 Y118.499 E3.76499
G1 X56.495 Y118.641 E3.83583
G1 X56.008 Y118.692 E3.875
G1 X56.066 Y119.433 E3.93446
G1 X56.087 Y120.222 E3.99761
G1 X56.028 Y121.01 E4.06082
G1 X55.946 Y121.525 E4.10254
G1 X55.78 Y122.38 E4.17222
G1 X55.59 Y123.146 E4.23535
G1 X55.238 Y124.088 E4.3158
G1 X54.881 Y124.883 E4.38552
G1 X54.522 Y125.586 E4.44867
G1 X54.093 Y126.249 E4.51185
G1 X53.787 Y126.647 E4.55201
G1 X53.049 Y127.543 E4.64487
G1 X52.516 Y128.126 E4.70807
G1 X51.928 Y128.653 E4.77124
G1 X51.013 Y129.289 E4.86038
G1 X49.768 Y130.029 E4.97625
G1 X49.07 Y130.398 E5.03941
G1 X48.338 Y130.694 E5.10258
G1 X47.871 Y130.839 E5.1417
G1 X47.313 Y130.994 E5.18803
G1 X46.542 Y131.167 E5.25124
G1 X45.815 Y131.257 E5.30984
G1 X44.945 Y131.323 E5.37964
G1 X44.156 Y131.342 E5.44278
G1 X43.164 Y131.254 E5.52245
G1 X42.303 Y131.121 E5.59215
G1 X41.53 Y130.961 E5.6553
G1 X40.582 Y130.648 E5.73517
G1 X39.772 Y130.322 E5.80502
G1 X39.055 Y129.99 E5.86823
G1 X38.376 Y129.588 E5.93136
G1 X37.95 Y129.285 E5.97318
G1 X37.028 Y128.581 E6.06598
G1 X36.426 Y128.071 E6.1291
G1 X35.878 Y127.502 E6.1923
G1 X35.381 Y126.867 E6.25681
G1 X34.714 Y125.918 E6.3496
G1 X34.293 Y125.25 E6.41277
G1 X33.942 Y124.543 E6.47592
G1 X33.757 Y124.076 E6.5161
G1 X33.462 Y123.257 E6.58574
G1 X33.232 Y122.502 E6.64889
G1 X33.051 Y121.509 E6.72963
G1 X32.951 Y120.643 E6.79937
G1 X32.901 Y119.855 E6.86254
G1 X32.951 Y118.854 E6.94272
G1 X33.051 Y117.987 E7.01254
G1 X33.181 Y117.208 E7.07572
G1 X33.459 Y116.246 E7.15583
G1 X33.753 Y115.427 E7.22545
G1 X34.057 Y114.698 E7.28863
G1 X34.547 Y113.822 E7.36893
G1 X35.021 Y113.09 E7.4387
G1 X35.483 Y112.45 E7.50184
G1 X36.008 Y111.86 E7.56502
G1 X36.377 Y111.508 E7.60582
G1 X37.244 Y110.735 E7.69875
G1 X37.859 Y110.24 E7.7619
G1 X38.522 Y109.81 E7.82512
G1 X38.979 Y109.564 E7.86664
G1 X39.76 Y109.178 E7.93634
G1 X40.485 Y108.865 E7.99951
G1 X41.132 Y108.655 E8.05393
G1 X41.199 Y108.637 E8.05948
G1 X41.036 Y108.009 E8.11138
G1 X40.966 Y107.617 E8.14324
G1 X40.801 Y106.531 E8.23112
G1 X40.723 Y105.745 E8.29431
G1 X40.728 Y104.878 E8.36367
G1 X40.818 Y103.421 E8.48045
G1 X40.906 Y102.636 E8.54364
G1 X41.033 Y102.02 E8.59396
G1 X41.209 Y101.312 E8.65232
G1 X41.504 Y100.382 E8.73038
G1 X41.768 Y99.699 E8.78896
G1 X42.089 Y98.978 E8.85209
G1 X42.39 Y98.439 E8.90148
G1 X43.152 Y97.194 E9.01826
G1 X43.598 Y96.542 E9.08145
G1 X44.17 Y95.873 E9.15187
G1 X44.93 Y95.079 E9.2398
G1 X45.504 Y94.536 E9.30301
G1 X46.012 Y94.138 E9.35464
G1 X46.901 Y93.499 E9.44222
G1 X47.409 Y93.172 E9.49055
G0 F1620 X47.565 Y93.072
G0 X48.109 Y92.787
G0 F3600 X48.28 Y93.148
G1 F1500 E9.55455
G1 F1800 X49.272 Y92.677 E9.6424
G1 X49.983 Y92.384 E9.70393
G1 X50.564 Y92.205 E9.75256
G1 X51.625 Y91.926 E9.84033
G1 X52.378 Y91.77 E9.90185
G1 X53.177 Y91.69 E9.96609
G1 X54.634 Y91.625 E10.08276
G1 X55.403 Y91.631 E10.14428
G1 X56.212 Y91.724 E10.20943
G1 X57.293 Y91.909 E10.29717
G1 X58.044 Y92.078 E10.35875
G1 X58.8 Y92.335 E10.42263
G1 X60.156 Y92.879 E10.53951
G1 X60.854 Y93.202 E10.60104
G1 X61.738 Y93.751 E10.68429
G1 X62.92 Y94.606 E10.801
G1 X63.519 Y95.089 E10.86255
G1 X64.238 Y95.829 E10.9451
G1 X65.18 Y96.945 E11.06193
G1 X65.645 Y97.558 E11.12348
G1 X66.068 Y98.261 E11.18912
G1 X66.58 Y99.23 E11.27679
G1 X66.903 Y99.928 E11.33832
G1 X67.095 Y100.464 E11.38387
G1 X67.425 Y101.512 E11.47177
G1 X67.618 Y102.257 E11.53334
G1 X67.713 Y102.843 E11.58083
G1 X67.845 Y103.93 E11.66843
G1 X67.898 Y104.697 E11.72993
G1 X67.867 Y105.506 E11.7947
G1 X67.732 Y106.961 E11.9116
G1 X67.622 Y107.722 E11.97311
G1 X67.419 Y108.51 E12.03821
G1 X67.088 Y109.556 E12.12598
G1 X66.818 Y110.276 E12.1875
G1 X66.457 Y110.996 E12.25193
G1 X65.732 Y112.264 E12.36878
G1 X65.316 Y112.911 E12.43032
G1 X64.653 Y113.708 E12.51326
G1 X63.644 Y114.762 E12.62999
G1 X63.084 Y115.289 E12.6915
G1 X62.251 Y115.902 E12.77424
G1 X61.016 Y116.682 E12.8911
G1 X60.345 Y117.058 E12.95263
G1 X59.39 Y117.45 E13.03522
G1 X58.004 Y117.909 E13.15202
G1 X57.263 Y118.112 E13.21348
G1 X56.453 Y118.243 E13.27913
G1 X55.579 Y118.335 E13.34943
G1 X55.667 Y119.464 E13.44003
G1 X55.686 Y120.233 E13.50156
G1 X55.626 Y121 E13.56311
G1 X55.553 Y121.448 E13.59943
G1 X55.387 Y122.303 E13.6691
G1 X55.202 Y123.05 E13.73067
G1 X54.874 Y123.924 E13.80535
G1 X54.517 Y124.719 E13.87507
G1 X54.165 Y125.404 E13.93668
G1 X53.745 Y126.048 E13.99819
G1 X53.478 Y126.393 E14.03309
G1 X52.74 Y127.289 E14.12595
G1 X52.221 Y127.856 E14.18745
G1 X51.645 Y128.367 E14.24905
G1 X50.809 Y128.945 E14.33035
G1 X49.564 Y129.685 E14.44622
G1 X48.883 Y130.043 E14.50777
G1 X48.169 Y130.329 E14.5693
G1 X47.764 Y130.454 E14.60321
G1 X47.206 Y130.609 E14.64954
G1 X46.455 Y130.776 E14.71109
G1 X45.785 Y130.858 E14.76509
G1 X44.915 Y130.924 E14.83489
G1 X44.146 Y130.942 E14.89642
G1 X43.225 Y130.858 E14.97041
G1 X42.364 Y130.725 E15.04011
G1 X41.611 Y130.568 E15.10164
G1 X40.731 Y130.277 E15.17579
G1 X39.921 Y129.951 E15.24564
G1 X39.223 Y129.627 E15.3072
G1 X38.563 Y129.232 E15.36874
G1 X38.193 Y128.968 E15.4051
G1 X37.271 Y128.264 E15.4979
G1 X36.685 Y127.766 E15.55943
G1 X36.154 Y127.21 E15.62093
G1 X35.708 Y126.637 E15.67902
G1 X35.041 Y125.688 E15.77182
G1 X34.632 Y125.037 E15.83332
G1 X34.293 Y124.346 E15.8949
G1 X34.133 Y123.941 E15.92973
G1 X33.838 Y123.122 E15.99937
G1 X33.615 Y122.386 E16.0609
G1 X33.449 Y121.463 E16.13592
G1 X33.349 Y120.597 E16.20566
G1 X33.3 Y119.829 E16.26723
G1 X33.349 Y118.9 E16.34165
G1 X33.449 Y118.033 E16.41147
G1 X33.576 Y117.275 E16.47296
G1 X33.835 Y116.381 E16.54742
G1 X34.129 Y115.562 E16.61703
G1 X34.426 Y114.852 E16.6786
G1 X34.883 Y114.04 E16.75314
G1 X35.357 Y113.308 E16.82291
G1 X35.808 Y112.685 E16.88444
G1 X36.321 Y112.112 E16.94596
G1 X36.643 Y111.807 E16.98144
G1 X37.51 Y111.034 E17.07437
G1 X38.11 Y110.552 E17.13594
G1 X38.757 Y110.136 E17.19748
G1 X39.156 Y109.923 E17.23366
G1 X39.937 Y109.537 E17.30335
G1 X40.644 Y109.233 E17.36492
G1 X41.239 Y109.04 E17.41496
G1 X41.696 Y108.913 E17.45291
G1 X41.615 Y108.654 E17.47462
G1 X41.362 Y107.557 E17.56468
G1 X41.197 Y106.471 E17.65256
G1 X41.121 Y105.705 E17.71414
G1 X41.127 Y104.903 E17.7783
G1 X41.217 Y103.446 E17.89508
G1 X41.304 Y102.682 E17.9566
G1 X41.422 Y102.117 E18.00277
G1 X41.598 Y101.409 E18.06114
G1 X41.877 Y100.526 E18.13522
G1 X42.141 Y99.843 E18.1938
G1 X42.455 Y99.141 E18.25532
G1 X42.731 Y98.648 E18.30052
G1 X43.493 Y97.403 E18.4173
G1 X43.928 Y96.769 E18.47881
G1 X44.459 Y96.149 E18.54411
G1 X45.219 Y95.355 E18.63204
G1 X45.779 Y94.828 E18.69356
G1 X46.246 Y94.463 E18.74097
G1 X47.135 Y93.824 E18.82856
G1 X47.581 Y93.537 E18.87099
G0 F1620 X47.782 Y93.408
G0 X48.28 Y93.148
G0 F3600 X48.452 Y93.51
G1 F1500 E18.93499
G1 F1800 X49.444 Y93.039 E19.02284
G1 X50.136 Y92.754 E19.08271
G1 X50.666 Y92.592 E19.12705
G1 X51.727 Y92.313 E19.21481
G1 X52.459 Y92.162 E19.27461
G1 X53.195 Y92.09 E19.33377
G1 X54.652 Y92.025 E19.45044
G1 X55.4 Y92.032 E19.51029
G1 X56.145 Y92.118 E19.57028
G1 X57.226 Y92.303 E19.65802
G1 X57.955 Y92.469 E19.71783
G1 X58.651 Y92.706 E19.77665
G1 X60.007 Y93.25 E19.89354
G1 X60.686 Y93.566 E19.95345
G1 X61.504 Y94.075 E20.03053
G1 X62.686 Y94.93 E20.14723
G1 X63.267 Y95.4 E20.20702
G1 X63.932 Y96.087 E20.28351
G1 X64.874 Y97.203 E20.40034
G1 X65.325 Y97.799 E20.46013
G1 X65.714 Y98.448 E20.52066
G1 X66.226 Y99.417 E20.60834
G1 X66.54 Y100.096 E20.66819
G1 X66.714 Y100.585 E20.70971
G1 X67.044 Y101.633 E20.79761
G1 X67.23 Y102.357 E20.85741
G1 X67.316 Y102.891 E20.90068
G1 X67.448 Y103.978 E20.98828
G1 X67.498 Y104.725 E21.04817
G1 X67.469 Y105.469 E21.10774
G1 X67.334 Y106.924 E21.22464
G1 X67.225 Y107.664 E21.28448
G1 X67.038 Y108.389 E21.34437
G1 X66.707 Y109.435 E21.43214
G1 X66.443 Y110.135 E21.49199
G1 X66.11 Y110.798 E21.55135
G1 X65.385 Y112.066 E21.6682
G1 X64.979 Y112.694 E21.72802
G1 X64.365 Y113.432 E21.80483
G1 X63.356 Y114.486 E21.92155
G1 X62.81 Y114.998 E21.98143
G1 X62.037 Y115.563 E22.05803
G1 X60.802 Y116.343 E22.17489
G1 X60.149 Y116.709 E22.23477
G1 X59.265 Y117.07 E22.31116
G1 X57.879 Y117.529 E22.42797
G1 X57.157 Y117.726 E22.48784
G1 X56.411 Y117.846 E22.54828
G1 X55.319 Y117.961 E22.63613
G1 X55.12 Y117.971 E22.65207
G1 X55.178 Y118.338 E22.68179
G1 X55.268 Y119.495 E22.77463
G1 X55.286 Y120.243 E22.83449
G1 X55.224 Y120.988 E22.89429
G1 X55.161 Y121.372 E22.92543
G1 X54.995 Y122.227 E22.9951
G1 X54.813 Y122.953 E23.05498
G1 X54.509 Y123.761 E23.12404
G1 X54.152 Y124.556 E23.19376
G1 X53.809 Y125.221 E23.25362
G1 X53.169 Y126.138 E23.34308
G1 X52.431 Y127.034 E23.43595
G1 X51.925 Y127.586 E23.49585
G1 X51.364 Y128.08 E23.55565
G1 X50.605 Y128.601 E23.6293
G1 X49.36 Y129.341 E23.74517
G1 X48.697 Y129.689 E23.80507
G1 X47.657 Y130.069 E23.89365
G1 X47.099 Y130.224 E23.93998
G1 X46.368 Y130.385 E23.99986
G1 X45.755 Y130.459 E24.04926
G1 X44.885 Y130.525 E24.11906
G1 X44.137 Y130.542 E24.17891
G1 X43.286 Y130.463 E24.24728
G1 X42.425 Y130.33 E24.31698
G1 X41.693 Y130.176 E24.37682
G1 X40.88 Y129.906 E24.44536
G1 X40.07 Y129.58 E24.51521
G1 X39.392 Y129.264 E24.57505
G1 X38.752 Y128.877 E24.63488
G1 X38.436 Y128.65 E24.66601
G1 X37.514 Y127.946 E24.75881
G1 X36.944 Y127.46 E24.81874
G1 X36.43 Y126.917 E24.87855
G1 X36.035 Y126.407 E24.93016
G1 X35.368 Y125.458 E25.02296
G1 X34.971 Y124.824 E25.0828
G1 X34.509 Y123.805 E25.17231
G1 X34.214 Y122.986 E25.24195
G1 X33.999 Y122.27 E25.30175
G1 X33.846 Y121.417 E25.37108
G1 X33.746 Y120.551 E25.44082
G1 X33.7 Y119.804 E25.5007
G1 X33.746 Y118.946 E25.56943
G1 X33.846 Y118.079 E25.63925
G1 X33.971 Y117.341 E25.69914
G1 X34.212 Y116.516 E25.76789
G1 X34.506 Y115.697 E25.83751
G1 X34.796 Y115.007 E25.89738
G1 X35.218 Y114.257 E25.96623
G1 X35.692 Y113.525 E26.036
G1 X36.132 Y112.92 E26.09584
G1 X36.634 Y112.365 E26.15571
G1 X36.91 Y112.105 E26.18604
G1 X37.777 Y111.332 E26.27897
G1 X38.361 Y110.865 E26.33879
G1 X38.991 Y110.463 E26.39858
G1 X39.333 Y110.282 E26.42953
G1 X40.114 Y109.896 E26.49923
G1 X40.802 Y109.6 E26.55914
G1 X41.346 Y109.426 E26.60484
G1 X41.905 Y109.271 E26.65124
G1 X42.206 Y109.204 E26.67591
G1 X41.997 Y108.535 E26.73198
G1 X41.757 Y107.496 E26.81729
G1 X41.592 Y106.41 E26.90517
G1 X41.52 Y105.666 E26.96497
G1 X41.526 Y104.927 E27.02409
G1 X41.616 Y103.47 E27.14087
G1 X41.702 Y102.727 E27.20071
G1 X41.81 Y102.213 E27.24273
G1 X41.986 Y101.505 E27.30109
G1 X42.25 Y100.67 E27.37115
G1 X42.514 Y99.987 E27.42973
G1 X42.82 Y99.305 E27.48953
G1 X43.073 Y98.857 E27.53069
G1 X43.835 Y97.612 E27.64746
G1 X44.259 Y96.996 E27.70729
G1 X44.748 Y96.426 E27.76737
G1 X45.508 Y95.632 E27.8553
G1 X46.054 Y95.12 E27.91518
G1 X46.479 Y94.788 E27.95832
G1 X47.368 Y94.149 E28.04591
G1 X47.755 Y93.901 E28.08268
G0 F1620 X47.998 Y93.745
G0 X48.452 Y93.51
G0 F3600 X48.623 Y93.871
G1 F1500 E28.14668
G1 F1800 X49.615 Y93.4 E28.23453
G1 X50.288 Y93.125 E28.29269
G1 X50.768 Y92.979 E28.33283
G1 X51.829 Y92.7 E28.4206
G1 X52.54 Y92.554 E28.47866
G1 X53.213 Y92.49 E28.53275
G1 X54.67 Y92.425 E28.64942
G1 X55.396 Y92.432 E28.7075
G1 X56.077 Y92.513 E28.76237
G1 X57.158 Y92.698 E28.85011
G1 X57.866 Y92.859 E28.90819
G1 X58.502 Y93.078 E28.962
G1 X59.858 Y93.622 E29.07889
G1 X60.517 Y93.929 E29.13705
G1 X61.269 Y94.399 E29.20799
G1 X62.451 Y95.254 E29.3247
G1 X63.015 Y95.712 E29.38282
G1 X63.626 Y96.345 E29.4532
G1 X64.568 Y97.461 E29.57004
G1 X65.006 Y98.041 E29.62818
G1 X65.36 Y98.635 E29.6835
G1 X65.872 Y99.604 E29.77118
G1 X66.176 Y100.264 E29.82931
G1 X66.332 Y100.705 E29.86673
G1 X66.662 Y101.753 E29.95463
G1 X66.842 Y102.456 E30.01268
G1 X66.919 Y102.939 E30.05181
G1 X67.051 Y104.026 E30.13941
G1 X67.099 Y104.751 E30.19754
G1 X67.071 Y105.432 E30.25206
G1 X66.936 Y106.887 E30.36896
G1 X66.829 Y107.605 E30.42704
G1 X66.656 Y108.268 E30.48185
G1 X66.325 Y109.314 E30.56962
G1 X66.069 Y109.994 E30.62775
G1 X65.763 Y110.599 E30.68199
G1 X65.038 Y111.867 E30.79884
G1 X64.643 Y112.477 E30.85698
G1 X64.076 Y113.155 E30.92768
G1 X63.067 Y114.209 E31.04441
G1 X62.536 Y114.705 E31.10254
G1 X61.823 Y115.225 E31.17314
G1 X60.588 Y116.005 E31.29
G1 X59.954 Y116.359 E31.34809
G1 X59.139 Y116.69 E31.41846
G1 X57.753 Y117.149 E31.53526
G1 X57.052 Y117.339 E31.59336
G1 X56.369 Y117.448 E31.6487
G1 X55.277 Y117.563 E31.73654
G1 X54.658 Y117.594 E31.78612
G1 X54.779 Y118.369 E31.84887
G1 X54.869 Y119.526 E31.94171
G1 X54.886 Y120.252 E31.99981
G1 X54.768 Y121.296 E32.08386
G1 X54.602 Y122.151 E32.15354
G1 X54.425 Y122.855 E32.21161
G1 X54.144 Y123.597 E32.27508
G1 X53.787 Y124.392 E32.3448
G1 X53.453 Y125.037 E32.40291
G1 X52.86 Y125.884 E32.48563
G1 X52.122 Y126.78 E32.57849
G1 X51.63 Y127.314 E32.63658
G1 X51.083 Y127.792 E32.69469
G1 X50.4 Y128.257 E32.76079
G1 X49.155 Y128.997 E32.87666
G1 X48.511 Y129.334 E32.93481
G1 X47.549 Y129.683 E33.01667
G1 X46.991 Y129.838 E33.063
G1 X46.282 Y129.994 E33.12108
G1 X45.724 Y130.06 E33.16603
G1 X44.854 Y130.126 E33.23583
G1 X44.128 Y130.141 E33.29392
G1 X43.347 Y130.068 E33.35668
G1 X42.486 Y129.935 E33.42637
G1 X41.776 Y129.784 E33.48444
G1 X41.03 Y129.535 E33.54736
G1 X40.22 Y129.209 E33.61721
G1 X39.562 Y128.901 E33.67533
G1 X38.679 Y128.332 E33.75937
G1 X37.757 Y127.628 E33.85217
