;FLAVOR:Marlin
;TIME:11456
;Filament used: 9.62109m, 0m
;Layer height: 0.2
;MINX:5.528
;MINY:56.028
;MINZ:0.3
;MAXX:103.48
;MAXY:153.972
;MAXZ:19.9
;Generated with Cura_SteamEngine 4.1.0
T0
M140 S60
M105
M190 S60
M104 S200
M105
M109 S200
M82 ;absolute extrusion mode

;Basic settings: Layer height: 0.2 Walls: 1.2 Fill: {fill_density}
;Print time: 03:10:56
;Filament used: [9.62, 0.0]m [31.9351918359375, 0.0]g
;Filament cost: [0.7983797958984374, 0.0]
;M190 S60 ;Uncomment to add your own bed temperature line
;M109 S200.0 ;Uncomment to add your own temperature line
G21        ;metric values
G90        ;absolute positioning
M82        ;set extruder to absolute mode
M107       ;start with the fan off
G28 X0 Y0  ;move X/Y to min endstops
G28 Z0     ;move Z to min endstops
G1 X0 Y0 Z15.0 F120 ;move the platform down 15mm
G92 E0                  ;zero the extruded length
G1 F200 E25              ;extrude 3mm of feed stock
G92 E0                  ;zero the extruded length again
G1 F120
;Put printing message on LCD screen
M117 Printing...
G92 E0
G92 E0
G1 F1500 E-6.5
;LAYER_COUNT:99
;LAYER:0
M107
G0 F3600 X34.845 Y60.197 Z0.3
;TYPE:SKIRT
G1 F1500 E0
G1 F1200 X34.884 Y60.177 E0.00219
G1 X35.514 Y59.851 E0.03758
G1 X35.973 Y59.66 E0.06238
G1 X36.64 Y59.445 E0.09734
G1 X36.689 Y59.429 E0.09991
G1 X43.884 Y57.247 E0.47502
G1 X43.923 Y57.236 E0.47704
G1 X44.63 Y57.032 E0.51375
G1 X45.117 Y56.934 E0.53853
G1 X45.756 Y56.86 E0.57063
G1 X45.803 Y56.855 E0.57299
G1 X53.446 Y56.091 E0.9562
G1 X53.489 Y56.087 E0.95835
G1 X54.157 Y56.03 E0.9918
G1 X54.639 Y56.028 E1.01585
G1 X55.325 Y56.08 E1.05017
G1 X55.387 Y56.085 E1.05327
G1 X62.961 Y56.818 E1.43291
G1 X63.003 Y56.822 E1.43501
G1 X63.732 Y56.903 E1.4716
G1 X64.22 Y56.999 E1.49642
G1 X64.868 Y57.183 E1.53002
G1 X64.916 Y57.197 E1.53252
G1 X72.298 Y59.426 E1.91723
G1 X72.339 Y59.439 E1.91938
G1 X73 Y59.649 E1.95398
G1 X73.467 Y59.842 E1.97919
G1 X74.132 Y60.185 E2.01652
G1 X74.171 Y60.205 E2.01871
G1 X80.817 Y63.756 E2.39464
G1 X80.856 Y63.778 E2.39687
G1 X81.488 Y64.128 E2.43291
G1 X81.891 Y64.395 E2.45703
G1 X82.442 Y64.829 E2.49203
G1 X82.489 Y64.867 E2.49504
G1 X88.304 Y69.639 E2.87033
G1 X88.338 Y69.667 E2.87253
G1 X88.895 Y70.138 E2.90892
G1 X89.235 Y70.475 E2.93281
G1 X89.646 Y70.954 E2.9643
G1 X89.685 Y71.001 E2.96734
G1 X94.598 Y76.97 E3.35304
G1 X94.626 Y77.005 E3.35527
G1 X95.035 Y77.517 E3.38797
G1 X95.311 Y77.927 E3.41262
G1 X95.634 Y78.506 E3.4457
G1 X95.658 Y78.55 E3.4482
G1 X99.302 Y85.345 E3.83288
G1 X99.321 Y85.381 E3.83491
G1 X99.648 Y86.011 E3.87032
G1 X99.84 Y86.473 E3.89528
G1 X100.055 Y87.14 E3.93024
G1 X100.071 Y87.189 E3.93282
G1 X102.253 Y94.384 E4.30792
G1 X102.265 Y94.424 E4.31
G1 X102.468 Y95.128 E4.34656
G1 X102.565 Y95.61 E4.37109
G1 X102.638 Y96.233 E4.40238
G1 X102.643 Y96.283 E4.40489
G1 X103.42 Y104.045 E4.79407
G1 X103.424 Y104.086 E4.79613
G1 X103.479 Y104.724 E4.82807
G1 X103.48 Y105.222 E4.85292
G1 X103.425 Y105.908 E4.88725
G1 X103.421 Y105.962 E4.88995
G1 X102.681 Y113.488 E5.26724
G1 X102.676 Y113.531 E5.2694
G1 X102.596 Y114.238 E5.3049
G1 X102.502 Y114.716 E5.3292
G1 X102.334 Y115.311 E5.36005
G1 X102.319 Y115.363 E5.36275
G1 X100.09 Y122.747 E5.74755
G1 X100.078 Y122.786 E5.74959
G1 X99.873 Y123.433 E5.78345
G1 X99.685 Y123.891 E5.80815
G1 X99.398 Y124.453 E5.83963
G1 X99.374 Y124.499 E5.84222
G1 X95.726 Y131.347 E6.22932
G1 X95.705 Y131.385 E6.23149
G1 X95.371 Y131.991 E6.26601
G1 X95.092 Y132.41 E6.29112
G1 X94.626 Y132.996 E6.32848
G1 X94.597 Y133.032 E6.33078
G1 X89.786 Y138.894 E6.70912
G1 X89.759 Y138.927 E6.71125
G1 X89.323 Y139.443 E6.74495
G1 X88.978 Y139.789 E6.76933
G1 X88.481 Y140.213 E6.80192
G1 X88.437 Y140.25 E6.80479
G1 X82.575 Y145.062 E7.18316
G1 X82.542 Y145.089 E7.18529
G1 X81.976 Y145.54 E7.2214
G1 X81.567 Y145.814 E7.24596
G1 X81.013 Y146.123 E7.2776
G1 X80.97 Y146.147 E7.28006
G1 X74.155 Y149.802 E7.66588
G1 X74.119 Y149.821 E7.66791
G1 X73.489 Y150.148 E7.70332
G1 X73.027 Y150.34 E7.72828
G1 X72.36 Y150.555 E7.76324
G1 X72.311 Y150.571 E7.76581
G1 X65.116 Y152.753 E8.14092
G1 X65.077 Y152.764 E8.14294
G1 X64.37 Y152.968 E8.17965
G1 X63.883 Y153.066 E8.20443
G1 X63.244 Y153.14 E8.23653
G1 X63.197 Y153.145 E8.23888
G1 X55.554 Y153.909 E8.6221
G1 X55.511 Y153.913 E8.62425
G1 X54.843 Y153.97 E8.6577
G1 X54.362 Y153.972 E8.6817
G1 X53.675 Y153.92 E8.71607
G1 X53.612 Y153.915 E8.71922
G1 X46.039 Y153.182 E9.09881
G1 X46.002 Y153.178 E9.10066
G1 X45.27 Y153.098 E9.1374
G1 X44.769 Y153 E9.16287
G1 X44.124 Y152.815 E9.19634
G1 X44.084 Y152.803 E9.19843
G1 X36.702 Y150.574 E9.58314
G1 X36.661 Y150.561 E9.58529
G1 X36 Y150.351 E9.61989
G1 X35.533 Y150.158 E9.6451
G1 X34.868 Y149.815 E9.68243
G1 X34.829 Y149.795 E9.68461
G1 X28.183 Y146.244 E10.06055
G1 X28.145 Y146.223 E10.06271
G1 X27.507 Y145.87 E10.09909
G1 X27.097 Y145.597 E10.12366
G1 X26.536 Y145.153 E10.15936
G1 X26.495 Y145.12 E10.16198
G1 X20.696 Y140.361 E10.53625
G1 X20.665 Y140.335 E10.53827
G1 X20.097 Y139.856 E10.57534
G1 X19.744 Y139.504 E10.60021
G1 X19.329 Y139.015 E10.6322
G1 X19.3 Y138.98 E10.63447
G1 X14.37 Y132.99 E11.02152
G1 X14.343 Y132.957 E11.02364
G1 X13.921 Y132.429 E11.05736
G1 X13.64 Y132.011 E11.08249
G1 X13.278 Y131.358 E11.11974
G1 X13.256 Y131.317 E11.12206
G1 X9.716 Y124.693 E11.49677
G1 X9.696 Y124.654 E11.49895
G1 X9.384 Y124.049 E11.53292
G1 X9.199 Y123.607 E11.55682
G1 X9.001 Y123.002 E11.58858
G1 X8.982 Y122.944 E11.59162
G1 X6.73 Y115.558 E11.97686
G1 X6.72 Y115.523 E11.97868
G1 X6.513 Y114.813 E12.01557
G1 X6.412 Y114.313 E12.04102
G1 X6.336 Y113.647 E12.07447
G1 X6.331 Y113.6 E12.07682
G1 X5.586 Y106.016 E12.45701
G1 X5.583 Y105.974 E12.45911
G1 X5.53 Y105.344 E12.49065
G1 X5.528 Y104.865 E12.51455
G1 X5.58 Y104.182 E12.54873
G1 X5.585 Y104.121 E12.55178
G1 X6.327 Y96.459 E12.93583
G1 X6.331 Y96.42 E12.93778
G1 X6.41 Y95.701 E12.97387
G1 X6.511 Y95.193 E12.99971
G1 X6.717 Y94.483 E13.03659
G1 X6.727 Y94.448 E13.03841
G1 X8.921 Y87.214 E13.41555
G1 X8.934 Y87.173 E13.41769
G1 X9.153 Y86.487 E13.45362
G1 X9.345 Y86.024 E13.47863
G1 X9.66 Y85.413 E13.51292
G1 X9.68 Y85.374 E13.51511
G1 X13.256 Y78.683 E13.89361
G1 X13.277 Y78.644 E13.89582
G1 X13.629 Y78.008 E13.93208
G1 X13.9 Y77.602 E13.95644
G1 X14.332 Y77.055 E13.99121
G1 X14.367 Y77.011 E13.99402
G1 X19.139 Y71.196 E14.36931
G1 X19.17 Y71.158 E14.37176
G1 X19.651 Y70.591 E14.40885
G1 X19.989 Y70.252 E14.43273
G1 X20.458 Y69.851 E14.46352
G1 X20.501 Y69.815 E14.46632
G1 X26.471 Y64.901 E14.85208
G1 X26.504 Y64.874 E14.85421
G1 X27.019 Y64.462 E14.88711
G1 X27.438 Y64.182 E14.91226
G1 X28.013 Y63.863 E14.94506
G1 X28.05 Y63.842 E14.94718
G1 X34.845 Y60.197 E15.33188
G0 F3600 X35.034 Y60.55
G1 F1200 X35.068 Y60.532 E15.3338
G1 X35.698 Y60.206 E15.36919
G1 X36.095 Y60.04 E15.39066
G1 X36.762 Y59.825 E15.42562
G1 X36.805 Y59.812 E15.42786
G1 X44 Y57.63 E15.80297
G1 X44.034 Y57.62 E15.80474
G1 X44.741 Y57.416 E15.84145
G1 X45.163 Y57.331 E15.86292
G1 X45.802 Y57.257 E15.89502
G1 X45.842 Y57.253 E15.89702
G1 X53.485 Y56.489 E16.28023
G1 X53.523 Y56.485 E16.28214
G1 X54.191 Y56.428 E16.31559
G1 X54.609 Y56.426 E16.33644
G1 X55.295 Y56.478 E16.37076
G1 X55.348 Y56.483 E16.37342
G1 X62.922 Y57.216 E16.75305
G1 X62.959 Y57.22 E16.75491
G1 X63.688 Y57.301 E16.7915
G1 X64.111 Y57.384 E16.81301
G1 X64.759 Y57.568 E16.84662
G1 X64.801 Y57.58 E16.8488
G1 X72.183 Y59.809 E17.23351
G1 X72.218 Y59.82 E17.23534
G1 X72.879 Y60.03 E17.26994
G1 X73.284 Y60.197 E17.2918
G1 X73.949 Y60.54 E17.32913
G1 X73.982 Y60.558 E17.331
G1 X80.628 Y64.109 E17.70693
G1 X80.663 Y64.127 E17.7089
G1 X81.295 Y64.477 E17.74494
G1 X81.644 Y64.71 E17.76588
G1 X82.195 Y65.144 E17.80087
G1 X82.235 Y65.176 E17.80342
G1 X88.05 Y69.948 E18.17872
G1 X88.08 Y69.973 E18.18067
G1 X88.637 Y70.444 E18.21706
G1 X88.931 Y70.736 E18.23773
G1 X89.342 Y71.215 E18.26922
G1 X89.376 Y71.256 E18.27188
G1 X94.289 Y77.225 E18.65757
G1 X94.313 Y77.254 E18.65945
G1 X94.722 Y77.766 E18.69214
G1 X94.962 Y78.122 E18.71356
G1 X95.285 Y78.701 E18.74664
G1 X95.305 Y78.739 E18.74878
G1 X98.949 Y85.534 E19.13346
G1 X98.966 Y85.565 E19.13522
G1 X99.293 Y86.195 E19.17063
G1 X99.46 Y86.595 E19.19226
G1 X99.675 Y87.262 E19.22722
G1 X99.688 Y87.305 E19.22946
G1 X101.87 Y94.5 E19.60457
G1 X101.88 Y94.535 E19.60638
G1 X102.083 Y95.239 E19.64294
G1 X102.167 Y95.656 E19.66416
G1 X102.24 Y96.279 E19.69545
G1 X102.245 Y96.323 E19.69766
G1 X103.022 Y104.085 E20.08685
G1 X103.025 Y104.121 E20.08865
G1 X103.08 Y104.759 E20.1206
G1 X103.082 Y105.19 E20.1421
G1 X103.027 Y105.876 E20.17643
G1 X103.023 Y105.922 E20.17874
G1 X102.283 Y113.448 E20.55602
G1 X102.279 Y113.486 E20.55793
G1 X102.199 Y114.193 E20.59343
G1 X102.117 Y114.607 E20.61448
G1 X101.949 Y115.202 E20.64533
G1 X101.936 Y115.247 E20.64766
G1 X99.707 Y122.631 E21.03247
G1 X99.697 Y122.665 E21.03424
G1 X99.492 Y123.312 E21.0681
G1 X99.329 Y123.709 E21.08951
G1 X99.042 Y124.271 E21.12099
G1 X99.021 Y124.311 E21.12325
G1 X95.373 Y131.159 E21.51035
G1 X95.355 Y131.192 E21.51222
G1 X95.021 Y131.798 E21.54675
G1 X94.779 Y132.161 E21.56851
G1 X94.313 Y132.747 E21.60586
G1 X94.288 Y132.778 E21.60785
G1 X89.477 Y138.64 E21.98619
G1 X89.453 Y138.669 E21.98807
G1 X89.017 Y139.185 E22.02177
G1 X88.718 Y139.485 E22.0429
G1 X88.221 Y139.909 E22.0755
G1 X88.184 Y139.941 E22.07794
G1 X82.322 Y144.753 E22.45631
G1 X82.292 Y144.776 E22.45819
G1 X81.726 Y145.227 E22.4943
G1 X81.372 Y145.465 E22.51558
G1 X80.818 Y145.774 E22.54723
G1 X80.781 Y145.794 E22.54933
G1 X73.966 Y149.449 E22.93514
G1 X73.935 Y149.466 E22.93691
G1 X73.305 Y149.793 E22.97232
G1 X72.905 Y149.96 E22.99394
G1 X72.238 Y150.175 E23.02891
G1 X72.195 Y150.188 E23.03115
G1 X65 Y152.37 E23.40625
G1 X64.966 Y152.38 E23.40802
G1 X64.259 Y152.584 E23.44473
G1 X63.837 Y152.669 E23.46621
G1 X63.198 Y152.743 E23.4983
G1 X63.158 Y152.747 E23.50031
G1 X55.515 Y153.511 E23.88352
G1 X55.477 Y153.515 E23.88542
G1 X54.809 Y153.572 E23.91887
G1 X54.392 Y153.574 E23.93968
G1 X53.705 Y153.522 E23.97405
G1 X53.651 Y153.517 E23.97675
G1 X46.078 Y152.784 E24.35634
G1 X46.046 Y152.781 E24.35794
G1 X45.314 Y152.701 E24.39468
G1 X44.879 Y152.615 E24.4168
G1 X44.234 Y152.43 E24.45028
G1 X44.199 Y152.42 E24.45209
G1 X36.817 Y150.191 E24.83681
G1 X36.782 Y150.18 E24.83864
G1 X36.121 Y149.97 E24.87324
G1 X35.716 Y149.803 E24.89509
G1 X35.051 Y149.46 E24.93242
G1 X35.018 Y149.442 E24.9343
G1 X28.372 Y145.891 E25.31023
G1 X28.338 Y145.873 E25.31215
G1 X27.7 Y145.52 E25.34853
G1 X27.345 Y145.284 E25.3698
G1 X26.784 Y144.84 E25.40549
G1 X26.749 Y144.811 E25.40776
G1 X20.95 Y140.052 E25.78202
G1 X20.923 Y140.03 E25.78376
G1 X20.355 Y139.551 E25.82083
G1 X20.049 Y139.245 E25.84242
G1 X19.634 Y138.756 E25.87442
G1 X19.608 Y138.726 E25.8764
G1 X14.678 Y132.736 E26.26344
G1 X14.655 Y132.707 E26.26529
G1 X14.233 Y132.179 E26.29901
G1 X13.99 Y131.817 E26.32076
G1 X13.628 Y131.164 E26.35801
G1 X13.609 Y131.128 E26.36004
G1 X10.069 Y124.504 E26.73474
G1 X10.051 Y124.471 E26.73662
G1 X9.739 Y123.866 E26.77058
G1 X9.579 Y123.483 E26.79129
G1 X9.381 Y122.878 E26.82305
G1 X9.365 Y122.827 E26.82571
G1 X7.113 Y115.441 E27.21095
G1 X7.104 Y115.411 E27.21251
G1 X6.897 Y114.701 E27.24941
G1 X6.81 Y114.268 E27.27145
G1 X6.734 Y113.602 E27.30489
G1 X6.729 Y113.561 E27.30695
G1 X5.984 Y105.977 E27.68714
G1 X5.981 Y105.941 E27.68894
G1 X5.928 Y105.311 E27.72048
G1 X5.927 Y104.896 E27.74119
G1 X5.979 Y104.213 E27.77536
G1 X5.983 Y104.159 E27.77806
G1 X6.725 Y96.497 E28.16211
G1 X6.729 Y96.464 E28.16377
G1 X6.808 Y95.745 E28.19985
G1 X6.895 Y95.305 E28.22223
G1 X7.101 Y94.595 E28.25911
G1 X7.11 Y94.564 E28.26072
G1 X9.304 Y87.33 E28.63786
G1 X9.315 Y87.294 E28.63974
G1 X9.534 Y86.608 E28.67567
G1 X9.7 Y86.208 E28.69727
G1 X10.015 Y85.597 E28.73157
G1 X10.033 Y85.562 E28.73353
G1 X13.609 Y78.871 E29.11203
G1 X13.627 Y78.838 E29.11391
G1 X13.979 Y78.202 E29.15017
G1 X14.214 Y77.85 E29.17129
G1 X14.646 Y77.303 E29.20606
G1 X14.676 Y77.265 E29.20848
G1 X19.448 Y71.45 E29.58377
G1 X19.475 Y71.417 E29.5859
G1 X19.956 Y70.85 E29.62299
G1 X20.249 Y70.556 E29.6437
G1 X20.718 Y70.155 E29.67449
G1 X20.756 Y70.124 E29.67693
G1 X26.726 Y65.21 E30.0627
G1 X26.754 Y65.187 E30.06451
G1 X27.269 Y64.775 E30.09741
G1 X27.632 Y64.531 E30.11923
G1 X28.207 Y64.212 E30.15204
G1 X28.239 Y64.195 E30.15385
G1 X35.034 Y60.55 E30.53854
G0 F3600 X35.223 Y60.902
G1 F1200 X35.252 Y60.887 E30.54017
G1 X35.882 Y60.561 E30.57556
G1 X36.218 Y60.421 E30.59372
G1 X36.885 Y60.206 E30.62869
G1 X36.922 Y60.195 E30.63061
G1 X44.117 Y58.013 E31.00571
G1 X44.145 Y58.004 E31.00718
G1 X44.852 Y57.8 E31.04389
G1 X45.209 Y57.729 E31.06205
G1 X45.848 Y57.655 E31.09415
G1 X45.882 Y57.651 E31.09585
G1 X53.525 Y56.887 E31.47907
G1 X53.557 Y56.884 E31.48067
G1 X54.225 Y56.827 E31.51412
G1 X54.578 Y56.825 E31.53173
G1 X55.264 Y56.877 E31.56605
G1 X55.31 Y56.881 E31.56835
G1 X62.884 Y57.614 E31.94799
G1 X62.915 Y57.617 E31.94954
G1 X63.644 Y57.698 E31.98614
G1 X64.002 Y57.769 E32.00434
G1 X64.65 Y57.953 E32.03795
G1 X64.685 Y57.963 E32.03977
G1 X72.067 Y60.192 E32.42448
G1 X72.097 Y60.201 E32.42604
G1 X72.758 Y60.411 E32.46064
G1 X73.1 Y60.553 E32.47912
G1 X73.765 Y60.896 E32.51645
G1 X73.794 Y60.911 E32.51808
G1 X80.44 Y64.462 E32.89401
G1 X80.469 Y64.477 E32.89564
G1 X81.101 Y64.827 E32.93168
G1 X81.396 Y65.024 E32.94938
G1 X81.947 Y65.458 E32.98437
G1 X81.982 Y65.485 E32.98658
G1 X87.797 Y70.257 E33.36187
G1 X87.822 Y70.278 E33.3635
G1 X88.379 Y70.749 E33.39989
G1 X88.628 Y70.996 E33.41739
G1 X89.039 Y71.475 E33.44888
G1 X89.068 Y71.51 E33.45115
G1 X93.981 Y77.479 E33.83684
G1 X94.001 Y77.504 E33.83844
G1 X94.41 Y78.016 E33.87113
G1 X94.612 Y78.317 E33.88922
G1 X94.935 Y78.896 E33.92229
G1 X94.953 Y78.928 E33.92413
G1 X98.597 Y85.723 E34.3088
G1 X98.611 Y85.749 E34.31027
G1 X98.938 Y86.379 E34.34569
G1 X99.079 Y86.718 E34.364
G1 X99.294 Y87.385 E34.39897
G1 X99.305 Y87.422 E34.40089
G1 X101.487 Y94.617 E34.776
G1 X101.496 Y94.645 E34.77746
G1 X101.699 Y95.349 E34.81402
G1 X101.77 Y95.703 E34.83203
G1 X101.843 Y96.326 E34.86332
G1 X101.847 Y96.363 E34.86518
G1 X102.624 Y104.125 E35.25436
G1 X102.627 Y104.155 E35.25587
G1 X102.682 Y104.793 E35.28782
G1 X102.683 Y105.158 E35.30603
G1 X102.628 Y105.844 E35.34036
G1 X102.624 Y105.883 E35.34232
G1 X101.884 Y113.409 E35.7196
G1 X101.881 Y113.441 E35.7212
G1 X101.801 Y114.148 E35.7567
G1 X101.732 Y114.499 E35.77455
G1 X101.564 Y115.094 E35.80539
G1 X101.553 Y115.132 E35.80737
G1 X99.324 Y122.516 E36.19218
G1 X99.315 Y122.545 E36.19369
G1 X99.11 Y123.192 E36.22755
G1 X98.972 Y123.528 E36.24567
G1 X98.685 Y124.09 E36.27716
G1 X98.668 Y124.123 E36.27901
G1 X95.02 Y130.971 E36.66611
G1 X95.005 Y130.999 E36.66769
G1 X94.671 Y131.605 E36.70221
G1 X94.466 Y131.912 E36.72063
G1 X94 Y132.498 E36.75798
G1 X93.979 Y132.525 E36.75969
G1 X89.168 Y138.387 E37.13803
G1 X89.147 Y138.411 E37.13962
G1 X88.711 Y138.927 E37.17332
G1 X88.459 Y139.181 E37.19118
G1 X87.962 Y139.605 E37.22377
G1 X87.93 Y139.631 E37.22583
G1 X82.068 Y144.443 E37.6042
G1 X82.043 Y144.464 E37.60583
G1 X81.477 Y144.915 E37.64193
G1 X81.178 Y145.115 E37.65988
G1 X80.624 Y145.424 E37.69153
G1 X80.592 Y145.442 E37.69336
G1 X73.777 Y149.097 E38.07917
G1 X73.751 Y149.111 E38.08064
G1 X73.121 Y149.438 E38.11606
G1 X72.782 Y149.579 E38.13437
G1 X72.115 Y149.794 E38.16934
G1 X72.078 Y149.805 E38.17126
G1 X64.883 Y151.987 E38.54637
G1 X64.855 Y151.996 E38.54783
G1 X64.148 Y152.2 E38.58455
G1 X63.791 Y152.271 E38.60271
G1 X63.152 Y152.345 E38.6348
G1 X63.118 Y152.349 E38.63651
G1 X55.475 Y153.113 E39.01972
G1 X55.443 Y153.116 E39.02132
G1 X54.775 Y153.173 E39.05477
G1 X54.422 Y153.175 E39.07238
G1 X53.735 Y153.123 E39.10675
G1 X53.689 Y153.119 E39.10906
G1 X46.116 Y152.386 E39.48864
G1 X46.089 Y152.383 E39.49
G1 X45.357 Y152.303 E39.52673
G1 X44.989 Y152.231 E39.54544
G1 X44.344 Y152.046 E39.57892
G1 X44.315 Y152.037 E39.58043
G1 X36.933 Y149.808 E39.96514
G1 X36.903 Y149.799 E39.96671
G1 X36.242 Y149.589 E40.00131
G1 X35.9 Y149.447 E40.01978
G1 X35.235 Y149.104 E40.05711
G1 X35.206 Y149.089 E40.05874
G1 X28.56 Y145.538 E40.43467
