;FLAVOR:Marlin
;TIME:5295
;Filament used: 3.15729m, 0m
;Layer height: 0.16
;MINX:13.256
;MINY:59.135
;MINZ:0.2
;MAXX:96.153
;MAXY:179.023
;MAXZ:6.96
;Generated with Cura_SteamEngine 4.3.0
T0
M140 S65
M105
M190 S65
M104 S210
M105
M109 S210
M82 ;absolute extrusion mode

G21        ;metric values
G90        ;absolute positioning
M82        ;set extruder to absolute mode
M107       ;start with the fan off
G28 X0 Y0  ;move X/Y to min endstops
G28 Z0     ;move Z to min endstops
G1 X0 Y0 Z15.0 F120 ;move the platform down 15mm
G92 E0                  ;zero the extruded length
G1 F200 E25              ;extrude 3mm of feed stock
G92 E0                  ;zero the extruded length again
G1 F120
M117 Printing...
G92 E0
G92 E0
G1 F1500 E-6.5
;LAYER_COUNT:37
;LAYER:0
M107
G1 F600 Z1.2
G0 F3600 X51.613 Y60.092 Z1.2
;TYPE:SKIRT
G1 F600 Z0.2
G1 F1500 E0
G1 F1350 X52.12 Y59.752 E0.0203
G1 X52.302 Y59.649 E0.02726
G1 X52.812 Y59.406 E0.04605
G1 X53.352 Y59.237 E0.06487
G1 X53.91 Y59.146 E0.08367
G1 X54.475 Y59.135 E0.10247
G1 X54.773 Y59.161 E0.11242
G1 X55.201 Y59.215 E0.12677
G1 X55.755 Y59.326 E0.14556
G1 X56.031 Y59.412 E0.15517
G1 X56.371 Y59.532 E0.16717
G1 X56.891 Y59.758 E0.18602
G1 X58.403 Y60.548 E0.24276
G1 X60.835 Y61.764 E0.3332
G1 X63.296 Y62.91 E0.42349
G1 X65.801 Y63.991 E0.51424
G1 X68.336 Y65.001 E0.605
G1 X70.874 Y65.93 E0.69489
G1 X73.436 Y66.787 E0.78474
G1 X76.046 Y67.577 E0.87544
G1 X78.674 Y68.294 E0.96604
G1 X81.3 Y68.93 E1.05591
G1 X83.966 Y69.496 E1.14656
G1 X87.433 Y70.129 E1.26377
G1 X87.582 Y70.159 E1.26883
G1 X88.456 Y70.353 E1.29861
G1 X88.512 Y70.366 E1.30052
G1 X90.157 Y70.756 E1.35675
G1 X90.28 Y70.787 E1.36097
G1 X90.616 Y70.878 E1.37255
G1 X90.786 Y70.928 E1.37844
G1 X91.46 Y71.143 E1.40197
G1 X91.707 Y71.231 E1.41069
G1 X91.997 Y71.345 E1.42105
G1 X92.114 Y71.393 E1.42526
G1 X92.307 Y71.476 E1.43225
G1 X92.81 Y71.736 E1.45108
G1 X93.27 Y72.064 E1.46987
G1 X93.623 Y72.392 E1.4859
G1 X93.764 Y72.54 E1.4927
G1 X94.124 Y72.976 E1.5115
G1 X94.419 Y73.458 E1.5303
G1 X94.643 Y73.977 E1.5491
G1 X94.792 Y74.522 E1.56789
G1 X94.846 Y74.883 E1.58003
G1 X94.867 Y75.084 E1.58675
G1 X94.886 Y75.649 E1.60556
G1 X94.825 Y76.211 E1.62436
G1 X94.686 Y76.759 E1.64316
G1 X94.556 Y77.098 E1.65524
G1 X94.23 Y77.846 E1.68238
G1 X94.207 Y77.897 E1.68424
G1 X93.731 Y78.949 E1.72264
G1 X92.686 Y81.443 E1.81258
G1 X91.69 Y84.02 E1.90447
G1 X90.802 Y86.538 E1.99328
G1 X89.958 Y89.161 E2.08492
G1 X89.205 Y91.745 E2.17444
G1 X88.52 Y94.371 E2.2647
G1 X87.917 Y96.981 E2.3538
G1 X87.37 Y99.691 E2.44575
G1 X86.916 Y102.348 E2.53541
G1 X86.529 Y105.054 E2.62632
G1 X86.221 Y107.747 E2.71648
G1 X85.991 Y110.443 E2.80647
G1 X85.835 Y113.15 E2.89666
G1 X85.758 Y115.855 E2.98666
G1 X85.756 Y118.598 E3.07789
G1 X85.831 Y121.272 E3.16687
G1 X85.984 Y124.01 E3.25808
G1 X86.212 Y126.707 E3.3481
G1 X86.521 Y129.436 E3.43944
G1 X86.896 Y132.088 E3.52853
G1 X87.358 Y134.791 E3.61973
G1 X87.877 Y137.388 E3.70782
G1 X88.495 Y140.079 E3.79965
G1 X89.182 Y142.722 E3.89048
G1 X89.935 Y145.321 E3.98048
G1 X90.771 Y147.925 E4.07144
G1 X91.667 Y150.465 E4.16102
G1 X92.629 Y152.967 E4.25018
G1 X93.682 Y155.493 E4.3412
G1 X95.2 Y158.818 E4.46277
G1 X95.449 Y159.34 E4.48201
G1 X95.53 Y159.52 E4.48857
G1 X95.63 Y159.759 E4.49719
G1 X95.701 Y159.941 E4.50369
G1 X95.872 Y160.413 E4.52039
G1 X96.026 Y160.956 E4.53916
G1 X96.086 Y161.328 E4.55169
G1 X96.13 Y161.719 E4.56478
G1 X96.153 Y162.284 E4.58358
G1 X96.097 Y162.846 E4.60237
G1 X95.995 Y163.286 E4.61739
G1 X95.906 Y163.591 E4.62796
G1 X95.71 Y164.122 E4.64679
G1 X95.482 Y164.551 E4.66294
G1 X95.359 Y164.753 E4.67081
G1 X95.295 Y164.856 E4.67484
G1 X95.138 Y165.097 E4.68441
G1 X95.125 Y165.116 E4.68518
G1 X94.003 Y166.817 E4.75295
G1 X92.562 Y169.138 E4.84381
G1 X91.205 Y171.469 E4.93352
G1 X89.913 Y173.837 E5.02325
G1 X89.079 Y175.457 E5.08385
G1 X88.764 Y176.082 E5.10713
G1 X88.709 Y176.187 E5.11107
G1 X88.544 Y176.492 E5.1226
G1 X88.496 Y176.578 E5.12588
G1 X88.3 Y176.92 E5.13899
G1 X87.985 Y177.389 E5.15778
G1 X87.607 Y177.81 E5.1766
G1 X87.174 Y178.172 E5.19537
G1 X86.693 Y178.47 E5.21419
G1 X86.176 Y178.698 E5.23298
G1 X85.631 Y178.85 E5.2518
G1 X84.961 Y178.929 E5.27424
G1 X84.729 Y178.937 E5.28196
G1 X83.269 Y179.002 E5.33057
G1 X83.213 Y179.004 E5.33243
G1 X82.597 Y179.023 E5.35293
G1 X82.121 Y179.009 E5.36877
G1 X81.918 Y178.991 E5.37555
G1 X81.372 Y178.905 E5.39393
G1 X81.038 Y178.828 E5.40533
G1 X80.984 Y178.815 E5.40718
G1 X78.963 Y178.319 E5.47639
G1 X76.339 Y177.755 E5.56566
G1 X73.648 Y177.254 E5.6567
G1 X71.008 Y176.842 E5.74557
G1 X68.261 Y176.491 E5.83768
G1 X65.604 Y176.227 E5.92649
G1 X62.861 Y176.033 E6.01795
G1 X60.198 Y175.921 E6.1066
G1 X59.456 Y175.91 E6.13128
G1 X59.396 Y175.908 E6.13328
G1 X58.196 Y175.873 E6.1732
G1 X58.025 Y175.865 E6.1789
G1 X57.291 Y175.812 E6.20337
G1 X57.162 Y175.8 E6.20768
G1 X56.847 Y175.767 E6.21822
G1 X56.663 Y175.744 E6.22439
G1 X56.156 Y175.667 E6.24144
G1 X56.038 Y175.647 E6.24542
G1 X55.551 Y175.558 E6.26189
G1 X55.408 Y175.529 E6.26674
G1 X54.311 Y175.287 E6.30411
G1 X54.181 Y175.256 E6.30855
G1 X53.513 Y175.085 E6.33148
G1 X53.404 Y175.055 E6.33524
G1 X52.224 Y174.717 E6.37607
G1 X51.971 Y174.636 E6.38491
G1 X51.215 Y174.364 E6.41163
G1 X50.861 Y174.217 E6.42438
G1 X50.198 Y173.904 E6.44876
G1 X49.959 Y173.781 E6.4577
G1 X49.365 Y173.45 E6.48032
G1 X49.28 Y173.401 E6.48358
G1 X49.113 Y173.303 E6.49002
G1 X47.026 Y172.095 E6.57023
G1 X46.978 Y172.067 E6.57207
G1 X46.409 Y171.727 E6.59412
G1 X46.22 Y171.607 E6.60157
G1 X45.766 Y171.3 E6.61979
G1 X45.652 Y171.219 E6.62445
G1 X45.399 Y171.035 E6.63485
G1 X44.408 Y170.34 E6.67511
G1 X44.36 Y170.306 E6.67707
G1 X43.562 Y169.729 E6.70982
G1 X43.52 Y169.699 E6.71154
G1 X43.049 Y169.349 E6.73105
G1 X42.805 Y169.152 E6.74148
G1 X42.522 Y168.905 E6.75398
G1 X42.339 Y168.734 E6.76231
G1 X41.584 Y167.987 E6.79763
G1 X41.519 Y167.922 E6.80069
G1 X40.656 Y167.028 E6.84202
G1 X40.534 Y166.896 E6.848
G1 X40.205 Y166.523 E6.86454
G1 X40.049 Y166.334 E6.87269
G1 X39.912 Y166.158 E6.88011
G1 X39.738 Y165.917 E6.88999
G1 X39.221 Y165.14 E6.92104
G1 X39.143 Y165.019 E6.92582
G1 X38.669 Y164.248 E6.95593
G1 X38.635 Y164.191 E6.95813
G1 X38.099 Y163.286 E6.99312
G1 X36.659 Y161.007 E7.08278
G1 X35.132 Y158.731 E7.17394
G1 X33.563 Y156.532 E7.26379
G1 X31.933 Y154.379 E7.3536
G1 X30.239 Y152.266 E7.44368
G1 X28.458 Y150.171 E7.53514
G1 X26.651 Y148.164 E7.62496
G1 X24.786 Y146.205 E7.71492
G1 X22.843 Y144.277 E7.80596
G1 X20.864 Y142.422 E7.89618
G1 X18.854 Y140.643 E7.98545
G1 X17.177 Y139.259 E8.05777
G1 X17.151 Y139.237 E8.05891
G1 X16.065 Y138.325 E8.10607
G1 X15.65 Y137.922 E8.12531
G1 X15.536 Y137.794 E8.13102
G1 X15.191 Y137.347 E8.1498
G1 X14.912 Y136.855 E8.16861
G1 X14.706 Y136.329 E8.1874
G1 X14.575 Y135.778 E8.20623
G1 X14.524 Y135.056 E8.23031
G1 X14.528 Y134.85 E8.23716
G1 X14.551 Y134.489 E8.24919
G1 X14.702 Y133.121 E8.29497
G1 X14.936 Y130.751 E8.37418
G1 X15.129 Y128.036 E8.46471
G1 X15.244 Y125.361 E8.55376
G1 X15.284 Y122.62 E8.64494
G1 X15.247 Y119.911 E8.73505
G1 X15.133 Y117.175 E8.82612
G1 X14.944 Y114.501 E8.91528
G1 X14.675 Y111.78 E9.00623
G1 X14.331 Y109.083 E9.09665
G1 X13.912 Y106.406 E9.18678
G1 X13.421 Y103.753 E9.27651
G1 X13.328 Y103.29 E9.29222
G1 X13.256 Y102.729 E9.31103
G1 X13.289 Y101.942 E9.33723
G1 X13.319 Y101.73 E9.34435
G1 X13.34 Y101.601 E9.3487
G1 X13.376 Y101.395 E9.35566
G1 X13.519 Y100.825 E9.3752
G1 X13.587 Y100.62 E9.38238
G1 X13.681 Y100.367 E9.39136
G1 X13.846 Y99.963 E9.40588
G1 X13.938 Y99.755 E9.41344
G1 X14.099 Y99.417 E9.42589
G1 X14.25 Y99.131 E9.43665
G1 X14.388 Y98.893 E9.4458
G1 X14.761 Y98.355 E9.46757
G1 X14.981 Y98.088 E9.47908
G1 X15.37 Y97.679 E9.49785
G1 X15.957 Y97.234 E9.52235
G1 X16.81 Y96.704 E9.55576
G1 X19.082 Y95.247 E9.64553
G1 X21.338 Y93.708 E9.73636
G1 X23.539 Y92.114 E9.82674
G1 X25.698 Y90.455 E9.9173
G1 X27.778 Y88.762 E10.00651
G1 X29.854 Y86.972 E10.09768
G1 X31.857 Y85.143 E10.18789
G1 X33.819 Y83.247 E10.27864
G1 X35.691 Y81.333 E10.36769
G1 X37.556 Y79.317 E10.45903
G1 X39.338 Y77.274 E10.5492
G1 X41.069 Y75.175 E10.63969
G1 X42.731 Y73.037 E10.72976
G1 X44.342 Y70.842 E10.82032
G1 X45.881 Y68.614 E10.91038
G1 X47.359 Y66.341 E11.00056
G1 X48.868 Y63.862 E11.09708
G1 X49.456 Y62.865 E11.13558
G1 X49.647 Y62.573 E11.14719
G1 X50.835 Y60.909 E11.21519
G1 X51.195 Y60.473 E11.23399
G1 X51.613 Y60.092 E11.25281
G0 F3600 X51.904 Y60.373
G1 F1350 X52.317 Y60.1 E11.26927
G1 X52.499 Y59.997 E11.27623
G1 X52.984 Y59.768 E11.29407
G1 X53.498 Y59.614 E11.31191
G1 X54.029 Y59.538 E11.32975
G1 X54.723 Y59.558 E11.35285
G1 X55.151 Y59.612 E11.36719
G1 X55.898 Y59.789 E11.39273
G1 X56.238 Y59.909 E11.40472
G1 X56.706 Y60.113 E11.4217
G1 X58.218 Y60.903 E11.47844
G1 X60.653 Y62.121 E11.56899
G1 X63.149 Y63.282 E11.66055
G1 X65.644 Y64.359 E11.75094
G1 X68.168 Y65.365 E11.84131
G1 X70.746 Y66.309 E11.93262
G1 X73.33 Y67.173 E12.02324
G1 X75.93 Y67.96 E12.11359
G1 X78.547 Y68.674 E12.20382
G1 X81.235 Y69.325 E12.29581
G1 X83.909 Y69.893 E12.38673
G1 X87.361 Y70.523 E12.50344
G1 X87.495 Y70.55 E12.50798
G1 X88.369 Y70.744 E12.53776
G1 X88.419 Y70.755 E12.53946
G1 X90.064 Y71.145 E12.59569
G1 X90.175 Y71.173 E12.5995
G1 X90.511 Y71.264 E12.61108
G1 X90.664 Y71.309 E12.61638
G1 X91.338 Y71.524 E12.63991
G1 X91.561 Y71.604 E12.64779
G1 X91.851 Y71.718 E12.65816
G1 X91.956 Y71.761 E12.66193
G1 X92.149 Y71.844 E12.66892
G1 X92.625 Y72.092 E12.68677
G1 X93.058 Y72.408 E12.7046
G1 X93.333 Y72.668 E12.71719
G1 X93.474 Y72.816 E12.72399
G1 X93.814 Y73.231 E12.74183
G1 X94.089 Y73.691 E12.75965
G1 X94.292 Y74.188 E12.77751
G1 X94.449 Y74.925 E12.80257
G1 X94.47 Y75.126 E12.8093
G1 X94.485 Y75.662 E12.82713
G1 X94.421 Y76.194 E12.84495
G1 X94.189 Y76.938 E12.87087
G1 X93.863 Y77.686 E12.89801
G1 X93.843 Y77.732 E12.89968
G1 X93.356 Y78.808 E12.93896
G1 X92.315 Y81.292 E13.02854
G1 X91.312 Y83.887 E13.12107
G1 X90.423 Y86.409 E13.21002
G1 X89.582 Y89.021 E13.30128
G1 X88.82 Y91.637 E13.39191
G1 X88.138 Y94.252 E13.48179
G1 X87.518 Y96.936 E13.57341
G1 X86.972 Y99.643 E13.66526
G1 X86.523 Y102.266 E13.75377
G1 X86.135 Y104.984 E13.84509
G1 X85.824 Y107.705 E13.93618
G1 X85.592 Y110.422 E14.02688
G1 X85.437 Y113.116 E14.11663
G1 X85.358 Y115.879 E14.20856
G1 X85.356 Y118.573 E14.29817
G1 X85.433 Y121.343 E14.39033
G1 X85.584 Y124.03 E14.47984
G1 X85.813 Y126.749 E14.5706
G1 X86.121 Y129.471 E14.66171
G1 X86.499 Y132.134 E14.75117
G1 X86.964 Y134.858 E14.84308
G1 X87.489 Y137.484 E14.93215
G1 X88.114 Y140.205 E15.02501
G1 X88.784 Y142.787 E15.11373
G1 X89.556 Y145.448 E15.20588
G1 X90.389 Y148.043 E15.29653
G1 X91.292 Y150.605 E15.38688
G1 X92.258 Y153.116 E15.47636
G1 X93.318 Y155.659 E15.568
G1 X94.812 Y158.933 E15.68769
G1 X95.089 Y159.513 E15.70907
G1 X95.161 Y159.674 E15.71494
G1 X95.261 Y159.913 E15.72356
G1 X95.325 Y160.077 E15.72941
G1 X95.496 Y160.549 E15.74611
G1 X95.64 Y161.065 E15.76393
G1 X95.688 Y161.372 E15.77426
G1 X95.732 Y161.763 E15.78735
G1 X95.753 Y162.299 E15.80519
G1 X95.693 Y162.832 E15.82303
G1 X95.611 Y163.174 E15.83473
G1 X95.522 Y163.479 E15.84529
G1 X95.334 Y163.982 E15.86315
G1 X95.141 Y164.343 E15.87677
G1 X95.018 Y164.545 E15.88463
G1 X94.959 Y164.638 E15.8883
G1 X94.802 Y164.879 E15.89786
G1 X94.791 Y164.896 E15.89854
G1 X93.662 Y166.608 E15.96675
G1 X92.236 Y168.905 E16.05667
G1 X90.843 Y171.297 E16.14874
G1 X89.563 Y173.642 E16.23759
G1 X88.723 Y175.274 E16.29864
G1 X88.407 Y175.902 E16.32202
G1 X88.357 Y175.997 E16.32559
G1 X88.192 Y176.302 E16.33713
G1 X88.149 Y176.379 E16.34006
G1 X87.953 Y176.721 E16.35317
G1 X87.653 Y177.165 E16.37099
G1 X87.29 Y177.56 E16.38884
G1 X86.872 Y177.896 E16.40667
G1 X86.409 Y178.166 E16.4245
G1 X85.911 Y178.365 E16.44234
G1 X85.388 Y178.487 E16.4602
G1 X84.948 Y178.529 E16.4749
G1 X84.704 Y178.537 E16.48302
G1 X83.251 Y178.602 E16.5314
G1 X83.201 Y178.604 E16.53306
G1 X82.585 Y178.623 E16.55356
G1 X82.156 Y178.611 E16.56783
G1 X81.953 Y178.593 E16.57461
G1 X81.462 Y178.515 E16.59115
G1 X81.128 Y178.438 E16.60255
G1 X81.08 Y178.426 E16.60419
G1 X79.078 Y177.935 E16.67275
G1 X76.424 Y177.364 E16.76305
G1 X73.717 Y176.86 E16.85463
G1 X71.043 Y176.443 E16.94464
G1 X68.315 Y176.094 E17.03611
G1 X65.636 Y175.828 E17.12566
G1 X62.909 Y175.635 E17.21658
G1 X60.183 Y175.52 E17.30733
G1 X59.461 Y175.51 E17.33135
G1 X59.408 Y175.508 E17.33311
G1 X58.208 Y175.473 E17.37304
G1 X58.054 Y175.466 E17.37817
G1 X57.32 Y175.413 E17.40264
G1 X57.204 Y175.402 E17.40652
G1 X56.889 Y175.369 E17.41705
G1 X56.723 Y175.348 E17.42262
G1 X56.216 Y175.271 E17.43967
G1 X56.11 Y175.253 E17.44325
G1 X55.623 Y175.164 E17.45972
G1 X55.494 Y175.138 E17.46409
G1 X54.397 Y174.896 E17.50146
G1 X54.28 Y174.869 E17.50545
G1 X53.612 Y174.698 E17.52839
G1 X53.514 Y174.671 E17.53177
G1 X52.334 Y174.333 E17.57259
G1 X52.106 Y174.259 E17.58056
G1 X51.35 Y173.987 E17.60729
G1 X51.032 Y173.855 E17.61874
G1 X50.369 Y173.542 E17.64312
G1 X50.154 Y173.432 E17.65116
G1 X49.56 Y173.101 E17.67377
G1 X49.483 Y173.057 E17.67672
G1 X49.288 Y172.942 E17.68425
G1 X47.227 Y171.749 E17.76346
G1 X47.183 Y171.723 E17.76516
G1 X46.614 Y171.383 E17.7872
G1 X46.444 Y171.275 E17.7939
G1 X45.99 Y170.968 E17.81213
G1 X45.888 Y170.896 E17.81628
G1 X45.664 Y170.733 E17.8255
G1 X44.637 Y170.013 E17.86721
G1 X44.595 Y169.982 E17.86895
G1 X43.797 Y169.405 E17.9017
G1 X43.759 Y169.378 E17.90325
G1 X43.288 Y169.028 E17.92277
G1 X43.068 Y168.85 E17.93218
G1 X42.785 Y168.603 E17.94468
G1 X42.62 Y168.45 E17.95216
G1 X41.865 Y167.703 E17.98749
G1 X41.807 Y167.644 E17.99024
G1 X40.944 Y166.75 E18.03157
G1 X40.834 Y166.631 E18.03696
G1 X40.505 Y166.258 E18.0535
G1 X40.364 Y166.088 E18.06084
G1 X40.227 Y165.912 E18.06826
G1 X40.071 Y165.695 E18.07715
G1 X39.554 Y164.918 E18.10819
G1 X39.484 Y164.809 E18.1125
G1 X39.01 Y164.038 E18.1426
G1 X38.979 Y163.987 E18.14459
G1 X38.444 Y163.083 E18.17953
G1 X36.997 Y160.792 E18.26965
G1 X35.473 Y158.522 E18.36059
G1 X33.874 Y156.281 E18.45215
G1 X32.235 Y154.115 E18.5425
G1 X30.554 Y152.02 E18.63183
G1 X28.761 Y149.91 E18.72393
G1 X26.937 Y147.884 E18.8146
G1 X25.075 Y145.928 E18.90442
G1 X23.133 Y144 E18.99544
G1 X21.138 Y142.131 E19.08636
G1 X19.107 Y140.333 E19.17658
G1 X17.432 Y138.951 E19.2488
G1 X17.408 Y138.931 E19.24984
G1 X16.322 Y138.019 E19.29701
G1 X15.949 Y137.656 E19.31432
G1 X15.835 Y137.528 E19.32002
G1 X15.509 Y137.102 E19.33786
G1 X15.25 Y136.633 E19.35568
G1 X15.063 Y136.13 E19.37353
G1 X14.954 Y135.605 E19.39137
G1 X14.924 Y135.064 E19.40939
G1 X14.928 Y134.858 E19.41624
G1 X14.949 Y134.533 E19.42707
G1 X15.095 Y133.206 E19.47148
G1 X15.334 Y130.782 E19.55249
G1 X15.527 Y128.079 E19.64262
G1 X15.645 Y125.351 E19.73344
G1 X15.684 Y122.621 E19.82425
G1 X15.647 Y119.888 E19.91516
G1 X15.533 Y117.163 E20.00587
G1 X15.343 Y114.472 E20.0956
G1 X15.071 Y111.722 E20.18751
G1 X14.729 Y109.042 E20.27737
G1 X14.307 Y106.343 E20.36823
G1 X13.813 Y103.674 E20.45851
G1 X13.72 Y103.211 E20.47421
G1 X13.654 Y102.679 E20.49204
G1 X13.686 Y101.998 E20.51472
G1 X13.716 Y101.786 E20.52184
G1 X13.734 Y101.67 E20.52574
G1 X13.77 Y101.464 E20.5327
G1 X13.899 Y100.951 E20.55029
G1 X13.967 Y100.746 E20.55748
G1 X14.051 Y100.518 E20.56556
G1 X14.216 Y100.114 E20.58007
G1 X14.299 Y99.927 E20.58688
G1 X14.46 Y99.589 E20.59933
G1 X14.596 Y99.331 E20.60903
G1 X14.734 Y99.093 E20.61818
G1 X15.07 Y98.61 E20.63775
G1 X15.29 Y98.343 E20.64926
G1 X15.661 Y97.955 E20.66711
G1 X16.168 Y97.574 E20.68821
G1 X17.021 Y97.044 E20.72161
G1 X19.294 Y95.587 E20.81141
G1 X21.576 Y94.03 E20.90329
G1 X23.778 Y92.435 E20.99372
G1 X25.926 Y90.784 E21.08383
G1 X28.045 Y89.059 E21.17471
G1 X30.119 Y87.271 E21.26579
G1 X32.141 Y85.426 E21.35683
G1 X34.083 Y83.549 E21.44666
G1 X36.006 Y81.583 E21.53813
G1 X37.835 Y79.605 E21.62773
G1 X39.646 Y77.529 E21.71936
G1 X41.377 Y75.43 E21.80985
G1 X43.058 Y73.268 E21.90093
G1 X44.649 Y71.101 E21.99035
G1 X46.229 Y68.813 E22.08283
G1 X47.693 Y66.561 E22.17217
G1 X49.212 Y64.068 E22.26926
G1 X49.801 Y63.068 E22.30787
G1 X49.972 Y62.805 E22.3183
G1 X51.16 Y61.141 E22.3863
G1 X51.503 Y60.729 E22.40413
