;FLAVOR:Marlin
;TIME:2899
;Filament used: 2.77329m, 0m
;Layer height: 0.24
;MINX:17.685
;MINY:73.06
;MINZ:0.3
;MAXX:95.127
;MAXY:174.271
;MAXZ:6.82
;Generated with Cura_SteamEngine 4.3.0
T0
M140 S70
M105
M190 S70
M104 S220
M105
M109 S220
M82 ;absolute extrusion mode

G21        ;metric values
G90        ;absolute positioning
M82        ;set extruder to absolute mode
M107       ;start with the fan off
G28 X0 Y0  ;move X/Y to min endstops
G28 Z0     ;move Z to min endstops
G1 X0 Y0 Z15.0 F120 ;move the platform down 15mm
G92 E0                  ;zero the extruded length
G1 F200 E25              ;extrude 3mm of feed stock
G92 E0                  ;zero the extruded length again
G1 F120
M117 Printing...
G92 E0
G92 E0
G1 F1500 E-6.5
;LAYER_COUNT:24
;LAYER:0
M107
G1 F600 Z1.3
G0 F3600 X55.479 Y86.564 Z1.3
;TYPE:SKIRT
G1 F600 Z0.3
G1 F1500 E0
G1 F1350 X55.931 Y86.293 E0.02629
G1 X56.115 Y86.189 E0.03684
G1 X56.517 Y85.976 E0.05953
G1 X56.669 Y85.9 E0.06801
G1 X57.789 Y85.366 E0.12992
G1 X57.952 Y85.293 E0.13883
G1 X58.517 Y85.054 E0.16943
G1 X58.683 Y84.988 E0.17835
G1 X60.092 Y84.465 E0.25333
G1 X60.183 Y84.432 E0.25816
G1 X61.573 Y83.954 E0.33149
G1 X64.071 Y83.015 E0.46463
G1 X66.595 Y81.984 E0.60065
G1 X69.076 Y80.887 E0.73599
G1 X71.554 Y79.708 E0.8729
G1 X73.958 Y78.478 E1.00762
G1 X76.347 Y77.171 E1.14348
G1 X78.655 Y75.82 E1.2769
G1 X78.905 Y75.664 E1.2916
G1 X78.964 Y75.628 E1.29505
G1 X79.881 Y75.077 E1.34843
G1 X80.246 Y74.883 E1.36905
G1 X80.635 Y74.701 E1.39047
G1 X82.614 Y73.756 E1.49989
G1 X82.652 Y73.737 E1.50201
G1 X83.246 Y73.461 E1.53468
G1 X84.007 Y73.197 E1.57487
G1 X84.15 Y73.163 E1.5822
G1 X84.708 Y73.072 E1.61041
G1 X85.273 Y73.06 E1.6386
G1 X85.834 Y73.128 E1.6668
G1 X86.38 Y73.274 E1.69499
G1 X87.119 Y73.616 E1.73562
G1 X87.225 Y73.679 E1.74177
G1 X87.689 Y74.002 E1.76998
G1 X88.103 Y74.387 E1.79818
G1 X88.483 Y74.861 E1.82849
G1 X88.779 Y75.294 E1.85466
G1 X88.876 Y75.442 E1.86349
G1 X89.182 Y75.935 E1.89244
G1 X89.249 Y76.048 E1.89899
G1 X89.416 Y76.338 E1.91569
G1 X89.509 Y76.509 E1.9254
G1 X89.65 Y76.784 E1.94081
G1 X89.797 Y77.105 E1.95843
G1 X90.303 Y78.352 E2.02557
G1 X90.345 Y78.459 E2.0313
G1 X90.99 Y80.191 E2.12351
G1 X92.011 Y82.706 E2.25893
G1 X93.094 Y85.172 E2.3933
G1 X94.577 Y88.274 E2.56484
G1 X94.725 Y88.626 E2.58389
G1 X94.838 Y88.935 E2.6003
G1 X94.943 Y89.266 E2.61763
G1 X94.99 Y89.44 E2.62662
G1 X95.098 Y89.995 E2.65483
G1 X95.127 Y90.557 E2.6829
G1 X95.121 Y90.883 E2.69917
G1 X95.045 Y91.589 E2.7346
G1 X94.977 Y91.931 E2.75199
G1 X94.838 Y92.448 E2.7787
G1 X94.753 Y92.696 E2.79178
G1 X94.674 Y92.908 E2.80307
G1 X94.169 Y94.148 E2.86986
G1 X93.183 Y96.664 E3.00468
G1 X92.264 Y99.223 E3.14034
G1 X91.41 Y101.824 E3.27692
G1 X90.646 Y104.404 E3.41116
G1 X89.936 Y107.071 E3.54885
G1 X89.317 Y109.687 E3.68297
G1 X88.772 Y112.334 E3.81779
G1 X88.301 Y114.997 E3.95271
G1 X87.899 Y117.707 E4.0894
G1 X87.582 Y120.381 E4.22374
G1 X87.332 Y123.129 E4.3614
G1 X87.167 Y125.788 E4.49431
G1 X87.074 Y128.534 E4.63139
G1 X87.059 Y131.242 E4.7665
G1 X87.121 Y133.946 E4.90143
G1 X87.261 Y136.691 E5.03856
G1 X87.473 Y139.352 E5.17174
G1 X87.769 Y142.086 E5.30894
G1 X88.134 Y144.761 E5.44363
G1 X88.578 Y147.44 E5.57911
G1 X89.094 Y150.089 E5.71375
G1 X89.691 Y152.746 E5.84962
G1 X90.363 Y155.392 E5.98582
G1 X91.101 Y157.985 E6.12032
G1 X91.924 Y160.596 E6.2569
G1 X92.813 Y163.159 E6.39224
G1 X93.776 Y165.698 E6.52772
G1 X94.338 Y167.089 E6.60257
G1 X94.618 Y167.766 E6.63912
G1 X94.797 Y168.303 E6.66736
G1 X94.877 Y168.697 E6.68741
G1 X94.903 Y168.869 E6.69609
G1 X94.948 Y169.433 E6.72432
G1 X94.913 Y169.997 E6.75251
G1 X94.798 Y170.551 E6.78074
G1 X94.607 Y171.083 E6.80894
G1 X94.262 Y171.706 E6.84447
G1 X94.137 Y171.891 E6.85561
G1 X93.789 Y172.336 E6.88379
G1 X93.38 Y172.728 E6.91206
G1 X92.921 Y173.057 E6.94023
G1 X92.287 Y173.374 E6.9756
G1 X92.048 Y173.468 E6.98841
G1 X91.509 Y173.638 E7.0166
G1 X90.82 Y173.739 E7.05135
G1 X90.346 Y173.767 E7.07504
G1 X89.838 Y173.765 E7.10038
G1 X88.135 Y173.649 E7.18554
G1 X85.44 Y173.503 E7.32019
G1 X82.696 Y173.432 E7.45714
G1 X80.487 Y173.436 E7.56734
G1 X70.704 Y173.523 E8.05544
G1 X69.965 Y173.523 E8.09231
G1 X69.883 Y173.522 E8.0964
G1 X68.815 Y173.5 E8.14969
G1 X68.688 Y173.496 E8.15603
G1 X66.507 Y173.382 E8.26499
G1 X63.803 Y173.279 E8.39999
G1 X61.061 Y173.252 E8.5368
G1 X58.39 Y173.301 E8.67008
G1 X55.647 Y173.431 E8.80708
G1 X52.948 Y173.633 E8.94211
G1 X50.189 Y173.92 E9.0805
G1 X48.704 Y174.095 E9.1551
G1 X48.53 Y174.112 E9.16382
G1 X47.921 Y174.157 E9.19429
G1 X47.769 Y174.165 E9.20188
G1 X47.545 Y174.173 E9.21306
G1 X47.396 Y174.176 E9.2205
G1 X46.121 Y174.174 E9.28411
G1 X46.003 Y174.172 E9.29
G1 X45.492 Y174.156 E9.3155
G1 X42.796 Y174.109 E9.45003
G1 X40.052 Y174.14 E9.58693
G1 X38.435 Y174.204 E9.66767
G1 X38.412 Y174.205 E9.66882
G1 X36.508 Y174.269 E9.76386
G1 X36.358 Y174.271 E9.77135
G1 X35.594 Y174.268 E9.80946
G1 X35.031 Y174.226 E9.83763
G1 X34.364 Y174.069 E9.87182
G1 X33.519 Y173.792 E9.91618
G1 X33.461 Y173.772 E9.91924
G1 X33.159 Y173.668 E9.93518
G1 X32.376 Y173.408 E9.97634
G1 X31.854 Y173.193 E10.0045
G1 X31.367 Y172.905 E10.03273
G1 X30.925 Y172.552 E10.06095
G1 X30.538 Y172.141 E10.08912
G1 X30.212 Y171.679 E10.11733
G1 X30.044 Y171.369 E10.13492
G1 X29.955 Y171.187 E10.14502
G1 X29.669 Y170.408 E10.18643
G1 X29.36 Y169.182 E10.2495
G1 X29.347 Y169.128 E10.25227
G1 X29.259 Y168.759 E10.2712
G1 X28.56 Y166.154 E10.40576
G1 X27.778 Y163.538 E10.54198
G1 X26.928 Y160.962 E10.67731
G1 X25.998 Y158.391 E10.81372
G1 X25.011 Y155.887 E10.94799
G1 X23.946 Y153.394 E11.08325
G1 X22.802 Y150.913 E11.21955
G1 X21.606 Y148.498 E11.354
G1 X20.322 Y146.085 E11.49037
G1 X18.7 Y143.248 E11.6534
G1 X18.424 Y142.783 E11.68038
G1 X18.086 Y142.054 E11.72047
G1 X17.948 Y141.657 E11.74144
G1 X17.769 Y140.928 E11.77889
G1 X17.733 Y140.684 E11.79119
G1 X17.691 Y140.182 E11.81633
G1 X17.685 Y139.889 E11.83095
G1 X17.7 Y139.446 E11.85306
G1 X17.802 Y138.32 E11.90947
G1 X17.808 Y138.261 E11.91243
G1 X17.861 Y137.757 E11.93771
G1 X18.069 Y135.058 E12.07276
G1 X18.2 Y132.352 E12.20792
G1 X18.254 Y129.648 E12.34285
G1 X18.231 Y126.903 E12.47981
G1 X18.134 Y124.235 E12.613
G1 X17.95 Y121.41 E12.75424
G1 X17.876 Y120.478 E12.80089
G1 X17.871 Y119.913 E12.82907
G1 X17.928 Y119.44 E12.85284
G1 X17.958 Y119.276 E12.86116
G1 X18.099 Y118.729 E12.88934
G1 X18.316 Y118.206 E12.91759
G1 X18.604 Y117.72 E12.94578
G1 X19.005 Y117.228 E12.97744
G1 X19.213 Y117.011 E12.99244
G1 X19.632 Y116.632 E13.02063
G1 X20.219 Y116.249 E13.05559
G1 X21.123 Y115.767 E13.10671
G1 X23.495 Y114.462 E13.24177
G1 X25.864 Y113.068 E13.37891
G1 X28.134 Y111.645 E13.51257
G1 X30.406 Y110.13 E13.64881
G1 X32.616 Y108.564 E13.78394
G1 X34.796 Y106.925 E13.92001
G1 X36.903 Y105.245 E14.05445
G1 X38.992 Y103.481 E14.19086
G1 X41.021 Y101.666 E14.32668
G1 X42.971 Y99.822 E14.46058
G1 X44.912 Y97.877 E14.59766
G1 X46.766 Y95.912 E14.73245
G1 X48.565 Y93.894 E14.86732
G1 X50.322 Y91.806 E15.00347
G1 X50.775 Y91.238 E15.03971
G1 X50.796 Y91.212 E15.04138
G1 X52.108 Y89.594 E15.14531
G1 X52.204 Y89.479 E15.15278
G1 X52.658 Y88.96 E15.18718
G1 X52.753 Y88.856 E15.19421
G1 X53.185 Y88.396 E15.22569
G1 X53.348 Y88.232 E15.23723
G1 X53.66 Y87.936 E15.25869
G1 X53.771 Y87.834 E15.26621
G1 X53.995 Y87.637 E15.28109
G1 X54.156 Y87.503 E15.29154
G1 X54.371 Y87.333 E15.30521
G1 X54.567 Y87.188 E15.31738
G1 X55.251 Y86.712 E15.35895
G1 X55.479 Y86.564 E15.37251
G0 F3600 X55.685 Y86.907
G1 F1350 X56.137 Y86.636 E15.39881
G1 X56.303 Y86.543 E15.4083
G1 X56.705 Y86.33 E15.431
G1 X56.841 Y86.261 E15.4386
G1 X57.961 Y85.727 E15.50051
G1 X58.107 Y85.661 E15.5085
G1 X58.672 Y85.422 E15.53911
G1 X58.822 Y85.363 E15.54715
G1 X60.231 Y84.84 E15.62213
G1 X60.313 Y84.811 E15.62647
G1 X61.676 Y84.342 E15.69838
G1 X64.214 Y83.388 E15.83365
G1 X66.772 Y82.344 E15.97149
G1 X69.261 Y81.244 E16.10726
G1 X71.715 Y80.075 E16.24287
G1 X74.138 Y78.835 E16.37866
G1 X76.535 Y77.524 E16.51497
G1 X78.891 Y76.145 E16.65116
G1 X79.117 Y76.004 E16.66445
G1 X79.17 Y75.971 E16.66757
G1 X80.087 Y75.42 E16.72094
G1 X80.415 Y75.245 E16.73949
G1 X80.804 Y75.063 E16.76091
G1 X82.787 Y74.116 E16.87055
G1 X82.821 Y74.1 E16.87242
G1 X83.415 Y73.824 E16.9051
G1 X84.099 Y73.587 E16.94122
G1 X84.242 Y73.553 E16.94855
G1 X84.772 Y73.468 E16.97533
G1 X85.308 Y73.463 E17.00207
G1 X85.839 Y73.537 E17.02882
G1 X86.353 Y73.69 E17.05558
G1 X86.914 Y73.96 E17.08664
G1 X87.02 Y74.023 E17.09279
G1 X87.46 Y74.331 E17.11958
G1 X87.848 Y74.7 E17.1463
G1 X88.153 Y75.086 E17.17084
G1 X88.449 Y75.519 E17.19701
G1 X88.536 Y75.652 E17.20494
G1 X88.842 Y76.145 E17.23389
G1 X88.903 Y76.247 E17.23982
G1 X89.07 Y76.537 E17.25651
G1 X89.153 Y76.691 E17.26524
G1 X89.294 Y76.966 E17.28066
G1 X89.427 Y77.255 E17.29653
G1 X89.933 Y78.502 E17.36367
G1 X89.97 Y78.599 E17.36885
G1 X90.609 Y80.315 E17.4602
G1 X91.646 Y82.868 E17.59768
G1 X92.736 Y85.352 E17.73301
G1 X94.216 Y88.447 E17.90417
G1 X94.349 Y88.764 E17.92132
G1 X94.462 Y89.073 E17.93773
G1 X94.556 Y89.37 E17.95328
G1 X94.603 Y89.544 E17.96227
G1 X94.704 Y90.071 E17.98904
G1 X94.727 Y90.549 E18.01291
G1 X94.721 Y90.875 E18.02918
G1 X94.653 Y91.511 E18.06109
G1 X94.585 Y91.853 E18.07849
G1 X94.46 Y92.318 E18.10251
G1 X94.375 Y92.566 E18.11559
G1 X94.303 Y92.757 E18.12577
G1 X93.816 Y93.953 E18.1902
G1 X92.794 Y96.561 E18.32995
G1 X91.894 Y99.067 E18.46279
G1 X91.033 Y101.691 E18.60057
G1 X90.252 Y104.325 E18.73764
G1 X89.555 Y106.947 E18.87299
G1 X88.924 Y109.613 E19.00967
G1 X88.379 Y112.262 E19.1446
G1 X87.901 Y114.961 E19.28135
G1 X87.506 Y117.634 E19.41615
G1 X87.18 Y120.37 E19.55362
G1 X86.935 Y123.067 E19.68873
G1 X86.766 Y125.788 E19.82474
G1 X86.674 Y128.517 E19.96097
G1 X86.659 Y131.249 E20.09727
G1 X86.721 Y133.977 E20.2334
G1 X86.859 Y136.672 E20.36803
G1 X87.078 Y139.425 E20.50582
G1 X87.369 Y142.112 E20.64066
G1 X87.738 Y144.814 E20.77671
G1 X88.185 Y147.511 E20.9131
G1 X88.71 Y150.208 E21.05018
G1 X89.298 Y152.826 E21.18404
G1 X89.976 Y155.494 E21.32138
G1 X90.72 Y158.109 E21.45702
G1 X91.541 Y160.71 E21.5931
G1 X92.437 Y163.295 E21.72959
G1 X93.405 Y165.849 E21.86586
G1 X93.969 Y167.242 E21.94083
G1 X94.249 Y167.919 E21.97738
G1 X94.416 Y168.429 E22.00416
G1 X94.482 Y168.757 E22.02085
G1 X94.508 Y168.929 E22.02953
G1 X94.548 Y169.464 E22.05629
G1 X94.509 Y169.999 E22.08306
G1 X94.39 Y170.522 E22.10982
G1 X94.195 Y171.021 E22.13654
G1 X93.931 Y171.482 E22.16305
G1 X93.806 Y171.667 E22.17419
G1 X93.473 Y172.088 E22.20097
G1 X93.082 Y172.455 E22.22772
G1 X92.641 Y172.759 E22.25444
G1 X92.141 Y173.002 E22.28218
G1 X91.902 Y173.096 E22.29499
G1 X91.389 Y173.255 E22.32179
G1 X90.796 Y173.34 E22.35167
G1 X90.322 Y173.368 E22.37536
G1 X89.865 Y173.366 E22.39816
G1 X88.183 Y173.251 E22.48227
G1 X85.436 Y173.103 E22.61952
G1 X82.706 Y173.032 E22.75577
G1 X80.483 Y173.036 E22.86667
G1 X70.7 Y173.123 E23.35477
G1 X69.965 Y173.123 E23.39144
G1 X69.891 Y173.122 E23.39513
G1 X68.823 Y173.1 E23.44842
G1 X68.709 Y173.096 E23.45412
G1 X66.532 Y172.982 E23.56287
G1 X63.823 Y172.879 E23.69813
G1 X61.057 Y172.852 E23.83613
G1 X58.364 Y172.902 E23.97051
G1 X55.634 Y173.03 E24.10686
G1 X52.914 Y173.235 E24.24294
G1 X50.148 Y173.522 E24.38168
G1 X48.657 Y173.698 E24.45658
G1 X48.5 Y173.713 E24.46445
G1 X47.891 Y173.758 E24.49492
G1 X47.754 Y173.766 E24.50176
G1 X47.53 Y173.774 E24.51295
G1 X47.396 Y173.776 E24.51963
G1 X46.121 Y173.774 E24.58324
G1 X46.015 Y173.772 E24.58853
G1 X45.511 Y173.756 E24.61369
G1 X42.799 Y173.709 E24.74901
G1 X40.031 Y173.741 E24.88712
G1 X38.419 Y173.804 E24.9676
G1 X38.399 Y173.805 E24.9686
G1 X36.495 Y173.869 E25.06364
G1 X36.36 Y173.871 E25.07038
G1 X35.596 Y173.868 E25.1085
G1 X35.061 Y173.826 E25.13527
G1 X34.489 Y173.689 E25.16461
G1 X33.644 Y173.412 E25.20898
G1 X33.591 Y173.394 E25.21177
G1 X33.286 Y173.289 E25.22786
G1 X32.503 Y173.029 E25.26903
G1 X32.008 Y172.822 E25.29579
G1 X31.549 Y172.544 E25.32257
G1 X31.136 Y172.202 E25.34932
G1 X30.779 Y171.801 E25.3761
G1 X30.403 Y171.193 E25.41177
G1 X30.314 Y171.011 E25.42188
G1 X30.057 Y170.31 E25.45912
G1 X29.748 Y169.084 E25.5222
G1 X29.736 Y169.036 E25.52467
G1 X29.647 Y168.66 E25.54395
G1 X28.937 Y166.018 E25.68044
G1 X28.165 Y163.435 E25.81493
G1 X27.297 Y160.806 E25.95306
G1 X26.382 Y158.276 E26.08728
G1 X25.38 Y155.732 E26.22369
G1 X24.319 Y153.249 E26.35841
G1 X23.159 Y150.733 E26.49663
G1 X21.946 Y148.284 E26.63298
G1 X20.686 Y145.915 E26.76684
G1 X19.044 Y143.043 E26.93189
G1 X18.768 Y142.578 E26.95887
G1 X18.464 Y141.923 E26.9949
G1 X18.326 Y141.526 E27.01587
G1 X18.165 Y140.869 E27.04961
G1 X18.129 Y140.625 E27.06192
G1 X18.091 Y140.174 E27.0845
G1 X18.085 Y139.881 E27.09912
G1 X18.099 Y139.482 E27.11904
G1 X18.201 Y138.356 E27.17544
G1 X18.206 Y138.303 E27.1781
G1 X18.26 Y137.794 E27.20364
G1 X18.466 Y135.108 E27.33804
G1 X18.6 Y132.345 E27.47604
G1 X18.654 Y129.653 E27.61038
G1 X18.631 Y126.921 E27.74668
G1 X18.531 Y124.16 E27.88452
G1 X18.353 Y121.436 E28.02071
G1 X18.274 Y120.446 E28.07026
G1 X18.272 Y119.91 E28.097
G1 X18.322 Y119.512 E28.11701
G1 X18.352 Y119.348 E28.12533
G1 X18.487 Y118.829 E28.15208
G1 X18.698 Y118.336 E28.17884
G1 X18.98 Y117.88 E28.20559
G1 X19.294 Y117.505 E28.22999
G1 X19.502 Y117.288 E28.24498
G1 X19.901 Y116.929 E28.27176
G1 X20.407 Y116.602 E28.30182
G1 X21.311 Y116.12 E28.35293
G1 X23.696 Y114.807 E28.48876
G1 X26.073 Y113.409 E28.62634
G1 X28.363 Y111.973 E28.76119
G1 X30.613 Y110.473 E28.8961
G1 X32.882 Y108.866 E29.03482
G1 X35.019 Y107.259 E29.16821
G1 X37.17 Y105.544 E29.30546
G1 X39.251 Y103.786 E29.44137
G1 X41.279 Y101.972 E29.57712
G1 X43.264 Y100.095 E29.71341
G1 X45.186 Y98.169 E29.84916
G1 X47.055 Y96.188 E29.98504
G1 X48.87 Y94.151 E30.12115
G1 X50.636 Y92.054 E30.25793
G1 X51.087 Y91.488 E30.29404
G1 X51.107 Y91.464 E30.2956
G1 X52.419 Y89.846 E30.39952
G1 X52.505 Y89.743 E30.40622
G1 X52.959 Y89.224 E30.44062
G1 X53.045 Y89.13 E30.44697
G1 X53.477 Y88.67 E30.47846
G1 X53.623 Y88.522 E30.48883
G1 X53.935 Y88.226 E30.51028
G1 X54.036 Y88.135 E30.51707
G1 X54.26 Y87.938 E30.53195
G1 X54.404 Y87.817 E30.54133
G1 X54.619 Y87.647 E30.55501
G1 X54.796 Y87.516 E30.56599
G1 X55.48 Y87.04 E30.60757
G1 X55.685 Y86.907 E30.61976
G0 F3600 X55.891 Y87.25
G1 F1350 X56.343 Y86.979 E30.64605
G1 X56.49 Y86.896 E30.65448
G1 X56.892 Y86.683 E30.67717
G1 X57.013 Y86.623 E30.68391
G1 X58.133 Y86.089 E30.74581
G1 X58.263 Y86.03 E30.75294
G1 X58.828 Y85.791 E30.78354
G1 X58.961 Y85.738 E30.79069
G1 X60.37 Y85.215 E30.86567
G1 X60.443 Y85.189 E30.86953
G1 X61.798 Y84.723 E30.94102
G1 X64.412 Y83.741 E31.08033
G1 X66.893 Y82.727 E31.21405
G1 X69.428 Y81.606 E31.35233
G1 X71.891 Y80.434 E31.48842
G1 X74.334 Y79.185 E31.6253
G1 X76.723 Y77.877 E31.76119
G1 X79.097 Y76.488 E31.89841
G1 X79.329 Y76.343 E31.91206
G1 X79.376 Y76.314 E31.91481
G1 X80.293 Y75.763 E31.96819
G1 X80.585 Y75.608 E31.98468
G1 X80.951 Y75.437 E32.00483
G1 X80.951 Y75.436 E32.00488
G1 X82.959 Y74.477 E32.1159
G1 X82.99 Y74.463 E32.1176
G1 X83.584 Y74.187 E32.15028
G1 X84.192 Y73.976 E32.18238
G1 X84.335 Y73.942 E32.18972
G1 X84.834 Y73.864 E32.21491
G1 X85.34 Y73.866 E32.24016
G1 X85.839 Y73.948 E32.26539
G1 X86.319 Y74.107 E32.29062
G1 X86.71 Y74.304 E32.31246
G1 X86.816 Y74.367 E32.31861
G1 X87.229 Y74.659 E32.34384
G1 X87.59 Y75.012 E32.36903
G1 X87.823 Y75.312 E32.38799
G1 X88.119 Y75.745 E32.41415
G1 X88.196 Y75.863 E32.42118
G1 X88.502 Y76.356 E32.45013
G1 X88.556 Y76.447 E32.45541
G1 X88.723 Y76.737 E32.47211
G1 X88.798 Y76.874 E32.4799
G1 X88.939 Y77.149 E32.49532
G1 X89.056 Y77.406 E32.5094
G1 X89.562 Y78.653 E32.57654
G1 X89.596 Y78.738 E32.58111
G1 X90.252 Y80.498 E32.67482
G1 X91.28 Y83.03 E32.81116
G1 X92.366 Y85.505 E32.946
G1 X93.855 Y88.619 E33.1182
G1 X93.973 Y88.901 E33.13345
G1 X94.086 Y89.21 E33.14987
G1 X94.17 Y89.475 E33.16374
G1 X94.217 Y89.649 E33.17273
G1 X94.31 Y90.146 E33.19796
G1 X94.327 Y90.542 E33.21773
G1 X94.321 Y90.868 E33.234
G1 X94.261 Y91.433 E33.26234
G1 X94.193 Y91.775 E33.27974
G1 X94.081 Y92.189 E33.30114
G1 X93.996 Y92.437 E33.31422
G1 X93.933 Y92.606 E33.32322
