;FLAVOR:Marlin
;TIME:4506
;Filament used: 2.59092m, 0m
;Layer height: 0.16
;MINX:17.69
;MINY:73.061
;MINZ:0.2
;MAXX:95.122
;MAXY:174.26
;MAXZ:6.96
;Generated with Cura_SteamEngine 4.3.0
T0
M140 S80
M105
M190 S80
M104 S240
M105
M109 S240
M82 ;absolute extrusion mode

G21        ;metric values
G90        ;absolute positioning
M82        ;set extruder to absolute mode
M107       ;start with the fan off
G28 X0 Y0  ;move X/Y to min endstops
G28 Z0     ;move Z to min endstops
G1 X0 Y0 Z15.0 F120 ;move the platform down 15mm
G92 E0                  ;zero the extruded length
G1 F200 E25              ;extrude 3mm of feed stock
G92 E0                  ;zero the extruded length again
G1 F120
M117 Printing...
G92 E0
G92 E0
G1 F1500 E-6.5
;LAYER_COUNT:37
;LAYER:0
M107
G1 F600 Z1.2
G0 F3600 X55.621 Y86.487 Z1.2
;TYPE:SKIRT
G1 F600 Z0.2
G1 F1500 E0
G1 F1350 X55.851 Y86.348 E0.00894
G1 X56.229 Y86.138 E0.02332
G1 X56.341 Y86.079 E0.02753
G1 X56.745 Y85.871 E0.04264
G1 X56.856 Y85.815 E0.04678
G1 X57.652 Y85.436 E0.0761
G1 X57.77 Y85.383 E0.0804
G1 X58.168 Y85.209 E0.09485
G1 X58.242 Y85.177 E0.09753
G1 X58.571 Y85.041 E0.10937
G1 X58.701 Y84.99 E0.11402
G1 X60.023 Y84.497 E0.16095
G1 X60.122 Y84.462 E0.16444
G1 X61.648 Y83.938 E0.2181
G1 X64.177 Y82.985 E0.30799
G1 X66.69 Y81.957 E0.3983
G1 X69.186 Y80.852 E0.48909
G1 X71.635 Y79.685 E0.57932
G1 X74.051 Y78.447 E0.66961
G1 X76.422 Y77.148 E0.75953
G1 X79.978 Y75.032 E0.89716
G1 X80.312 Y74.854 E0.90974
G1 X80.975 Y74.54 E0.93414
G1 X81.022 Y74.518 E0.93587
G1 X82.263 Y73.95 E0.98126
G1 X82.942 Y73.62 E1.00637
G1 X83.132 Y73.533 E1.01332
G1 X83.506 Y73.375 E1.02683
G1 X84.041 Y73.193 E1.04562
G1 X84.597 Y73.087 E1.06445
G1 X85.162 Y73.061 E1.08326
G1 X85.724 Y73.115 E1.10204
G1 X86.274 Y73.248 E1.12086
G1 X86.799 Y73.456 E1.13964
G1 X87.112 Y73.625 E1.15147
G1 X87.226 Y73.693 E1.15589
G1 X87.69 Y74.016 E1.17469
G1 X88.104 Y74.401 E1.19349
G1 X88.474 Y74.863 E1.21318
G1 X88.678 Y75.16 E1.22516
G1 X88.756 Y75.278 E1.22987
G1 X89.095 Y75.811 E1.25088
G1 X89.192 Y75.971 E1.2571
G1 X89.469 Y76.455 E1.27565
G1 X89.61 Y76.727 E1.28584
G1 X89.873 Y77.281 E1.30624
G1 X90.007 Y77.595 E1.31759
G1 X90.277 Y78.317 E1.34323
G1 X90.276 Y78.317 E1.34326
G1 X91.248 Y80.865 E1.43397
G1 X92.296 Y83.394 E1.52502
G1 X93.398 Y85.853 E1.61464
G1 X94.04 Y87.186 E1.66385
G1 X94.047 Y87.201 E1.6644
G1 X94.654 Y88.475 E1.71134
G1 X94.861 Y89.002 E1.73017
G1 X94.943 Y89.309 E1.74074
G1 X95.016 Y89.63 E1.75169
G1 X95.112 Y90.341 E1.77555
G1 X95.122 Y90.568 E1.78311
G1 X95.083 Y91.332 E1.80855
G1 X95.038 Y91.635 E1.81874
G1 X94.876 Y92.312 E1.84189
G1 X94.793 Y92.561 E1.85062
G1 X94.695 Y92.823 E1.85993
G1 X94.362 Y93.629 E1.88893
G1 X93.367 Y96.129 E1.97843
G1 X92.419 Y98.722 E2.07025
G1 X91.566 Y101.273 E2.15972
G1 X90.78 Y103.874 E2.25009
G1 X90.054 Y106.538 E2.34193
G1 X89.419 Y109.161 E2.43169
G1 X88.867 Y111.772 E2.52045
G1 X88.373 Y114.469 E2.61165
G1 X87.959 Y117.168 E2.70247
G1 X87.626 Y119.83 E2.79169
G1 X87.364 Y122.558 E2.88284
G1 X87.181 Y125.26 E2.97292
G1 X87.074 Y127.965 E3.06296
G1 X87.043 Y130.71 E3.15426
G1 X87.09 Y133.381 E3.24312
G1 X87.215 Y136.126 E3.33451
G1 X87.414 Y138.823 E3.42446
G1 X87.69 Y141.515 E3.51446
G1 X88.042 Y144.203 E3.60463
G1 X88.472 Y146.888 E3.69507
G1 X88.979 Y149.57 E3.78585
G1 X89.554 Y152.204 E3.87552
G1 X90.212 Y154.852 E3.96627
G1 X90.942 Y157.474 E4.0568
G1 X91.741 Y160.058 E4.14676
G1 X92.62 Y162.636 E4.23735
G1 X93.557 Y165.152 E4.32665
G1 X94.093 Y166.456 E4.37354
G1 X94.113 Y166.507 E4.37536
G1 X94.633 Y167.824 E4.42246
G1 X94.803 Y168.363 E4.44125
G1 X94.888 Y168.849 E4.45766
G1 X94.909 Y169.037 E4.46396
G1 X94.932 Y169.602 E4.48276
G1 X94.875 Y170.164 E4.50155
G1 X94.74 Y170.713 E4.52035
G1 X94.528 Y171.237 E4.53916
G1 X94.146 Y171.865 E4.5636
G1 X94.025 Y172.028 E4.57036
G1 X93.657 Y172.457 E4.58915
G1 X93.232 Y172.83 E4.60796
G1 X92.758 Y173.139 E4.62678
G1 X92.301 Y173.357 E4.64362
G1 X92.044 Y173.46 E4.65283
G1 X91.506 Y173.633 E4.67163
G1 X90.789 Y173.74 E4.69574
G1 X90.566 Y173.753 E4.70317
G1 X90.37 Y173.76 E4.70969
G1 X90.05 Y173.763 E4.72033
G1 X89.734 Y173.753 E4.73085
G1 X88.304 Y173.653 E4.77853
G1 X85.548 Y173.5 E4.87033
G1 X82.8 Y173.425 E4.96177
G1 X80.501 Y173.423 E5.03823
G1 X70.158 Y173.512 E5.38225
G1 X70.048 Y173.511 E5.38591
G1 X68.728 Y173.486 E5.42982
G1 X68.596 Y173.482 E5.43422
G1 X66.488 Y173.372 E5.50442
G1 X63.783 Y173.269 E5.59446
G1 X61.041 Y173.241 E5.68566
G1 X58.368 Y173.291 E5.77458
G1 X55.628 Y173.419 E5.86581
G1 X52.91 Y173.623 E5.95647
G1 X50.026 Y173.925 E6.05292
G1 X48.708 Y174.083 E6.09707
G1 X48.602 Y174.094 E6.10061
G1 X48.311 Y174.121 E6.11033
G1 X48.202 Y174.13 E6.11397
G1 X47.865 Y174.152 E6.1252
G1 X47.75 Y174.157 E6.12903
G1 X47.504 Y174.166 E6.13722
G1 X47.354 Y174.169 E6.14221
G1 X46.227 Y174.168 E6.17969
G1 X46.109 Y174.166 E6.18362
G1 X45.36 Y174.143 E6.20854
G1 X42.667 Y174.099 E6.29812
G1 X39.924 Y174.132 E6.38936
G1 X38.144 Y174.195 E6.4486
G1 X36.945 Y174.248 E6.48852
G1 X36.828 Y174.252 E6.49241
G1 X36.367 Y174.259 E6.50775
G1 X36.312 Y174.259 E6.50958
G1 X35.617 Y174.26 E6.53269
G1 X35.053 Y174.221 E6.5515
G1 X34.397 Y174.071 E6.57388
G1 X33.637 Y173.829 E6.60041
G1 X33.588 Y173.813 E6.60212
G1 X33.092 Y173.648 E6.61951
G1 X33.045 Y173.632 E6.62116
G1 X32.338 Y173.387 E6.64605
G1 X31.819 Y173.165 E6.66482
G1 X31.335 Y172.872 E6.68364
G1 X30.898 Y172.513 E6.70245
G1 X30.374 Y171.906 E6.72912
G1 X30.294 Y171.792 E6.73375
G1 X30.003 Y171.307 E6.75256
G1 X29.783 Y170.786 E6.77137
G1 X29.68 Y170.435 E6.78354
G1 X29.505 Y169.71 E6.80835
G1 X28.807 Y167.01 E6.9011
G1 X28.063 Y164.432 E6.99035
G1 X27.226 Y161.817 E7.08167
G1 X26.335 Y159.276 E7.17123
G1 X25.353 Y156.716 E7.26242
G1 X24.331 Y154.261 E7.35087
G1 X23.19 Y151.723 E7.44342
G1 X22.03 Y149.326 E7.53199
G1 X20.771 Y146.903 E7.62281
G1 X19.438 Y144.504 E7.71409
G1 X18.503 Y142.914 E7.77544
G1 X18.35 Y142.627 E7.78626
G1 X18.218 Y142.354 E7.79634
G1 X18.018 Y141.859 E7.8141
G1 X17.939 Y141.618 E7.82254
G1 X17.802 Y141.075 E7.84116
G1 X17.757 Y140.823 E7.84968
G1 X17.698 Y140.269 E7.86821
G1 X17.69 Y140.054 E7.87536
G1 X17.705 Y139.522 E7.89306
G1 X17.823 Y138.296 E7.93403
G1 X18.048 Y135.59 E8.02434
G1 X18.194 Y132.893 E8.11418
G1 X18.265 Y130.151 E8.20541
G1 X18.258 Y127.44 E8.29557
G1 X18.176 Y124.735 E8.38558
G1 X18.014 Y121.997 E8.47681
G1 X17.904 Y120.625 E8.52259
G1 X17.892 Y120.239 E8.53543
G1 X17.897 Y119.94 E8.54538
G1 X17.946 Y119.377 E8.56418
G1 X18.074 Y118.826 E8.58299
G1 X18.279 Y118.299 E8.6018
G1 X18.556 Y117.806 E8.62061
G1 X18.939 Y117.313 E8.64137
G1 X19.093 Y117.144 E8.64897
G1 X19.503 Y116.754 E8.66779
G1 X19.759 Y116.559 E8.6785
G1 X19.925 Y116.443 E8.68523
G1 X20.327 Y116.196 E8.70093
G1 X21.195 Y115.731 E8.73368
G1 X22.836 Y114.839 E8.7958
G1 X25.199 Y113.476 E8.88653
G1 X27.535 Y112.039 E8.97775
G1 X29.793 Y110.562 E9.06749
G1 X32.002 Y109.023 E9.15704
G1 X34.195 Y107.404 E9.2477
G1 X36.338 Y105.724 E9.33827
G1 X38.42 Y103.996 E9.42826
G1 X40.481 Y102.184 E9.51953
G1 X42.448 Y100.355 E9.60887
G1 X44.388 Y98.444 E9.69944
G1 X46.274 Y96.48 E9.79001
G1 X48.095 Y94.47 E9.88021
G1 X49.87 Y92.398 E9.97096
G1 X52.089 Y89.63 E10.08895
G1 X52.195 Y89.503 E10.09446
G1 X52.48 Y89.176 E10.10888
G1 X52.546 Y89.101 E10.11221
G1 X52.919 Y88.694 E10.13057
G1 X52.985 Y88.625 E10.13374
G1 X53.185 Y88.417 E10.14334
G1 X53.254 Y88.346 E10.14663
G1 X53.454 Y88.148 E10.156
G1 X53.638 Y87.977 E10.16435
G1 X54.22 Y87.469 E10.19004
G1 X54.482 Y87.259 E10.20121
G1 X54.791 Y87.032 E10.21396
G1 X54.986 Y86.898 E10.22183
G1 X55.621 Y86.487 E10.24699
G0 F3600 X55.838 Y86.823
G1 F1350 X56.046 Y86.698 E10.25506
G1 X56.424 Y86.488 E10.26945
G1 X56.524 Y86.434 E10.27323
G1 X56.928 Y86.226 E10.28834
G1 X57.028 Y86.177 E10.29204
G1 X57.824 Y85.798 E10.32137
G1 X57.93 Y85.749 E10.32525
G1 X58.328 Y85.575 E10.3397
G1 X58.395 Y85.547 E10.34211
G1 X58.724 Y85.411 E10.35395
G1 X58.841 Y85.365 E10.35813
G1 X60.163 Y84.872 E10.40506
G1 X60.252 Y84.84 E10.40821
G1 X61.783 Y84.314 E10.46205
G1 X64.334 Y83.353 E10.55272
G1 X66.855 Y82.322 E10.64331
G1 X69.342 Y81.221 E10.73377
G1 X71.825 Y80.037 E10.82526
G1 X74.247 Y78.796 E10.91578
G1 X76.597 Y77.509 E11.00489
G1 X80.183 Y75.375 E11.14368
G1 X80.483 Y75.215 E11.15499
G1 X81.146 Y74.901 E11.17939
G1 X81.188 Y74.882 E11.18093
G1 X82.425 Y74.315 E11.22618
G1 X83.116 Y73.98 E11.25173
G1 X83.288 Y73.902 E11.25801
G1 X83.662 Y73.744 E11.27151
G1 X84.17 Y73.572 E11.28935
G1 X84.698 Y73.479 E11.30718
G1 X85.234 Y73.464 E11.32502
G1 X85.767 Y73.529 E11.34287
G1 X86.283 Y73.673 E11.36069
G1 X86.907 Y73.968 E11.38365
G1 X87.021 Y74.036 E11.38806
G1 X87.46 Y74.345 E11.40592
G1 X87.848 Y74.715 E11.42375
G1 X88.144 Y75.09 E11.43964
G1 X88.348 Y75.387 E11.45163
G1 X88.419 Y75.493 E11.45587
G1 X88.758 Y76.026 E11.47688
G1 X88.844 Y76.17 E11.48246
G1 X89.121 Y76.654 E11.50101
G1 X89.249 Y76.898 E11.51017
G1 X89.512 Y77.452 E11.53057
G1 X89.632 Y77.735 E11.54079
G1 X89.894 Y78.435 E11.56565
G1 X90.886 Y81.036 E11.65824
G1 X91.933 Y83.563 E11.74921
G1 X93.044 Y86.042 E11.83957
G1 X93.679 Y87.36 E11.88823
G1 X93.686 Y87.374 E11.88875
G1 X94.293 Y88.648 E11.93569
G1 X94.553 Y89.398 E11.96209
G1 X94.626 Y89.719 E11.97304
G1 X94.713 Y90.359 E11.99452
G1 X94.723 Y90.586 E12.00208
G1 X94.687 Y91.273 E12.02496
G1 X94.642 Y91.576 E12.03515
G1 X94.496 Y92.185 E12.05597
G1 X94.413 Y92.434 E12.0647
G1 X94.325 Y92.671 E12.07311
G1 X93.992 Y93.477 E12.10212
G1 X92.98 Y96.022 E12.19321
G1 X92.043 Y98.584 E12.28394
G1 X91.187 Y101.146 E12.37379
G1 X90.397 Y103.758 E12.46455
G1 X89.674 Y106.411 E12.55601
G1 X89.026 Y109.089 E12.64765
G1 X88.468 Y111.723 E12.7372
G1 X87.977 Y114.407 E12.82795
G1 X87.566 Y117.089 E12.9182
G1 X87.225 Y119.814 E13.00954
G1 X86.967 Y122.494 E13.09909
G1 X86.78 Y125.253 E13.19106
G1 X86.675 Y127.944 E13.28063
G1 X86.643 Y130.699 E13.37227
G1 X86.69 Y133.406 E13.46232
G1 X86.815 Y136.137 E13.55325
G1 X87.015 Y138.857 E13.64396
G1 X87.294 Y141.575 E13.73484
G1 X87.644 Y144.247 E13.82447
G1 X88.083 Y146.989 E13.91683
G1 X88.581 Y149.624 E14.00602
G1 X89.163 Y152.288 E14.09671
G1 X89.824 Y154.951 E14.18797
G1 X90.558 Y157.585 E14.27892
G1 X91.357 Y160.168 E14.36884
G1 X92.25 Y162.788 E14.46091
G1 X93.186 Y165.3 E14.55007
G1 X93.723 Y166.608 E14.5971
G1 X93.741 Y166.654 E14.59874
G1 X94.261 Y167.971 E14.64584
G1 X94.421 Y168.483 E14.66368
G1 X94.491 Y168.893 E14.67751
G1 X94.512 Y169.081 E14.6838
G1 X94.531 Y169.617 E14.70164
G1 X94.471 Y170.15 E14.71948
G1 X94.333 Y170.668 E14.73731
G1 X94.119 Y171.16 E14.75516
G1 X93.825 Y171.627 E14.77351
G1 X93.704 Y171.79 E14.78026
G1 X93.353 Y172.195 E14.79809
G1 X92.946 Y172.544 E14.81592
G1 X92.491 Y172.829 E14.83378
G1 X92.152 Y172.986 E14.8462
G1 X91.895 Y173.089 E14.85541
G1 X91.384 Y173.25 E14.87323
G1 X90.766 Y173.341 E14.89401
G1 X90.543 Y173.354 E14.90144
G1 X90.367 Y173.36 E14.90729
G1 X90.047 Y173.363 E14.91794
G1 X89.762 Y173.354 E14.92742
G1 X88.286 Y173.251 E14.97663
G1 X85.58 Y173.1 E15.06677
G1 X82.811 Y173.025 E15.1589
G1 X80.498 Y173.023 E15.23584
G1 X70.155 Y173.112 E15.57986
G1 X70.056 Y173.111 E15.58315
G1 X68.736 Y173.086 E15.62706
G1 X68.616 Y173.082 E15.63106
G1 X66.512 Y172.972 E15.70113
G1 X63.804 Y172.869 E15.79126
G1 X61.037 Y172.841 E15.8833
G1 X58.342 Y172.891 E15.97295
G1 X55.616 Y173.018 E16.06372
G1 X52.872 Y173.224 E16.15524
G1 X49.948 Y173.531 E16.25303
G1 X48.66 Y173.685 E16.29617
G1 X48.565 Y173.696 E16.29935
G1 X48.274 Y173.723 E16.30907
G1 X48.176 Y173.73 E16.31234
G1 X47.839 Y173.752 E16.32357
G1 X47.736 Y173.758 E16.327
G1 X47.49 Y173.767 E16.33519
G1 X47.355 Y173.769 E16.33968
G1 X46.228 Y173.768 E16.37717
G1 X46.121 Y173.766 E16.38073
G1 X45.418 Y173.745 E16.40412
G1 X42.633 Y173.7 E16.49676
G1 X39.905 Y173.733 E16.5875
G1 X38.13 Y173.795 E16.64657
G1 X38.13 Y173.794 E16.64661
G1 X36.927 Y173.848 E16.68666
G1 X36.822 Y173.852 E16.69015
G1 X36.361 Y173.859 E16.70549
G1 X36.311 Y173.859 E16.70715
G1 X35.616 Y173.86 E16.73027
G1 X35.081 Y173.821 E16.74811
G1 X34.519 Y173.69 E16.7673
G1 X33.759 Y173.448 E16.79383
G1 X33.715 Y173.434 E16.79536
G1 X33.219 Y173.269 E16.81275
G1 X33.176 Y173.255 E16.81425
G1 X32.469 Y173.01 E16.83914
G1 X31.977 Y172.797 E16.85697
G1 X31.522 Y172.513 E16.87481
G1 X31.114 Y172.165 E16.89265
G1 X30.701 Y171.676 E16.91394
G1 X30.621 Y171.562 E16.91857
G1 X30.347 Y171.101 E16.93641
G1 X30.144 Y170.605 E16.95423
G1 X30.069 Y170.341 E16.96336
G1 X29.879 Y169.556 E16.99022
G1 X29.202 Y166.937 E17.08019
G1 X28.442 Y164.304 E17.17134
G1 X27.609 Y161.699 E17.26231
G1 X26.703 Y159.118 E17.35329
G1 X25.732 Y156.585 E17.44351
G1 X24.694 Y154.092 E17.53333
G1 X23.557 Y151.563 E17.62556
G1 X22.387 Y149.146 E17.71487
G1 X21.11 Y146.688 E17.807
G1 X19.793 Y144.318 E17.89718
G1 X18.848 Y142.711 E17.95918
G1 X18.71 Y142.453 E17.96891
G1 X18.578 Y142.18 E17.979
G1 X18.398 Y141.734 E17.995
G1 X18.319 Y141.493 E18.00343
G1 X18.196 Y141.005 E18.02017
G1 X18.151 Y140.753 E18.02868
G1 X18.097 Y140.254 E18.04538
G1 X18.089 Y140.039 E18.05253
G1 X18.104 Y139.56 E18.06847
G1 X18.217 Y138.381 E18.10787
G1 X18.447 Y135.611 E18.20031
G1 X18.594 Y132.889 E18.29098
G1 X18.665 Y130.16 E18.38178
G1 X18.658 Y127.426 E18.47271
G1 X18.576 Y124.736 E18.56222
G1 X18.414 Y121.987 E18.65381
G1 X18.302 Y120.593 E18.70033
G1 X18.292 Y120.246 E18.71187
G1 X18.297 Y119.947 E18.72182
G1 X18.345 Y119.413 E18.73965
G1 X18.473 Y118.892 E18.7575
G1 X18.677 Y118.396 E18.77533
G1 X18.952 Y117.935 E18.79319
G1 X19.235 Y117.582 E18.80824
G1 X19.389 Y117.413 E18.81584
G1 X19.988 Y116.887 E18.84235
G1 X20.154 Y116.771 E18.84909
G1 X20.516 Y116.549 E18.86321
G1 X21.364 Y116.095 E18.89521
G1 X21.364 Y116.094 E18.89524
G1 X23.063 Y115.17 E18.95957
G1 X25.403 Y113.821 E19.0494
G1 X27.743 Y112.382 E19.14077
G1 X29.994 Y110.908 E19.23026
G1 X32.246 Y109.34 E19.32153
G1 X34.45 Y107.712 E19.41266
G1 X36.595 Y106.032 E19.50329
G1 X38.695 Y104.289 E19.59406
G1 X40.716 Y102.511 E19.68358
G1 X42.736 Y100.634 E19.7753
G1 X44.656 Y98.741 E19.86498
G1 X46.575 Y96.743 E19.95712
G1 X48.399 Y94.73 E20.04747
G1 X50.174 Y92.659 E20.13819
G1 X52.401 Y89.88 E20.25663
G1 X52.496 Y89.766 E20.26157
G1 X52.781 Y89.439 E20.276
G1 X52.841 Y89.372 E20.27899
G1 X53.214 Y88.965 E20.29735
G1 X53.273 Y88.902 E20.30022
G1 X53.473 Y88.694 E20.30982
G1 X53.535 Y88.631 E20.31276
G1 X53.735 Y88.433 E20.32212
G1 X53.901 Y88.279 E20.32965
G1 X54.483 Y87.771 E20.35534
G1 X54.719 Y87.582 E20.3654
G1 X55.028 Y87.355 E20.37815
G1 X55.203 Y87.234 E20.38523
G1 X55.838 Y86.823 E20.41039
G0 F3600 X56.055 Y87.159
G1 F1350 X56.24 Y87.048 E20.41756
G1 X56.618 Y86.838 E20.43194
G1 X56.707 Y86.79 E20.43531
G1 X57.111 Y86.582 E20.45042
G1 X57.2 Y86.538 E20.45372
G1 X57.996 Y86.159 E20.48305
G1 X58.09 Y86.116 E20.48648
G1 X58.488 Y85.942 E20.50093
G1 X58.548 Y85.917 E20.50309
G1 X58.877 Y85.781 E20.51493
G1 X58.981 Y85.74 E20.51865
G1 X60.303 Y85.247 E20.56558
G1 X60.382 Y85.219 E20.56837
G1 X61.917 Y84.692 E20.62235
G1 X64.447 Y83.739 E20.71227
G1 X67.032 Y82.681 E20.80517
G1 X69.497 Y81.59 E20.89482
G1 X72.001 Y80.397 E20.98708
G1 X74.414 Y79.16 E21.07727
G1 X76.813 Y77.846 E21.16824
G1 X80.387 Y75.719 E21.30657
G1 X80.654 Y75.577 E21.31663
G1 X81.317 Y75.263 E21.34103
G1 X81.355 Y75.246 E21.34241
G1 X82.56 Y74.694 E21.3865
G1 X83.291 Y74.339 E21.41353
G1 X83.444 Y74.27 E21.41911
G1 X83.818 Y74.112 E21.43261
G1 X84.297 Y73.953 E21.4494
G1 X84.796 Y73.871 E21.46622
G1 X85.302 Y73.869 E21.48305
G1 X85.802 Y73.946 E21.49987
G1 X86.283 Y74.102 E21.51669
G1 X86.702 Y74.312 E21.53228
G1 X86.816 Y74.38 E21.5367
G1 X87.229 Y74.672 E21.55352
G1 X87.59 Y75.026 E21.57033
G1 X87.815 Y75.316 E21.58254
G1 X88.019 Y75.613 E21.59453
G1 X88.081 Y75.708 E21.5983
G1 X88.42 Y76.241 E21.61931
G1 X88.497 Y76.369 E21.62428
G1 X88.774 Y76.853 E21.64283
G1 X88.888 Y77.07 E21.65098
G1 X89.151 Y77.624 E21.67138
G1 X89.257 Y77.875 E21.68044
G1 X89.52 Y78.578 E21.7054
G1 X90.514 Y81.184 E21.79817
G1 X91.561 Y83.711 E21.88915
G1 X92.67 Y86.186 E21.97935
G1 X93.319 Y87.533 E22.02908
G1 X93.325 Y87.546 E22.02956
G1 X93.932 Y88.82 E22.07649
