;FLAVOR:Marlin
;TIME:3015
;Filament used: 2.93556m, 0m
;Layer height: 0.24
;MINX:35.044
;MINY:85.544
;MINZ:0.3
;MAXX:73.956
;MAXY:124.456
;MAXZ:39.9
;Generated with Cura_SteamEngine 4.2.1
T0
M140 S70
M105
M190 S70
M104 S220
M105
M109 S220
M82 ;absolute extrusion mode

G21        ;metric values
G90        ;absolute positioning
M82        ;set extruder to absolute mode
M107       ;start with the fan off
G28 X0 Y0  ;move X/Y to min endstops
G28 Z0     ;move Z to min endstops
G1 X0 Y0 Z15.0 F120 ;move the platform down 15mm
G92 E0                  ;zero the extruded length
G1 F200 E25              ;extrude 3mm of feed stock
G92 E0                  ;zero the extruded length again
G1 F120
M117 Printing...
G92 E0
G92 E0
G1 F1500 E-6.5
;LAYER_COUNT:166
;LAYER:0
M107
G0 F3600 X45.493 Y87.755 Z0.3
;TYPE:SKIRT
G1 F1500 E0
G1 F1350 X45.642 Y87.678 E0.00837
G1 X46.261 Y87.375 E0.04275
G1 X46.422 Y87.301 E0.05159
G1 X47.028 Y87.037 E0.08457
G1 X47.187 Y86.972 E0.09314
G1 X47.817 Y86.729 E0.12683
G1 X47.986 Y86.668 E0.13579
G1 X48.631 Y86.452 E0.16973
G1 X48.788 Y86.403 E0.17793
G1 X49.423 Y86.219 E0.21091
G1 X49.605 Y86.171 E0.22031
G1 X50.29 Y86.007 E0.25545
G1 X50.451 Y85.972 E0.26367
G1 X51.078 Y85.849 E0.29554
G1 X51.252 Y85.819 E0.30435
G1 X51.936 Y85.716 E0.33886
G1 X52.108 Y85.694 E0.34751
G1 X52.643 Y85.637 E0.37436
G1 X52.843 Y85.62 E0.38437
G1 X53.983 Y85.556 E0.44133
G1 X54.128 Y85.551 E0.44857
G1 X54.482 Y85.544 E0.46624
G1 X54.66 Y85.544 E0.47512
G1 X55.308 Y85.56 E0.50746
G1 X55.481 Y85.568 E0.5161
G1 X56.17 Y85.615 E0.55055
G1 X56.345 Y85.631 E0.55932
G1 X57.03 Y85.708 E0.59371
G1 X57.207 Y85.732 E0.60262
G1 X57.834 Y85.831 E0.63429
G1 X58.005 Y85.862 E0.64296
G1 X58.695 Y86.002 E0.67808
G1 X58.86 Y86.039 E0.68652
G1 X59.333 Y86.156 E0.71083
G1 X59.532 Y86.211 E0.72113
G1 X60.731 Y86.574 E0.78363
G1 X60.864 Y86.616 E0.79059
G1 X61.119 Y86.703 E0.80403
G1 X61.296 Y86.769 E0.81345
G1 X61.762 Y86.953 E0.83845
G1 X61.945 Y87.03 E0.84835
G1 X63.076 Y87.543 E0.91031
G1 X63.189 Y87.597 E0.91656
G1 X63.435 Y87.718 E0.93024
G1 X63.601 Y87.804 E0.93957
G1 X64.207 Y88.138 E0.97409
G1 X64.368 Y88.231 E0.98336
G1 X64.932 Y88.577 E1.01638
G1 X65.066 Y88.664 E1.02435
G1 X65.499 Y88.954 E1.05035
G1 X65.676 Y89.079 E1.06116
G1 X66.658 Y89.817 E1.12244
G1 X66.756 Y89.893 E1.12863
G1 X66.957 Y90.054 E1.14148
G1 X67.106 Y90.18 E1.15121
G1 X67.617 Y90.632 E1.18525
G1 X67.742 Y90.747 E1.19372
G1 X68.257 Y91.243 E1.22939
G1 X68.38 Y91.367 E1.23811
G1 X68.694 Y91.697 E1.26083
G1 X68.833 Y91.851 E1.27118
G1 X69.653 Y92.808 E1.33406
G1 X69.734 Y92.906 E1.3404
G1 X69.922 Y93.14 E1.35538
G1 X70.039 Y93.293 E1.36499
G1 X70.428 Y93.828 E1.39799
G1 X70.524 Y93.965 E1.40633
G1 X70.883 Y94.505 E1.43868
G1 X70.977 Y94.654 E1.44747
G1 X71.336 Y95.249 E1.48214
G1 X71.427 Y95.407 E1.49124
G1 X71.745 Y95.993 E1.5245
G1 X71.822 Y96.142 E1.53287
G1 X72.125 Y96.761 E1.56725
G1 X72.198 Y96.921 E1.57603
G1 X72.461 Y97.524 E1.60885
G1 X72.527 Y97.684 E1.61748
G1 X72.771 Y98.317 E1.65133
G1 X72.831 Y98.484 E1.66018
G1 X73.047 Y99.128 E1.69407
G1 X73.097 Y99.288 E1.70243
G1 X73.281 Y99.924 E1.73546
G1 X73.329 Y100.105 E1.74481
G1 X73.493 Y100.79 E1.77995
G1 X73.528 Y100.951 E1.78817
G1 X73.651 Y101.578 E1.82004
G1 X73.681 Y101.749 E1.82871
G1 X73.783 Y102.423 E1.86271
G1 X73.806 Y102.599 E1.87157
G1 X73.864 Y103.144 E1.89891
G1 X73.88 Y103.342 E1.90882
G1 X73.944 Y104.48 E1.96569
G1 X73.949 Y104.626 E1.97298
G1 X73.956 Y104.982 E1.99074
G1 X73.956 Y105.155 E1.99937
G1 X73.941 Y105.79 E2.03106
G1 X73.933 Y105.968 E2.03995
G1 X73.885 Y106.671 E2.07511
G1 X73.869 Y106.847 E2.08392
G1 X73.792 Y107.53 E2.11821
G1 X73.768 Y107.704 E2.12698
G1 X73.669 Y108.333 E2.15874
G1 X73.638 Y108.506 E2.16751
G1 X73.498 Y109.196 E2.20264
G1 X73.461 Y109.359 E2.21098
G1 X73.345 Y109.829 E2.23513
G1 X73.29 Y110.031 E2.24557
G1 X72.926 Y111.232 E2.30818
G1 X72.884 Y111.364 E2.31509
G1 X72.797 Y111.619 E2.32854
G1 X72.731 Y111.796 E2.33796
G1 X72.547 Y112.262 E2.36296
G1 X72.47 Y112.445 E2.37286
G1 X71.957 Y113.576 E2.43482
G1 X71.903 Y113.689 E2.44107
G1 X71.782 Y113.935 E2.45475
G1 X71.697 Y114.099 E2.46396
G1 X71.364 Y114.704 E2.49842
G1 X71.268 Y114.868 E2.5079
G1 X70.921 Y115.433 E2.54098
G1 X70.836 Y115.566 E2.54885
G1 X70.546 Y115.999 E2.57485
G1 X70.421 Y116.176 E2.58566
G1 X69.683 Y117.158 E2.64695
G1 X69.608 Y117.254 E2.65302
G1 X69.452 Y117.449 E2.66548
G1 X69.326 Y117.599 E2.67526
G1 X68.869 Y118.116 E2.70968
G1 X68.753 Y118.242 E2.71823
G1 X68.257 Y118.757 E2.7539
G1 X68.133 Y118.88 E2.76261
G1 X67.803 Y119.194 E2.78534
G1 X67.649 Y119.333 E2.79569
G1 X66.692 Y120.153 E2.85856
G1 X66.594 Y120.234 E2.86491
G1 X66.36 Y120.422 E2.87988
G1 X66.209 Y120.538 E2.88938
G1 X65.672 Y120.929 E2.92252
G1 X65.531 Y121.027 E2.93109
G1 X64.989 Y121.387 E2.96355
G1 X64.84 Y121.481 E2.97234
G1 X64.249 Y121.837 E3.00676
G1 X64.093 Y121.927 E3.01574
G1 X63.507 Y122.245 E3.04901
G1 X63.358 Y122.322 E3.05738
G1 X62.739 Y122.625 E3.09176
G1 X62.579 Y122.698 E3.10053
G1 X61.976 Y122.961 E3.13335
G1 X61.816 Y123.027 E3.14199
G1 X61.183 Y123.271 E3.17583
G1 X61.014 Y123.332 E3.1848
G1 X60.369 Y123.548 E3.21873
G1 X60.212 Y123.597 E3.22694
G1 X59.577 Y123.781 E3.25992
G1 X59.395 Y123.829 E3.26931
G1 X58.71 Y123.993 E3.30445
G1 X58.549 Y124.028 E3.31267
G1 X57.922 Y124.151 E3.34455
G1 X57.748 Y124.181 E3.35336
G1 X57.064 Y124.284 E3.38787
G1 X56.892 Y124.306 E3.39652
G1 X56.357 Y124.363 E3.42336
G1 X56.157 Y124.38 E3.43338
G1 X55.017 Y124.444 E3.49034
G1 X54.872 Y124.449 E3.49758
G1 X54.518 Y124.456 E3.51524
G1 X54.34 Y124.456 E3.52412
G1 X53.693 Y124.44 E3.55641
G1 X53.521 Y124.432 E3.565
G1 X52.83 Y124.385 E3.59956
G1 X52.653 Y124.369 E3.60842
G1 X51.97 Y124.292 E3.64271
G1 X51.796 Y124.268 E3.65148
G1 X51.167 Y124.169 E3.68325
G1 X50.994 Y124.138 E3.69201
G1 X50.304 Y123.998 E3.72714
G1 X50.141 Y123.961 E3.73548
G1 X49.671 Y123.845 E3.75963
G1 X49.469 Y123.79 E3.77007
G1 X48.268 Y123.426 E3.83268
G1 X48.136 Y123.384 E3.8396
G1 X47.881 Y123.297 E3.85304
G1 X47.704 Y123.231 E3.86246
G1 X47.238 Y123.047 E3.88746
G1 X47.054 Y122.97 E3.89741
G1 X45.921 Y122.456 E3.95948
G1 X45.809 Y122.402 E3.96568
G1 X45.565 Y122.282 E3.97925
G1 X45.399 Y122.196 E3.98858
G1 X44.793 Y121.862 E4.0231
G1 X44.632 Y121.769 E4.03237
G1 X44.068 Y121.423 E4.06538
G1 X43.934 Y121.336 E4.07335
G1 X43.501 Y121.046 E4.09935
G1 X43.324 Y120.921 E4.11017
G1 X42.342 Y120.183 E4.17145
G1 X42.242 Y120.105 E4.17778
G1 X42.04 Y119.943 E4.1907
G1 X41.893 Y119.819 E4.20029
G1 X41.383 Y119.368 E4.23426
G1 X41.258 Y119.253 E4.24273
G1 X40.742 Y118.756 E4.27847
G1 X40.619 Y118.632 E4.28719
G1 X40.305 Y118.302 E4.30991
G1 X40.165 Y118.147 E4.32033
G1 X39.346 Y117.191 E4.38314
G1 X39.267 Y117.096 E4.3893
G1 X39.078 Y116.861 E4.40435
G1 X38.961 Y116.707 E4.414
G1 X38.571 Y116.171 E4.44707
G1 X38.472 Y116.03 E4.45566
G1 X38.111 Y115.486 E4.48823
G1 X38.018 Y115.339 E4.49691
G1 X37.663 Y114.75 E4.53122
G1 X37.573 Y114.593 E4.54025
G1 X37.255 Y114.007 E4.57351
G1 X37.177 Y113.854 E4.58208
G1 X36.866 Y113.217 E4.61745
G1 X36.794 Y113.061 E4.62602
G1 X36.538 Y112.474 E4.65797
G1 X36.471 Y112.313 E4.66667
G1 X36.228 Y111.682 E4.7004
G1 X36.168 Y111.514 E4.7093
G1 X35.952 Y110.869 E4.74324
G1 X35.903 Y110.712 E4.75144
G1 X35.719 Y110.077 E4.78443
G1 X35.671 Y109.895 E4.79382
G1 X35.507 Y109.21 E4.82896
G1 X35.472 Y109.049 E4.83718
G1 X35.349 Y108.422 E4.86906
G1 X35.319 Y108.248 E4.87786
G1 X35.216 Y107.564 E4.91237
G1 X35.194 Y107.392 E4.92103
G1 X35.137 Y106.857 E4.94787
G1 X35.12 Y106.658 E4.95783
G1 X35.056 Y105.52 E5.0147
G1 X35.051 Y105.377 E5.02184
G1 X35.044 Y105.037 E5.0388
G1 X35.044 Y104.859 E5.04768
G1 X35.061 Y104.152 E5.08296
G1 X35.073 Y103.922 E5.09446
G1 X35.143 Y103.066 E5.1373
G1 X35.155 Y102.948 E5.14322
G1 X35.208 Y102.474 E5.16702
G1 X35.232 Y102.296 E5.17598
G1 X35.331 Y101.667 E5.20774
G1 X35.362 Y101.494 E5.21651
G1 X35.502 Y100.804 E5.25164
G1 X35.539 Y100.641 E5.25998
G1 X35.655 Y100.171 E5.28413
G1 X35.71 Y99.969 E5.29457
G1 X36.074 Y98.768 E5.35718
G1 X36.116 Y98.636 E5.36409
G1 X36.203 Y98.381 E5.37754
G1 X36.269 Y98.204 E5.38696
G1 X36.453 Y97.738 E5.41196
G1 X36.53 Y97.555 E5.42186
G1 X37.043 Y96.424 E5.48382
G1 X37.097 Y96.311 E5.49007
G1 X37.218 Y96.065 E5.50375
G1 X37.303 Y95.901 E5.51296
G1 X37.636 Y95.296 E5.54742
G1 X37.732 Y95.132 E5.5569
G1 X38.079 Y94.567 E5.58998
G1 X38.164 Y94.434 E5.59785
G1 X38.454 Y94.001 E5.62385
G1 X38.579 Y93.824 E5.63466
G1 X39.317 Y92.842 E5.69595
G1 X39.393 Y92.744 E5.70213
G1 X39.554 Y92.543 E5.71498
G1 X39.68 Y92.394 E5.72472
G1 X40.132 Y91.883 E5.75875
G1 X40.247 Y91.758 E5.76723
G1 X40.748 Y91.238 E5.80325
G1 X40.873 Y91.114 E5.81204
G1 X41.198 Y90.805 E5.83441
G1 X41.35 Y90.667 E5.84465
G1 X42.311 Y89.843 E5.90781
G1 X42.416 Y89.757 E5.91458
G1 X42.646 Y89.573 E5.92927
G1 X42.791 Y89.462 E5.93838
G1 X43.328 Y89.071 E5.97152
G1 X43.469 Y88.973 E5.98009
G1 X44.011 Y88.613 E6.01255
G1 X44.16 Y88.519 E6.02134
G1 X44.751 Y88.163 E6.05576
G1 X44.907 Y88.073 E6.06475
G1 X45.493 Y87.755 E6.09801
G0 F3600 X45.684 Y88.107
G1 F1350 X45.818 Y88.038 E6.10553
G1 X46.437 Y87.735 E6.13992
G1 X46.582 Y87.668 E6.14788
G1 X47.188 Y87.404 E6.18086
G1 X47.33 Y87.345 E6.18853
G1 X47.96 Y87.102 E6.22222
G1 X48.113 Y87.047 E6.23033
G1 X48.758 Y86.831 E6.26427
G1 X48.899 Y86.787 E6.27164
G1 X49.534 Y86.603 E6.30462
G1 X49.698 Y86.56 E6.31308
G1 X50.383 Y86.396 E6.34822
G1 X50.528 Y86.364 E6.35563
G1 X51.155 Y86.241 E6.38751
G1 X51.312 Y86.214 E6.39545
G1 X51.996 Y86.111 E6.42996
G1 X52.151 Y86.091 E6.43776
G1 X52.686 Y86.034 E6.4646
G1 X52.865 Y86.02 E6.47356
G1 X54.005 Y85.956 E6.53052
G1 X54.136 Y85.951 E6.53706
G1 X54.49 Y85.944 E6.55473
G1 X54.65 Y85.944 E6.56271
G1 X55.298 Y85.96 E6.59505
G1 X55.454 Y85.967 E6.60284
G1 X56.143 Y86.014 E6.6373
G1 X56.3 Y86.029 E6.64516
G1 X56.985 Y86.106 E6.67955
G1 X57.144 Y86.127 E6.68756
G1 X57.771 Y86.226 E6.71922
G1 X57.926 Y86.254 E6.72708
G1 X58.616 Y86.394 E6.76221
G1 X58.764 Y86.427 E6.76977
G1 X59.237 Y86.544 E6.79408
G1 X59.416 Y86.593 E6.80334
G1 X60.615 Y86.956 E6.86584
G1 X60.734 Y86.995 E6.87209
G1 X60.989 Y87.082 E6.88553
G1 X61.149 Y87.141 E6.89404
G1 X61.615 Y87.325 E6.91903
G1 X61.78 Y87.394 E6.92796
G1 X62.911 Y87.907 E6.98992
G1 X63.013 Y87.956 E6.99556
G1 X63.259 Y88.077 E7.00924
G1 X63.408 Y88.154 E7.01761
G1 X64.014 Y88.488 E7.05213
G1 X64.158 Y88.572 E7.06044
G1 X64.722 Y88.918 E7.09346
G1 X64.843 Y88.996 E7.10064
G1 X65.276 Y89.286 E7.12664
G1 X65.436 Y89.399 E7.13641
G1 X66.418 Y90.137 E7.1977
G1 X66.506 Y90.205 E7.20324
G1 X66.707 Y90.366 E7.21609
G1 X66.841 Y90.48 E7.22487
G1 X67.352 Y90.932 E7.25891
G1 X67.464 Y91.035 E7.2665
G1 X67.979 Y91.531 E7.30217
G1 X68.09 Y91.642 E7.31
G1 X68.404 Y91.972 E7.33273
G1 X68.53 Y92.112 E7.34212
G1 X69.35 Y93.069 E7.405
G1 X69.422 Y93.156 E7.41063
G1 X69.61 Y93.39 E7.42561
G1 X69.716 Y93.528 E7.43429
G1 X70.105 Y94.063 E7.46729
G1 X70.191 Y94.187 E7.47482
G1 X70.55 Y94.727 E7.50717
G1 X70.634 Y94.86 E7.51502
G1 X70.993 Y95.455 E7.54969
G1 X71.075 Y95.598 E7.55791
G1 X71.393 Y96.184 E7.59117
G1 X71.462 Y96.318 E7.59869
G1 X71.765 Y96.937 E7.63308
G1 X71.832 Y97.081 E7.641
G1 X72.095 Y97.684 E7.67382
G1 X72.154 Y97.828 E7.68158
G1 X72.398 Y98.461 E7.71543
G1 X72.452 Y98.611 E7.72338
G1 X72.668 Y99.255 E7.75727
G1 X72.713 Y99.4 E7.76485
G1 X72.897 Y100.036 E7.79788
G1 X72.94 Y100.198 E7.80624
G1 X73.104 Y100.883 E7.84138
G1 X73.136 Y101.028 E7.84879
G1 X73.259 Y101.655 E7.88067
G1 X73.285 Y101.809 E7.88846
G1 X73.387 Y102.483 E7.92247
G1 X73.408 Y102.641 E7.93042
G1 X73.466 Y103.186 E7.95776
G1 X73.48 Y103.365 E7.96672
G1 X73.544 Y104.503 E8.02359
G1 X73.549 Y104.634 E8.03013
G1 X73.556 Y104.99 E8.04789
G1 X73.556 Y105.146 E8.05567
G1 X73.541 Y105.781 E8.08736
G1 X73.534 Y105.941 E8.09535
G1 X73.486 Y106.644 E8.13051
G1 X73.471 Y106.802 E8.13842
G1 X73.394 Y107.485 E8.17272
G1 X73.373 Y107.642 E8.18062
G1 X73.274 Y108.271 E8.21239
G1 X73.246 Y108.427 E8.22029
G1 X73.106 Y109.117 E8.25542
G1 X73.073 Y109.264 E8.26293
G1 X72.957 Y109.734 E8.28709
G1 X72.907 Y109.915 E8.29645
G1 X72.543 Y111.116 E8.35906
G1 X72.505 Y111.234 E8.36525
G1 X72.418 Y111.489 E8.37869
G1 X72.359 Y111.649 E8.3872
G1 X72.175 Y112.115 E8.41219
G1 X72.106 Y112.28 E8.42112
G1 X71.593 Y113.411 E8.48308
G1 X71.544 Y113.513 E8.48872
G1 X71.423 Y113.759 E8.5024
G1 X71.347 Y113.906 E8.51066
G1 X71.014 Y114.511 E8.54511
G1 X70.928 Y114.659 E8.55365
G1 X70.581 Y115.224 E8.58673
G1 X70.504 Y115.343 E8.5938
G1 X70.214 Y115.776 E8.6198
G1 X70.101 Y115.936 E8.62957
G1 X69.363 Y116.918 E8.69086
G1 X69.296 Y117.004 E8.6963
G1 X69.14 Y117.199 E8.70875
G1 X69.026 Y117.334 E8.71757
G1 X68.569 Y117.851 E8.752
G1 X68.465 Y117.964 E8.75966
G1 X67.969 Y118.479 E8.79533
G1 X67.858 Y118.59 E8.80316
G1 X67.528 Y118.904 E8.82589
G1 X67.388 Y119.03 E8.83528
G1 X66.431 Y119.85 E8.89816
G1 X66.344 Y119.922 E8.90379
G1 X66.11 Y120.11 E8.91877
G1 X65.974 Y120.214 E8.92731
G1 X65.437 Y120.605 E8.96045
G1 X65.31 Y120.694 E8.96819
G1 X64.768 Y121.054 E9.00065
G1 X64.634 Y121.139 E9.00857
G1 X64.043 Y121.495 E9.04299
G1 X63.902 Y121.575 E9.05107
G1 X63.316 Y121.893 E9.08434
G1 X63.182 Y121.962 E9.09186
G1 X62.563 Y122.265 E9.12624
G1 X62.419 Y122.332 E9.13416
G1 X61.816 Y122.595 E9.16698
G1 X61.672 Y122.654 E9.17475
G1 X61.039 Y122.898 E9.20859
G1 X60.887 Y122.953 E9.21666
G1 X60.242 Y123.169 E9.25059
G1 X60.101 Y123.213 E9.25796
G1 X59.466 Y123.397 E9.29095
G1 X59.302 Y123.44 E9.29941
G1 X58.617 Y123.604 E9.33455
G1 X58.472 Y123.636 E9.34195
G1 X57.845 Y123.759 E9.37383
G1 X57.688 Y123.786 E9.38178
G1 X57.004 Y123.889 E9.41629
G1 X56.849 Y123.909 E9.42409
G1 X56.314 Y123.966 E9.45093
G1 X56.135 Y123.98 E9.45989
G1 X54.995 Y124.044 E9.51685
G1 X54.864 Y124.049 E9.52339
G1 X54.51 Y124.056 E9.54106
G1 X54.35 Y124.056 E9.54904
G1 X53.703 Y124.04 E9.58133
G1 X53.548 Y124.033 E9.58907
G1 X52.857 Y123.986 E9.62362
G1 X52.698 Y123.971 E9.63159
G1 X52.015 Y123.894 E9.66588
G1 X51.858 Y123.873 E9.67378
G1 X51.229 Y123.774 E9.70555
G1 X51.073 Y123.746 E9.71346
G1 X50.383 Y123.606 E9.74858
G1 X50.236 Y123.573 E9.7561
G1 X49.766 Y123.457 E9.78025
G1 X49.585 Y123.407 E9.78962
G1 X48.384 Y123.043 E9.85223
G1 X48.266 Y123.005 E9.85841
G1 X48.011 Y122.918 E9.87186
G1 X47.851 Y122.859 E9.88036
G1 X47.385 Y122.675 E9.90536
G1 X47.22 Y122.605 E9.9143
G1 X46.087 Y122.091 E9.97637
G1 X45.985 Y122.043 E9.982
G1 X45.741 Y121.923 E9.99556
G1 X45.592 Y121.846 E10.00393
G1 X44.986 Y121.512 E10.03845
G1 X44.842 Y121.428 E10.04677
G1 X44.278 Y121.082 E10.07978
G1 X44.157 Y121.004 E10.08696
G1 X43.724 Y120.714 E10.11296
G1 X43.564 Y120.601 E10.12273
G1 X42.582 Y119.863 E10.18402
G1 X42.493 Y119.793 E10.18967
G1 X42.291 Y119.631 E10.20259
G1 X42.158 Y119.52 E10.21123
G1 X41.648 Y119.069 E10.24519
G1 X41.536 Y118.965 E10.25282
G1 X41.02 Y118.468 E10.28856
G1 X40.909 Y118.357 E10.29639
G1 X40.595 Y118.027 E10.31912
G1 X40.469 Y117.887 E10.32852
G1 X39.65 Y116.931 E10.39132
G1 X39.579 Y116.845 E10.39688
G1 X39.39 Y116.61 E10.41193
G1 X39.284 Y116.472 E10.42061
G1 X38.894 Y115.936 E10.45368
G1 X38.805 Y115.809 E10.46142
G1 X38.444 Y115.265 E10.49399
G1 X38.361 Y115.132 E10.50181
G1 X38.006 Y114.543 E10.53612
G1 X37.925 Y114.402 E10.54424
G1 X37.607 Y113.816 E10.5775
G1 X37.536 Y113.678 E10.58524
G1 X37.225 Y113.041 E10.62061
G1 X37.16 Y112.901 E10.62831
G1 X36.904 Y112.314 E10.66026
G1 X36.845 Y112.169 E10.66807
G1 X36.602 Y111.538 E10.7018
G1 X36.547 Y111.387 E10.70982
G1 X36.331 Y110.742 E10.74375
G1 X36.287 Y110.601 E10.75112
G1 X36.103 Y109.966 E10.78411
G1 X36.06 Y109.802 E10.79257
G1 X35.896 Y109.117 E10.82771
G1 X35.864 Y108.972 E10.83511
G1 X35.741 Y108.345 E10.86699
G1 X35.714 Y108.188 E10.87494
G1 X35.611 Y107.504 E10.90945
G1 X35.591 Y107.349 E10.91725
G1 X35.534 Y106.814 E10.94409
G1 X35.52 Y106.635 E10.95305
G1 X35.456 Y105.497 E11.00991
G1 X35.451 Y105.369 E11.0163
G1 X35.444 Y105.029 E11.03327
G1 X35.444 Y104.868 E11.0413
G1 X35.461 Y104.161 E11.07658
G1 X35.472 Y103.955 E11.08687
G1 X35.542 Y103.099 E11.12972
G1 X35.552 Y102.992 E11.13509
