;FLAVOR:Marlin
;TIME:3381
;Filament used: 1.47328m, 0m
;Layer height: 0.1
;MINX:19.494
;MINY:70
;MINZ:0.3
;MAXX:89.508
;MAXY:139.998
;MAXZ:7
;Generated with Cura_SteamEngine 4.1.0
T0
M140 S60
M105
M190 S60
M104 S200
M105
M109 S200
M82 ;absolute extrusion mode

;Basic settings: Layer height: 0.1 Walls: 0.8 Fill: {fill_density}
;Print time: 00:56:21
;Filament used: [0.0, 1.47]m [0.0, 4.890239560546875]g
;Filament cost: [0.0, 0.12225598901367188]
;M190 S60 ;Uncomment to add your own bed temperature line
;M109 S200.0 ;Uncomment to add your own temperature line
G21        ;metric values
G90        ;absolute positioning
M82        ;set extruder to absolute mode
M107       ;start with the fan off
G28 X0 Y0  ;move X/Y to min endstops
G28 Z0     ;move Z to min endstops
G1 X0 Y0 Z15.0 F120 ;move the platform down 15mm
G92 E0                  ;zero the extruded length
G1 F200 E25              ;extrude 3mm of feed stock
G92 E0                  ;zero the extruded length again
G1 F120
;Put printing message on LCD screen
M117 Printing...
G92 E0
G92 E0
G1 F1500 E-6.5
;LAYER_COUNT:68
;LAYER:0
M107
G0 F3600 X37.401 Y74.434 Z0.3
;TYPE:SKIRT
G1 F1500 E0
G1 F1200 X40.286 Y72.989 E0.16098
G1 X41.135 Y72.625 E0.20706
G1 X44.171 Y71.531 E0.36806
G1 X45.056 Y71.27 E0.4141
G1 X48.197 Y70.543 E0.57494
G1 X49.111 Y70.388 E0.6212
G1 X52.25 Y70.046 E0.77873
G1 X53.152 Y70 E0.82379
G1 X56.444 Y70.024 E0.98803
G1 X57.385 Y70.088 E1.03509
G1 X60.587 Y70.501 E1.19616
G1 X61.498 Y70.674 E1.24242
G1 X64.624 Y71.463 E1.40327
G1 X65.502 Y71.741 E1.44921
G1 X68.451 Y72.869 E1.60674
G1 X69.277 Y73.241 E1.65193
G1 X72.134 Y74.734 E1.81276
G1 X72.926 Y75.21 E1.85886
G1 X75.647 Y77.072 E2.02335
G1 X76.391 Y77.65 E2.07035
G1 X78.759 Y79.731 E2.22763
G1 X79.404 Y80.368 E2.27286
G1 X81.564 Y82.765 E2.43383
G1 X82.14 Y83.485 E2.47984
G1 X84.041 Y86.175 E2.64417
G1 X84.54 Y86.982 E2.69151
G1 X86.035 Y89.761 E2.84894
G1 X86.415 Y90.576 E2.8938
G1 X87.607 Y93.576 E3.05486
G1 X87.897 Y94.455 E3.10103
G1 X88.742 Y97.638 E3.26534
G1 X88.929 Y98.566 E3.31256
G1 X89.363 Y101.691 E3.46997
G1 X89.435 Y102.587 E3.51481
G1 X89.508 Y105.812 E3.67575
G1 X89.474 Y106.737 E3.72193
G1 X89.158 Y110.017 E3.88633
G1 X89.011 Y110.951 E3.9335
G1 X88.331 Y114.031 E4.09086
G1 X88.086 Y114.897 E4.13576
G1 X87.032 Y117.946 E4.29671
G1 X86.675 Y118.808 E4.34326
G1 X85.234 Y121.772 E4.50768
G1 X84.773 Y122.591 E4.55457
G1 X83.061 Y125.244 E4.71209
G1 X82.53 Y125.971 E4.75701
G1 X80.482 Y128.46 E4.91782
G1 X79.849 Y129.142 E4.96424
G1 X77.467 Y131.419 E5.12864
G1 X76.749 Y132.027 E5.17558
G1 X74.22 Y133.919 E5.33315
G1 X73.466 Y134.417 E5.37823
G1 X70.619 Y136.071 E5.5425
G1 X69.774 Y136.496 E5.58969
G1 X66.809 Y137.767 E5.75063
G1 X65.94 Y138.08 E5.79672
G1 X62.847 Y138.991 E5.95758
G1 X61.945 Y139.2 E6.00377
G1 X58.762 Y139.739 E6.16483
G1 X57.847 Y139.838 E6.21075
G1 X54.626 Y139.998 E6.37164
G1 X53.7 Y139.989 E6.41785
G1 X50.483 Y139.766 E6.57873
G1 X49.565 Y139.648 E6.6249
G1 X46.394 Y139.045 E6.78594
G1 X45.5 Y138.819 E6.83195
G1 X42.425 Y137.847 E6.99284
G1 X41.562 Y137.517 E7.03893
G1 X38.623 Y136.188 E7.19986
G1 X37.804 Y135.758 E7.24601
G1 X35.044 Y134.091 E7.40687
G1 X34.283 Y133.567 E7.45297
G1 X31.737 Y131.583 E7.614
G1 X31.042 Y130.972 E7.66017
G1 X28.75 Y128.702 E7.82111
G1 X28.134 Y128.015 E7.86714
G1 X26.127 Y125.491 E8.02802
G1 X25.596 Y124.735 E8.07411
G1 X23.9 Y121.989 E8.23513
G1 X23.461 Y121.175 E8.28127
G1 X22.103 Y118.25 E8.44216
G1 X21.764 Y117.387 E8.48842
G1 X20.763 Y114.323 E8.64924
G1 X20.529 Y113.433 E8.69515
G1 X19.895 Y110.269 E8.85614
G1 X19.767 Y109.354 E8.90223
G1 X19.512 Y106.14 E9.06308
G1 X19.494 Y105.213 E9.10934
G1 X19.622 Y101.99 E9.27026
G1 X19.713 Y101.075 E9.31614
G1 X20.22 Y97.887 E9.47719
G1 X20.419 Y96.983 E9.52337
G1 X21.299 Y93.882 E9.68419
G1 X21.604 Y93.008 E9.73037
G1 X22.846 Y90.031 E9.8913
G1 X23.252 Y89.201 E9.9374
G1 X24.837 Y86.392 E10.09831
G1 X25.34 Y85.613 E10.14457
G1 X27.248 Y83.011 E10.30555
G1 X27.834 Y82.303 E10.3514
G1 X30.035 Y79.943 E10.5124
G1 X30.705 Y79.305 E10.55855
G1 X33.167 Y77.225 E10.71935
G1 X33.908 Y76.67 E10.76554
G1 X36.601 Y74.895 E10.92645
G1 X37.401 Y74.434 E10.97252
G0 F3600 X37.58 Y74.792
G1 F1200 X40.465 Y73.347 E11.1335
G1 X41.27 Y73.001 E11.17721
G1 X44.306 Y71.907 E11.33821
G1 X45.146 Y71.66 E11.38189
G1 X48.287 Y70.933 E11.54274
G1 X49.154 Y70.786 E11.58661
G1 X52.293 Y70.444 E11.74414
G1 X53.149 Y70.4 E11.78691
G1 X56.441 Y70.424 E11.95115
G1 X57.334 Y70.485 E11.9958
G1 X60.536 Y70.898 E12.15688
G1 X61.4 Y71.062 E12.20075
G1 X64.526 Y71.851 E12.3616
G1 X65.359 Y72.114 E12.40518
G1 X68.308 Y73.242 E12.5627
G1 X69.091 Y73.596 E12.60557
G1 X71.948 Y75.089 E12.7664
G1 X72.7 Y75.54 E12.81015
G1 X75.421 Y77.402 E12.97464
G1 X76.127 Y77.95 E13.01923
G1 X78.495 Y80.031 E13.1765
G1 X79.107 Y80.636 E13.21944
G1 X81.267 Y83.033 E13.38041
G1 X81.813 Y83.716 E13.42404
G1 X83.714 Y86.406 E13.58837
G1 X84.188 Y87.171 E13.63327
G1 X85.683 Y89.95 E13.79071
G1 X86.043 Y90.724 E13.83329
G1 X87.235 Y93.724 E13.99435
G1 X87.51 Y94.557 E14.03811
G1 X88.355 Y97.74 E14.20241
G1 X88.533 Y98.621 E14.24725
G1 X88.967 Y101.746 E14.40466
G1 X89.035 Y102.597 E14.44725
G1 X89.108 Y105.822 E14.60819
G1 X89.076 Y106.699 E14.65197
G1 X88.76 Y109.979 E14.81637
G1 X88.62 Y110.864 E14.86107
G1 X87.94 Y113.944 E15.01843
G1 X87.708 Y114.767 E15.06109
G1 X86.654 Y117.816 E15.22204
G1 X86.315 Y118.634 E15.26621
G1 X84.874 Y121.598 E15.43064
G1 X84.437 Y122.374 E15.47507
G1 X82.725 Y125.027 E15.63259
G1 X82.221 Y125.717 E15.67522
G1 X80.173 Y128.206 E15.83603
G1 X79.572 Y128.853 E15.88009
G1 X77.19 Y131.13 E16.04449
G1 X76.51 Y131.706 E16.08895
G1 X73.981 Y133.598 E16.24652
G1 X73.265 Y134.072 E16.28936
G1 X70.418 Y135.726 E16.45363
G1 X69.617 Y136.128 E16.49834
G1 X66.652 Y137.399 E16.65929
G1 X65.827 Y137.697 E16.70305
G1 X62.734 Y138.608 E16.86391
G1 X61.879 Y138.805 E16.90769
G1 X58.696 Y139.344 E17.06875
G1 X57.827 Y139.439 E17.11236
G1 X54.606 Y139.599 E17.27326
G1 X53.727 Y139.59 E17.31711
G1 X50.51 Y139.367 E17.47799
G1 X49.64 Y139.255 E17.52176
G1 X46.469 Y138.652 E17.68279
G1 X45.621 Y138.438 E17.72643
G1 X42.546 Y137.466 E17.88732
G1 X41.727 Y137.153 E17.93106
G1 X38.788 Y135.824 E18.09198
G1 X38.011 Y135.415 E18.13579
G1 X35.251 Y133.748 E18.29665
G1 X34.528 Y133.251 E18.34043
G1 X31.982 Y131.267 E18.50146
G1 X31.324 Y130.688 E18.54519
G1 X29.032 Y128.418 E18.70613
G1 X28.447 Y127.766 E18.74983
G1 X26.44 Y125.242 E18.91071
G1 X25.936 Y124.525 E18.95443
G1 X24.24 Y121.779 E19.11545
G1 X23.824 Y121.006 E19.15925
G1 X22.466 Y118.081 E19.32014
G1 X22.144 Y117.263 E19.364
G1 X21.143 Y114.199 E19.52481
G1 X20.921 Y113.355 E19.56835
G1 X20.287 Y110.191 E19.72934
G1 X20.166 Y109.322 E19.77311
G1 X19.911 Y106.108 E19.93397
G1 X19.894 Y105.229 E19.97783
G1 X20.022 Y102.006 E20.13875
G1 X20.108 Y101.138 E20.18227
G1 X20.615 Y97.95 E20.34332
G1 X20.804 Y97.092 E20.38715
G1 X21.684 Y93.991 E20.54797
G1 X21.974 Y93.162 E20.59178
G1 X23.216 Y90.185 E20.75271
G1 X23.6 Y89.397 E20.79645
G1 X25.185 Y86.588 E20.95736
G1 X25.662 Y85.849 E21.00124
G1 X27.57 Y83.247 E21.16222
G1 X28.126 Y82.576 E21.20569
G1 X30.327 Y80.216 E21.36669
G1 X30.963 Y79.61 E21.41052
G1 X33.425 Y77.53 E21.57131
G1 X34.129 Y77.004 E21.61516
G1 X36.822 Y75.229 E21.77607
G1 X37.58 Y74.792 E21.81972
G0 F3600 X37.759 Y75.149
G1 F1200 X40.644 Y73.704 E21.9807
G1 X41.406 Y73.378 E22.02205
G1 X44.442 Y72.284 E22.18305
G1 X45.237 Y72.049 E22.22441
G1 X48.378 Y71.322 E22.38526
G1 X49.198 Y71.183 E22.42675
G1 X52.337 Y70.841 E22.58428
G1 X53.146 Y70.8 E22.6247
G1 X56.438 Y70.824 E22.78894
G1 X57.282 Y70.882 E22.83115
G1 X60.484 Y71.295 E22.99222
G1 X61.302 Y71.45 E23.03375
G1 X64.428 Y72.239 E23.1946
G1 X65.216 Y72.488 E23.23583
G1 X68.165 Y73.616 E23.39335
G1 X68.906 Y73.95 E23.4339
G1 X71.763 Y75.443 E23.59473
G1 X72.474 Y75.87 E23.63611
G1 X75.195 Y77.732 E23.8006
G1 X75.863 Y78.251 E23.8428
G1 X78.231 Y80.332 E24.00008
G1 X78.81 Y80.904 E24.04068
G1 X80.97 Y83.301 E24.20166
G1 X81.487 Y83.947 E24.24294
G1 X83.388 Y86.637 E24.40728
G1 X83.836 Y87.361 E24.44975
G1 X85.331 Y90.14 E24.60719
G1 X85.671 Y90.871 E24.64741
G1 X86.863 Y93.871 E24.80846
G1 X87.124 Y94.66 E24.84992
G1 X87.969 Y97.843 E25.01422
G1 X88.136 Y98.676 E25.05661
G1 X88.57 Y101.801 E25.21401
G1 X88.635 Y102.606 E25.2543
G1 X88.708 Y105.831 E25.41524
G1 X88.678 Y106.66 E25.45663
G1 X88.362 Y109.94 E25.62102
G1 X88.229 Y110.778 E25.66336
G1 X87.549 Y113.858 E25.82072
G1 X87.33 Y114.636 E25.86104
G1 X86.276 Y117.685 E26.02199
G1 X85.955 Y118.459 E26.06379
G1 X84.514 Y121.423 E26.22822
G1 X84.101 Y122.157 E26.27024
G1 X82.389 Y124.81 E26.42776
G1 X81.912 Y125.463 E26.4681
G1 X79.864 Y127.952 E26.62891
G1 X79.296 Y128.564 E26.67057
G1 X76.914 Y130.841 E26.83497
G1 X76.27 Y131.386 E26.87706
G1 X73.741 Y133.278 E27.03463
G1 X73.064 Y133.726 E27.07514
G1 X70.217 Y135.38 E27.2394
G1 X69.459 Y135.761 E27.28173
G1 X66.494 Y137.032 E27.44267
G1 X65.714 Y137.313 E27.48403
G1 X62.621 Y138.224 E27.6449
G1 X61.812 Y138.411 E27.68632
G1 X58.629 Y138.95 E27.84739
G1 X57.807 Y139.039 E27.88863
G1 X54.586 Y139.199 E28.04953
G1 X53.755 Y139.191 E28.09099
G1 X50.538 Y138.968 E28.25187
G1 X49.714 Y138.862 E28.29332
G1 X46.543 Y138.259 E28.45436
G1 X45.741 Y138.056 E28.49563
G1 X42.666 Y137.084 E28.65653
G1 X41.892 Y136.788 E28.69787
G1 X38.953 Y135.459 E28.85879
G1 X38.218 Y135.073 E28.90021
G1 X35.458 Y133.406 E29.06107
G1 X34.774 Y132.935 E29.1025
G1 X32.228 Y130.951 E29.26354
G1 X31.605 Y130.404 E29.3049
G1 X29.313 Y128.134 E29.46584
G1 X28.76 Y127.517 E29.50717
G1 X26.753 Y124.993 E29.66806
G1 X26.276 Y124.314 E29.70945
G1 X24.58 Y121.568 E29.87048
G1 X24.187 Y120.838 E29.91184
G1 X22.829 Y117.913 E30.07273
G1 X22.524 Y117.139 E30.11423
G1 X21.523 Y114.075 E30.27505
G1 X21.313 Y113.276 E30.31626
G1 X20.679 Y110.112 E30.47725
G1 X20.565 Y109.291 E30.51861
G1 X20.31 Y106.077 E30.67946
G1 X20.294 Y105.245 E30.72097
G1 X20.422 Y102.022 E30.8819
G1 X20.503 Y101.201 E30.92306
G1 X21.01 Y98.013 E31.0841
G1 X21.189 Y97.201 E31.12559
G1 X22.069 Y94.1 E31.28641
G1 X22.343 Y93.316 E31.32784
G1 X23.585 Y90.339 E31.48877
G1 X23.949 Y89.594 E31.53014
G1 X25.534 Y86.785 E31.69105
G1 X25.985 Y86.086 E31.73255
G1 X27.893 Y83.484 E31.89353
G1 X28.419 Y82.849 E31.93466
G1 X30.62 Y80.489 E32.09566
G1 X31.221 Y79.916 E32.13709
G1 X33.683 Y77.836 E32.29789
G1 X34.349 Y77.338 E32.33938
G1 X37.042 Y75.563 E32.50029
G1 X37.759 Y75.149 E32.5416
G0 F3600 X37.938 Y75.507
G1 F1200 X40.823 Y74.062 E32.70257
G1 X41.542 Y73.754 E32.7416
G1 X44.578 Y72.66 E32.9026
G1 X45.327 Y72.439 E32.94156
G1 X48.468 Y71.712 E33.10241
G1 X49.241 Y71.581 E33.14152
G1 X52.38 Y71.239 E33.29905
G1 X53.143 Y71.2 E33.33717
G1 X56.435 Y71.224 E33.50141
G1 X57.231 Y71.278 E33.54122
G1 X60.433 Y71.691 E33.70229
G1 X61.204 Y71.838 E33.74145
G1 X64.33 Y72.627 E33.90229
G1 X65.073 Y72.862 E33.94117
G1 X68.022 Y73.99 E34.09869
G1 X68.721 Y74.305 E34.13695
G1 X71.578 Y75.798 E34.29777
G1 X72.248 Y76.2 E34.33675
G1 X74.969 Y78.062 E34.50125
G1 X75.599 Y78.551 E34.54103
G1 X77.967 Y80.632 E34.69831
G1 X78.513 Y81.172 E34.73662
G1 X80.673 Y83.569 E34.8976
G1 X81.16 Y84.178 E34.9365
G1 X83.061 Y86.868 E35.10084
G1 X83.483 Y87.55 E35.14085
G1 X84.978 Y90.329 E35.29828
G1 X85.3 Y91.019 E35.33627
G1 X86.492 Y94.019 E35.49732
G1 X86.737 Y94.763 E35.5364
G1 X87.582 Y97.946 E35.7007
G1 X87.74 Y98.731 E35.74065
G1 X88.174 Y101.856 E35.89806
G1 X88.235 Y102.615 E35.93605
G1 X88.308 Y105.84 E36.09698
G1 X88.28 Y106.622 E36.13602
G1 X87.964 Y109.902 E36.30042
G1 X87.839 Y110.692 E36.34032
G1 X87.159 Y113.772 E36.49769
G1 X86.952 Y114.505 E36.53568
G1 X85.898 Y117.554 E36.69663
G1 X85.596 Y118.284 E36.73605
G1 X84.155 Y121.248 E36.90047
G1 X83.765 Y121.941 E36.94014
G1 X82.053 Y124.594 E37.09767
G1 X81.604 Y125.209 E37.13566
G1 X79.556 Y127.698 E37.29647
G1 X79.02 Y128.275 E37.33576
G1 X76.638 Y130.552 E37.50016
G1 X76.031 Y131.066 E37.53984
G1 X73.502 Y132.958 E37.69741
G1 X72.863 Y133.38 E37.73562
G1 X70.016 Y135.034 E37.89989
G1 X69.301 Y135.393 E37.9398
G1 X66.336 Y136.664 E38.10074
G1 X65.601 Y136.929 E38.13972
G1 X62.508 Y137.84 E38.30059
G1 X61.745 Y138.016 E38.33965
G1 X58.562 Y138.555 E38.50072
G1 X57.787 Y138.64 E38.53961
G1 X54.566 Y138.8 E38.70051
G1 X53.783 Y138.792 E38.73957
G1 X50.566 Y138.569 E38.90045
G1 X49.789 Y138.469 E38.93954
G1 X46.618 Y137.866 E39.10058
G1 X45.862 Y137.675 E39.13948
G1 X42.787 Y136.703 E39.30037
G1 X42.057 Y136.424 E39.33936
G1 X39.118 Y135.095 E39.50028
G1 X38.425 Y134.73 E39.53936
G1 X35.665 Y133.063 E39.70022
G1 X35.02 Y132.62 E39.73926
G1 X32.474 Y130.636 E39.90029
G1 X31.887 Y130.119 E39.93932
G1 X29.595 Y127.849 E40.10026
G1 X29.073 Y127.268 E40.13922
G1 X27.066 Y124.744 E40.30011
G1 X26.617 Y124.104 E40.33911
G1 X24.921 Y121.358 E40.50013
G1 X24.55 Y120.669 E40.53917
G1 X23.192 Y117.744 E40.70006
G1 X22.904 Y117.015 E40.73917
G1 X21.903 Y113.951 E40.89998
G1 X21.706 Y113.198 E40.93881
G1 X21.072 Y110.034 E41.0998
G1 X20.964 Y109.259 E41.13884
G1 X20.709 Y106.045 E41.29969
G1 X20.693 Y105.261 E41.33881
G1 X20.821 Y102.038 E41.49974
G1 X20.898 Y101.263 E41.53859
G1 X21.405 Y98.075 E41.69964
G1 X21.574 Y97.31 E41.73873
G1 X22.454 Y94.209 E41.89955
G1 X22.712 Y93.47 E41.9386
G1 X23.954 Y90.493 E42.09953
G1 X24.297 Y89.791 E42.13851
G1 X25.882 Y86.982 E42.29942
G1 X26.308 Y86.322 E42.33861
G1 X28.216 Y83.72 E42.49959
G1 X28.711 Y83.122 E42.53832
G1 X30.912 Y80.762 E42.69931
G1 X31.48 Y80.221 E42.73845
G1 X33.942 Y78.141 E42.89925
G1 X34.569 Y77.672 E42.93831
G1 X37.262 Y75.897 E43.09922
G1 X37.938 Y75.507 E43.13816
G0 F3600 X38.117 Y75.864
G1 F1200 X41.002 Y74.419 E43.29914
G1 X41.677 Y74.13 E43.33577
G1 X44.713 Y73.036 E43.49677
G1 X45.417 Y72.829 E43.53338
G1 X48.558 Y72.102 E43.69423
G1 X49.284 Y71.978 E43.73097
G1 X52.423 Y71.636 E43.8885
G1 X53.14 Y71.6 E43.92432
G1 X56.432 Y71.624 E44.08856
G1 X57.18 Y71.675 E44.12597
G1 X60.382 Y72.088 E44.28704
G1 X61.106 Y72.226 E44.32381
G1 X64.232 Y73.015 E44.48466
G1 X64.93 Y73.235 E44.52117
G1 X67.879 Y74.363 E44.67869
G1 X68.536 Y74.659 E44.71464
G1 X71.393 Y76.152 E44.87547
G1 X72.022 Y76.53 E44.91208
G1 X74.743 Y78.392 E45.07657
G1 X75.335 Y78.852 E45.11398
G1 X77.703 Y80.933 E45.27125
G1 X78.216 Y81.44 E45.30724
G1 X80.376 Y83.837 E45.46821
G1 X80.833 Y84.409 E45.50474
G1 X82.734 Y87.099 E45.66908
G1 X83.131 Y87.74 E45.70669
G1 X84.626 Y90.519 E45.86413
G1 X84.928 Y91.167 E45.89979
G1 X86.12 Y94.167 E46.06085
G1 X86.35 Y94.865 E46.09751
G1 X87.195 Y98.048 E46.26181
G1 X87.344 Y98.786 E46.29937
G1 X87.778 Y101.911 E46.45678
G1 X87.835 Y102.624 E46.49246
G1 X87.908 Y105.849 E46.6534
G1 X87.881 Y106.584 E46.69009
G1 X87.565 Y109.864 E46.85449
G1 X87.448 Y110.606 E46.89197
G1 X86.768 Y113.686 E47.04933
G1 X86.574 Y114.375 E47.08504
G1 X85.52 Y117.424 E47.24599
G1 X85.236 Y118.109 E47.28298
G1 X83.795 Y121.073 E47.44741
G1 X83.428 Y121.724 E47.48469
G1 X81.716 Y124.377 E47.64222
G1 X81.295 Y124.954 E47.67785
G1 X79.247 Y127.443 E47.83866
G1 X78.743 Y127.986 E47.87562
G1 X76.361 Y130.263 E48.04002
G1 X75.791 Y130.745 E48.07726
G1 X73.262 Y132.637 E48.23484
G1 X72.663 Y133.034 E48.27069
G1 X69.816 Y134.688 E48.43496
G1 X69.144 Y135.026 E48.47249
G1 X66.179 Y136.297 E48.63343
G1 X65.488 Y136.545 E48.67006
G1 X62.395 Y137.456 E48.83092
G1 X61.678 Y137.622 E48.86764
G1 X58.495 Y138.161 E49.0287
G1 X57.768 Y138.24 E49.06518
G1 X54.547 Y138.4 E49.22608
G1 X53.81 Y138.393 E49.26285
G1 X50.593 Y138.17 E49.42373
G1 X49.864 Y138.076 E49.4604
G1 X46.693 Y137.473 E49.62144
G1 X45.982 Y137.294 E49.65802
G1 X42.907 Y136.322 E49.81891
G1 X42.221 Y136.059 E49.85556
G1 X39.282 Y134.73 E50.01649
G1 X38.632 Y134.388 E50.05313
G1 X35.872 Y132.721 E50.21399
G1 X35.266 Y132.304 E50.25069
G1 X32.72 Y130.32 E50.41173
G1 X32.168 Y129.835 E50.44839
G1 X29.876 Y127.565 E50.60932
G1 X29.386 Y127.019 E50.64593
G1 X27.379 Y124.495 E50.80681
G1 X26.957 Y123.894 E50.84344
G1 X25.261 Y121.148 E51.00446
G1 X24.913 Y120.501 E51.04112
G1 X23.555 Y117.576 E51.20201
G1 X23.285 Y116.89 E51.23879
G1 X22.284 Y113.826 E51.3996
