;FLAVOR:Marlin
;TIME:5194
;Filament used: 2.78104m, 0m
;Layer height: 0.16
;MINX:33.136
;MINY:83.636
;MINZ:0.2
;MAXX:75.868
;MAXY:168.364
;MAXZ:12.4
;Generated with Cura_SteamEngine 4.3.0
T0
M140 S65
M105
M190 S65
M104 S210
M105
M109 S210
M82 ;absolute extrusion mode

G21        ;metric values
G90        ;absolute positioning
M82        ;set extruder to absolute mode
M107       ;start with the fan off
G28 X0 Y0  ;move X/Y to min endstops
G28 Z0     ;move Z to min endstops
G1 X0 Y0 Z15.0 F120 ;move the platform down 15mm
G92 E0                  ;zero the extruded length
G1 F200 E25              ;extrude 3mm of feed stock
G92 E0                  ;zero the extruded length again
G1 F120
M117 Printing...
G92 E0
G92 E0
G1 F1500 E-6.5
;LAYER_COUNT:71
;LAYER:0
M107
G1 F600 Z1.2
G0 F3600 X44.837 Y85.928 Z1.2
;TYPE:SKIRT
G1 F600 Z0.2
G1 F1500 E0
G1 F1350 X44.99 Y85.852 E0.00568
G1 X45.626 Y85.549 E0.02911
G1 X45.79 Y85.475 E0.0351
G1 X46.524 Y85.165 E0.0616
G1 X46.679 Y85.103 E0.06715
G1 X47.409 Y84.83 E0.09307
G1 X47.582 Y84.77 E0.09916
G1 X48.267 Y84.549 E0.1231
G1 X48.43 Y84.5 E0.12876
G1 X49.172 Y84.295 E0.15437
G1 X49.34 Y84.253 E0.16013
G1 X50.074 Y84.084 E0.18518
G1 X50.247 Y84.048 E0.19106
G1 X51.013 Y83.907 E0.21696
G1 X51.191 Y83.878 E0.22296
G1 X51.931 Y83.776 E0.24781
G1 X52.092 Y83.758 E0.25319
G1 X52.847 Y83.685 E0.27842
G1 X53.029 Y83.671 E0.28449
G1 X53.618 Y83.641 E0.30411
G1 X53.821 Y83.636 E0.31086
G1 X55.159 Y83.636 E0.35536
G1 X55.3 Y83.638 E0.36005
G1 X55.64 Y83.65 E0.37137
G1 X55.819 Y83.661 E0.37734
G1 X56.567 Y83.721 E0.40229
G1 X56.742 Y83.739 E0.40814
G1 X57.536 Y83.838 E0.43476
G1 X57.705 Y83.863 E0.44044
G1 X58.394 Y83.979 E0.46368
G1 X58.564 Y84.011 E0.46943
G1 X59.371 Y84.183 E0.49688
G1 X59.547 Y84.225 E0.50289
G1 X60.225 Y84.402 E0.5262
G1 X60.383 Y84.446 E0.53166
G1 X61.123 Y84.672 E0.55739
G1 X61.295 Y84.729 E0.56342
G1 X62.026 Y84.989 E0.58922
G1 X62.185 Y85.05 E0.59489
G1 X62.88 Y85.331 E0.61982
G1 X63.045 Y85.402 E0.62579
G1 X63.729 Y85.715 E0.65081
G1 X63.886 Y85.791 E0.65661
G1 X64.545 Y86.128 E0.68123
G1 X64.7 Y86.211 E0.68708
G1 X65.388 Y86.602 E0.7134
G1 X65.532 Y86.688 E0.71898
G1 X66.169 Y87.086 E0.74396
G1 X66.32 Y87.185 E0.74997
G1 X66.939 Y87.612 E0.77498
G1 X67.075 Y87.711 E0.78057
G1 X67.688 Y88.173 E0.8061
G1 X67.835 Y88.289 E0.81233
G1 X68.287 Y88.664 E0.83187
G1 X68.434 Y88.792 E0.83835
G1 X69.407 Y89.683 E0.88223
G1 X69.636 Y89.91 E0.89295
G1 X70.66 Y91.012 E0.94299
G1 X70.778 Y91.145 E0.9489
G1 X71.01 Y91.418 E0.96082
G1 X71.116 Y91.547 E0.96637
G1 X71.599 Y92.166 E0.99249
G1 X71.705 Y92.309 E0.99841
G1 X72.141 Y92.922 E1.02343
G1 X72.235 Y93.061 E1.02901
G1 X72.63 Y93.669 E1.05312
G1 X72.727 Y93.825 E1.05923
G1 X73.131 Y94.514 E1.0858
G1 X73.214 Y94.663 E1.09147
G1 X73.571 Y95.336 E1.11681
G1 X73.647 Y95.487 E1.12243
G1 X73.95 Y96.122 E1.14583
G1 X74.025 Y96.288 E1.15189
G1 X74.336 Y97.024 E1.17847
G1 X74.398 Y97.18 E1.18405
G1 X74.669 Y97.905 E1.20979
G1 X74.729 Y98.078 E1.21588
G1 X74.951 Y98.766 E1.23993
G1 X75 Y98.931 E1.24565
G1 X75.205 Y99.675 E1.27132
G1 X75.247 Y99.839 E1.27695
G1 X75.416 Y100.572 E1.30197
G1 X75.451 Y100.741 E1.30771
G1 X75.593 Y101.506 E1.33359
G1 X75.623 Y101.695 E1.33995
G1 X75.724 Y102.435 E1.36479
G1 X75.742 Y102.591 E1.37002
G1 X75.815 Y103.346 E1.39524
G1 X75.829 Y103.528 E1.40132
G1 X75.86 Y104.139 E1.42166
G1 X75.865 Y104.332 E1.42809
G1 X75.868 Y105.484 E1.4664
G1 X75.866 Y105.619 E1.47089
G1 X75.852 Y106.065 E1.48573
G1 X75.842 Y106.246 E1.49176
G1 X75.78 Y107.053 E1.51868
G1 X75.761 Y107.242 E1.525
G1 X75.662 Y108.036 E1.55161
G1 X75.638 Y108.204 E1.55726
G1 X75.216 Y110.718 E1.64204
G1 X74.819 Y113.422 E1.73294
G1 X74.498 Y116.141 E1.82401
G1 X74.26 Y118.803 E1.9129
G1 X74.092 Y121.549 E2.0044
G1 X74.004 Y124.251 E2.09432
G1 X73.992 Y126.961 E2.18445
G1 X74.056 Y129.667 E2.27448
G1 X74.2 Y132.41 E2.36584
G1 X74.417 Y135.106 E2.4558
G1 X74.711 Y137.796 E2.5458
G1 X75.078 Y140.452 E2.63498
G1 X75.589 Y143.49 E2.73744
G1 X75.604 Y143.59 E2.74081
G1 X75.721 Y144.411 E2.76839
G1 X75.743 Y144.591 E2.77442
G1 X75.816 Y145.348 E2.79971
G1 X75.829 Y145.529 E2.80575
G1 X75.86 Y146.138 E2.82603
G1 X75.865 Y146.331 E2.83245
G1 X75.868 Y147.485 E2.87083
G1 X75.866 Y147.621 E2.87536
G1 X75.852 Y148.065 E2.89013
G1 X75.842 Y148.245 E2.89613
G1 X75.78 Y149.053 E2.92308
G1 X75.761 Y149.242 E2.9294
G1 X75.662 Y150.036 E2.95601
G1 X75.637 Y150.205 E2.9617
G1 X75.521 Y150.894 E2.98493
G1 X75.489 Y151.064 E2.99069
G1 X75.317 Y151.871 E3.01813
G1 X75.276 Y152.045 E3.02408
G1 X75.1 Y152.721 E3.04731
G1 X75.054 Y152.883 E3.05291
G1 X74.827 Y153.625 E3.07872
G1 X74.771 Y153.795 E3.08467
G1 X74.511 Y154.526 E3.11048
G1 X74.45 Y154.685 E3.11614
G1 X74.169 Y155.38 E3.14108
G1 X74.098 Y155.545 E3.14705
G1 X73.785 Y156.229 E3.17207
G1 X73.709 Y156.386 E3.17787
G1 X73.372 Y157.045 E3.20249
G1 X73.289 Y157.2 E3.20834
G1 X72.898 Y157.888 E3.23466
G1 X72.812 Y158.032 E3.24024
G1 X72.414 Y158.669 E3.26522
G1 X72.315 Y158.82 E3.27122
G1 X71.888 Y159.439 E3.29623
G1 X71.789 Y159.575 E3.30183
G1 X71.327 Y160.188 E3.32736
G1 X71.211 Y160.335 E3.33359
G1 X70.836 Y160.787 E3.35312
G1 X70.708 Y160.934 E3.35961
G1 X69.817 Y161.907 E3.40349
G1 X69.59 Y162.136 E3.41421
G1 X68.488 Y163.16 E3.46424
G1 X68.355 Y163.278 E3.47016
G1 X68.082 Y163.51 E3.48207
G1 X67.953 Y163.616 E3.48763
G1 X67.334 Y164.099 E3.51374
G1 X67.191 Y164.205 E3.51966
G1 X66.578 Y164.641 E3.54468
G1 X66.439 Y164.735 E3.55026
G1 X65.831 Y165.13 E3.57438
G1 X65.675 Y165.227 E3.58049
G1 X64.986 Y165.631 E3.60705
G1 X64.837 Y165.714 E3.61273
G1 X64.164 Y166.071 E3.63806
G1 X64.01 Y166.148 E3.64379
G1 X63.374 Y166.451 E3.66722
G1 X63.213 Y166.524 E3.6731
G1 X62.478 Y166.835 E3.69965
G1 X62.319 Y166.898 E3.70533
G1 X61.591 Y167.17 E3.73118
G1 X61.419 Y167.23 E3.73724
G1 X60.734 Y167.451 E3.76118
G1 X60.569 Y167.5 E3.76691
G1 X59.825 Y167.705 E3.79257
G1 X59.661 Y167.747 E3.7982
G1 X58.928 Y167.916 E3.82322
G1 X58.759 Y167.951 E3.82896
G1 X57.994 Y168.093 E3.85484
G1 X57.805 Y168.123 E3.86121
G1 X57.065 Y168.224 E3.88605
G1 X56.908 Y168.243 E3.89131
G1 X56.151 Y168.316 E3.9166
G1 X55.971 Y168.329 E3.9226
G1 X55.384 Y168.359 E3.94215
G1 X55.18 Y168.364 E3.94894
G1 X53.841 Y168.364 E3.99348
G1 X53.699 Y168.361 E3.9982
G1 X53.36 Y168.349 E4.00948
G1 X53.183 Y168.339 E4.01538
G1 X52.434 Y168.279 E4.04037
G1 X52.257 Y168.261 E4.04629
G1 X51.464 Y168.162 E4.07287
G1 X51.298 Y168.138 E4.07845
G1 X50.607 Y168.022 E4.10175
G1 X50.435 Y167.989 E4.10758
G1 X49.628 Y167.817 E4.13502
G1 X49.454 Y167.776 E4.14097
G1 X48.778 Y167.6 E4.1642
G1 X48.618 Y167.555 E4.16973
G1 X47.878 Y167.329 E4.19546
G1 X47.703 Y167.271 E4.20159
G1 X46.971 Y167.01 E4.22744
G1 X46.815 Y166.95 E4.233
G1 X46.12 Y166.669 E4.25793
G1 X45.957 Y166.599 E4.26383
G1 X45.272 Y166.286 E4.28888
G1 X45.113 Y166.209 E4.29476
G1 X44.454 Y165.872 E4.31938
G1 X44.299 Y165.789 E4.32523
G1 X43.611 Y165.398 E4.35155
G1 X43.467 Y165.312 E4.35712
G1 X42.83 Y164.914 E4.38211
G1 X42.679 Y164.815 E4.38811
G1 X42.06 Y164.388 E4.41312
G1 X41.922 Y164.288 E4.41879
G1 X41.311 Y163.827 E4.44425
G1 X41.169 Y163.715 E4.45026
G1 X40.715 Y163.339 E4.46987
G1 X40.565 Y163.208 E4.47649
G1 X39.592 Y162.317 E4.52038
G1 X39.363 Y162.09 E4.5311
G1 X38.339 Y160.988 E4.58113
G1 X38.22 Y160.854 E4.58709
G1 X37.989 Y160.582 E4.59896
G1 X37.883 Y160.452 E4.60454
G1 X37.399 Y159.831 E4.63073
G1 X37.294 Y159.69 E4.63658
G1 X36.858 Y159.077 E4.6616
G1 X36.764 Y158.938 E4.66718
G1 X36.369 Y158.33 E4.69129
G1 X36.272 Y158.174 E4.6974
G1 X35.868 Y157.485 E4.72397
G1 X35.784 Y157.335 E4.72968
G1 X35.428 Y156.663 E4.75498
G1 X35.352 Y156.51 E4.76066
G1 X35.049 Y155.874 E4.78409
G1 X34.975 Y155.711 E4.79005
G1 X34.664 Y154.975 E4.81662
G1 X34.602 Y154.818 E4.82224
G1 X34.33 Y154.09 E4.84808
G1 X34.27 Y153.918 E4.85414
G1 X34.049 Y153.233 E4.87808
G1 X34 Y153.07 E4.88374
G1 X33.795 Y152.328 E4.90935
G1 X33.753 Y152.16 E4.91511
G1 X33.584 Y151.426 E4.94016
G1 X33.548 Y151.253 E4.94604
G1 X33.407 Y150.487 E4.97194
G1 X33.378 Y150.309 E4.97794
G1 X33.276 Y149.569 E5.00278
G1 X33.258 Y149.408 E5.00817
G1 X33.185 Y148.653 E5.0334
G1 X33.171 Y148.472 E5.03944
G1 X33.141 Y147.885 E5.05899
G1 X33.136 Y147.681 E5.06578
G1 X33.136 Y146.341 E5.11034
G1 X33.139 Y146.199 E5.11507
G1 X33.151 Y145.86 E5.12635
G1 X33.161 Y145.683 E5.13225
G1 X33.221 Y144.934 E5.15724
G1 X33.239 Y144.757 E5.16316
G1 X33.338 Y143.964 E5.18974
G1 X33.362 Y143.797 E5.19535
G1 X33.784 Y141.282 E5.28017
G1 X34.181 Y138.578 E5.37107
G1 X34.502 Y135.859 E5.46213
G1 X34.74 Y133.197 E5.55102
G1 X34.908 Y130.451 E5.64252
G1 X34.996 Y127.749 E5.73244
G1 X35.008 Y125.039 E5.82257
G1 X34.944 Y122.333 E5.9126
G1 X34.8 Y119.59 E6.00396
G1 X34.583 Y116.893 E6.09395
G1 X34.289 Y114.204 E6.18392
G1 X33.918 Y111.514 E6.27424
G1 X33.412 Y108.51 E6.37556
G1 X33.396 Y108.41 E6.37893
G1 X33.279 Y107.588 E6.40654
G1 X33.258 Y107.408 E6.41257
G1 X33.185 Y106.652 E6.43783
G1 X33.171 Y106.472 E6.44384
G1 X33.141 Y105.885 E6.46339
G1 X33.136 Y105.681 E6.47017
G1 X33.136 Y104.341 E6.51474
G1 X33.139 Y104.199 E6.51947
G1 X33.151 Y103.86 E6.53075
G1 X33.161 Y103.683 E6.53664
G1 X33.221 Y102.934 E6.56164
G1 X33.239 Y102.757 E6.56755
G1 X33.338 Y101.964 E6.59413
G1 X33.362 Y101.798 E6.59971
G1 X33.478 Y101.107 E6.62302
G1 X33.511 Y100.935 E6.62884
G1 X33.683 Y100.128 E6.65629
G1 X33.724 Y99.954 E6.66223
G1 X33.9 Y99.278 E6.68546
G1 X33.945 Y99.118 E6.69099
G1 X34.171 Y98.378 E6.71673
G1 X34.229 Y98.203 E6.72286
G1 X34.49 Y97.471 E6.74871
G1 X34.55 Y97.315 E6.75427
G1 X34.831 Y96.62 E6.7792
G1 X34.901 Y96.457 E6.7851
G1 X35.214 Y95.772 E6.81015
G1 X35.291 Y95.613 E6.81602
G1 X35.627 Y94.956 E6.84057
G1 X35.71 Y94.801 E6.84642
G1 X36.102 Y94.111 E6.87281
G1 X36.187 Y93.969 E6.87832
G1 X36.584 Y93.333 E6.90325
G1 X36.685 Y93.179 E6.90938
G1 X37.113 Y92.559 E6.93443
G1 X37.212 Y92.422 E6.94006
G1 X37.673 Y91.811 E6.96551
G1 X37.785 Y91.669 E6.97153
G1 X38.161 Y91.215 E6.99114
G1 X38.292 Y91.065 E6.99776
G1 X39.182 Y90.093 E7.04159
G1 X39.409 Y89.864 E7.05232
G1 X40.511 Y88.84 E7.10235
G1 X40.644 Y88.722 E7.10827
G1 X40.917 Y88.49 E7.12018
G1 X41.049 Y88.383 E7.12583
G1 X41.669 Y87.9 E7.15197
G1 X41.808 Y87.796 E7.15775
G1 X42.422 Y87.359 E7.18281
G1 X42.561 Y87.264 E7.18841
G1 X43.167 Y86.87 E7.21245
G1 X43.324 Y86.773 E7.21859
G1 X44.015 Y86.368 E7.24523
G1 X44.165 Y86.284 E7.25095
G1 X44.837 Y85.928 E7.27624
G0 F3600 X45.025 Y86.282
G1 F1350 X45.162 Y86.213 E7.28134
G1 X45.798 Y85.91 E7.30478
G1 X45.945 Y85.844 E7.31014
G1 X46.679 Y85.534 E7.33664
G1 X46.819 Y85.478 E7.34165
G1 X47.549 Y85.205 E7.36757
G1 X47.705 Y85.151 E7.37306
G1 X48.39 Y84.93 E7.397
G1 X48.536 Y84.886 E7.40208
G1 X49.278 Y84.681 E7.42768
G1 X49.429 Y84.643 E7.43286
G1 X50.163 Y84.474 E7.45791
G1 X50.319 Y84.441 E7.46321
G1 X51.085 Y84.3 E7.48912
G1 X51.245 Y84.275 E7.4945
G1 X51.985 Y84.173 E7.51935
G1 X52.131 Y84.156 E7.52424
G1 X52.886 Y84.083 E7.54947
G1 X53.049 Y84.071 E7.5549
G1 X53.638 Y84.041 E7.57452
G1 X53.821 Y84.036 E7.58061
G1 X55.159 Y84.036 E7.62511
G1 X55.286 Y84.038 E7.62933
G1 X55.626 Y84.05 E7.64065
G1 X55.787 Y84.06 E7.64602
G1 X56.535 Y84.12 E7.67097
G1 X56.692 Y84.136 E7.67622
G1 X57.486 Y84.235 E7.70284
G1 X57.639 Y84.257 E7.70798
G1 X58.328 Y84.373 E7.73122
G1 X58.48 Y84.402 E7.73636
G1 X59.287 Y84.574 E7.76381
G1 X59.446 Y84.612 E7.76924
G1 X60.124 Y84.789 E7.79255
G1 X60.267 Y84.829 E7.79749
G1 X61.007 Y85.055 E7.82322
G1 X61.161 Y85.106 E7.82862
G1 X61.892 Y85.366 E7.85442
G1 X62.035 Y85.42 E7.85951
G1 X62.73 Y85.701 E7.88444
G1 X62.879 Y85.765 E7.88984
G1 X63.563 Y86.078 E7.91485
G1 X63.704 Y86.147 E7.92008
G1 X64.363 Y86.484 E7.94469
G1 X64.503 Y86.559 E7.94998
G1 X65.191 Y86.95 E7.9763
G1 X65.32 Y87.027 E7.98129
G1 X65.957 Y87.425 E8.00627
G1 X66.093 Y87.515 E8.0117
G1 X66.712 Y87.942 E8.03671
G1 X66.835 Y88.03 E8.04174
G1 X67.448 Y88.492 E8.06727
G1 X67.58 Y88.596 E8.07286
G1 X68.032 Y88.971 E8.09239
G1 X68.164 Y89.087 E8.09824
G1 X69.137 Y89.978 E8.14212
G1 X69.343 Y90.182 E8.15176
G1 X70.367 Y91.284 E8.2018
G1 X70.473 Y91.404 E8.20712
G1 X70.705 Y91.677 E8.21904
G1 X70.8 Y91.793 E8.22402
G1 X71.283 Y92.412 E8.25014
G1 X71.379 Y92.54 E8.25546
G1 X71.815 Y93.153 E8.28048
G1 X71.9 Y93.279 E8.28553
G1 X72.295 Y93.887 E8.30965
G1 X72.382 Y94.027 E8.31513
G1 X72.786 Y94.716 E8.3417
G1 X72.86 Y94.85 E8.34679
G1 X73.217 Y95.523 E8.37213
G1 X73.286 Y95.66 E8.37723
G1 X73.589 Y96.295 E8.40063
G1 X73.656 Y96.444 E8.40606
G1 X73.967 Y97.18 E8.43264
G1 X74.023 Y97.321 E8.43769
G1 X74.294 Y98.046 E8.46343
G1 X74.348 Y98.2 E8.46886
G1 X74.57 Y98.888 E8.4929
G1 X74.615 Y99.038 E8.49811
G1 X74.82 Y99.782 E8.52378
G1 X74.857 Y99.929 E8.52882
G1 X75.026 Y100.662 E8.55384
G1 X75.058 Y100.814 E8.559
G1 X75.2 Y101.579 E8.58488
G1 X75.227 Y101.749 E8.59061
G1 X75.328 Y102.489 E8.61545
G1 X75.344 Y102.63 E8.62017
G1 X75.417 Y103.385 E8.6454
G1 X75.429 Y103.549 E8.65087
G1 X75.46 Y104.16 E8.67121
G1 X75.465 Y104.333 E8.67697
G1 X75.468 Y105.485 E8.71529
G1 X75.466 Y105.607 E8.71935
G1 X75.452 Y106.053 E8.73419
G1 X75.443 Y106.216 E8.73962
G1 X75.381 Y107.023 E8.76654
G1 X75.364 Y107.192 E8.77219
G1 X75.265 Y107.986 E8.7988
G1 X75.243 Y108.138 E8.80391
G1 X74.825 Y110.623 E8.88772
G1 X74.419 Y113.388 E8.98067
G1 X74.105 Y116.057 E9.07005
G1 X73.858 Y118.817 E9.16222
G1 X73.693 Y121.511 E9.25199
G1 X73.604 Y124.237 E9.3427
G1 X73.592 Y126.969 E9.43357
G1 X73.657 Y129.697 E9.52433
G1 X73.8 Y132.427 E9.61526
G1 X74.016 Y135.11 E9.70478
G1 X74.316 Y137.857 E9.79669
G1 X74.687 Y140.545 E9.88694
G1 X75.194 Y143.557 E9.98853
G1 X75.208 Y143.646 E9.99153
G1 X75.325 Y144.467 E10.01911
G1 X75.344 Y144.629 E10.02453
G1 X75.417 Y145.386 E10.04983
G1 X75.429 Y145.549 E10.05527
G1 X75.46 Y146.158 E10.07555
G1 X75.465 Y146.332 E10.08134
G1 X75.468 Y147.486 E10.11972
G1 X75.466 Y147.608 E10.12378
G1 X75.452 Y148.052 E10.13855
G1 X75.443 Y148.214 E10.14395
G1 X75.381 Y149.022 E10.1709
G1 X75.364 Y149.192 E10.17658
G1 X75.265 Y149.986 E10.2032
G1 X75.243 Y150.139 E10.20834
G1 X75.127 Y150.828 E10.23158
G1 X75.098 Y150.98 E10.23672
G1 X74.926 Y151.787 E10.26417
G1 X74.889 Y151.944 E10.26953
G1 X74.713 Y152.62 E10.29277
G1 X74.672 Y152.766 E10.29781
G1 X74.445 Y153.508 E10.32362
G1 X74.394 Y153.661 E10.32898
G1 X74.134 Y154.392 E10.35479
G1 X74.08 Y154.535 E10.35987
G1 X73.799 Y155.23 E10.3848
G1 X73.735 Y155.379 E10.3902
G1 X73.422 Y156.063 E10.41522
G1 X73.353 Y156.204 E10.42044
G1 X73.016 Y156.863 E10.44506
G1 X72.941 Y157.003 E10.45034
G1 X72.55 Y157.691 E10.47666
G1 X72.473 Y157.82 E10.48166
G1 X72.075 Y158.457 E10.50664
G1 X71.985 Y158.593 E10.51206
G1 X71.558 Y159.212 E10.53707
G1 X71.47 Y159.335 E10.5421
G1 X71.008 Y159.948 E10.56763
G1 X70.904 Y160.08 E10.57322
G1 X70.529 Y160.532 E10.59276
G1 X70.413 Y160.664 E10.5986
G1 X69.522 Y161.637 E10.64248
G1 X69.318 Y161.843 E10.65213
G1 X68.216 Y162.867 E10.70216
G1 X68.096 Y162.973 E10.70748
G1 X67.823 Y163.205 E10.7194
G1 X67.707 Y163.3 E10.72439
G1 X67.088 Y163.783 E10.7505
G1 X66.96 Y163.879 E10.75582
G1 X66.347 Y164.315 E10.78084
G1 X66.221 Y164.4 E10.7859
G1 X65.613 Y164.795 E10.81001
G1 X65.473 Y164.882 E10.8155
G1 X64.784 Y165.286 E10.84206
G1 X64.65 Y165.36 E10.84715
G1 X63.977 Y165.717 E10.87249
G1 X63.838 Y165.787 E10.87767
G1 X63.202 Y166.09 E10.9011
G1 X63.057 Y166.155 E10.90638
G1 X62.322 Y166.466 E10.93293
G1 X62.179 Y166.523 E10.93805
G1 X61.451 Y166.795 E10.9639
G1 X61.296 Y166.849 E10.96936
G1 X60.611 Y167.07 E10.99329
G1 X60.462 Y167.115 E10.99847
G1 X59.718 Y167.32 E11.02414
G1 X59.571 Y167.357 E11.02918
G1 X58.838 Y167.526 E11.0542
G1 X58.686 Y167.558 E11.05937
G1 X57.921 Y167.7 E11.08525
G1 X57.751 Y167.727 E11.09097
G1 X57.011 Y167.828 E11.11581
G1 X56.87 Y167.844 E11.12053
G1 X56.113 Y167.917 E11.14583
G1 X55.951 Y167.929 E11.15123
G1 X55.364 Y167.959 E11.17078
G1 X55.18 Y167.964 E11.1769
G1 X53.841 Y167.964 E11.22144
G1 X53.714 Y167.962 E11.22566
G1 X53.375 Y167.95 E11.23694
G1 X53.215 Y167.941 E11.24227
G1 X52.466 Y167.881 E11.26726
G1 X52.307 Y167.864 E11.27258
G1 X51.514 Y167.765 E11.29916
