;FLAVOR:Marlin
;TIME:4214
;Filament used: 2.74703m, 0m
;Layer height: 0.16
;MINX:27.532
;MINY:56.119
;MINZ:0.2
;MAXX:82.536
;MAXY:158.088
;MAXZ:8.4
;Generated with Cura_SteamEngine 4.3.0
T0
M140 S65
M105
M190 S65
M104 S210
M105
M109 S210
M82 ;absolute extrusion mode

G21        ;metric values
G90        ;absolute positioning
M82        ;set extruder to absolute mode
M107       ;start with the fan off
G28 X0 Y0  ;move X/Y to min endstops
G28 Z0     ;move Z to min endstops
G1 X0 Y0 Z15.0 F120 ;move the platform down 15mm
G92 E0                  ;zero the extruded length
G1 F200 E25              ;extrude 3mm of feed stock
G92 E0                  ;zero the extruded length again
G1 F120
M117 Printing...
G92 E0
G92 E0
G1 F1500 E-6.5
;LAYER_COUNT:46
;LAYER:0
M107
G1 F600 Z1.2
G0 F3600 X30.92 Y77.506 Z1.2
;TYPE:SKIRT
G1 F600 Z0.2
G1 F1500 E0
G1 F1350 X31.469 Y77.306 E0.01943
G1 X32.533 Y77.005 E0.05621
G1 X32.617 Y76.982 E0.05911
G1 X33.356 Y76.79 E0.0845
G1 X35.945 Y76.04 E0.17415
G1 X38.527 Y75.212 E0.26434
G1 X41.108 Y74.302 E0.35536
G1 X43.661 Y73.321 E0.44633
G1 X46.121 Y72.294 E0.53499
G1 X48.61 Y71.173 E0.62579
G1 X51.062 Y69.983 E0.71644
G1 X53.47 Y68.728 E0.80675
G1 X55.843 Y67.406 E0.8971
G1 X58.15 Y66.034 E0.98638
G1 X60.485 Y64.553 E1.07834
G1 X62.715 Y63.05 E1.16779
G1 X64.909 Y61.478 E1.25756
G1 X66.286 Y60.444 E1.31483
G1 X67.258 Y59.7 E1.35554
G1 X67.478 Y59.544 E1.36451
G1 X68.274 Y59.016 E1.39628
G1 X68.338 Y58.974 E1.39883
G1 X68.588 Y58.815 E1.40868
G1 X68.634 Y58.786 E1.41049
G1 X70.381 Y57.708 E1.47877
G1 X70.505 Y57.635 E1.48355
G1 X71.284 Y57.192 E1.51336
G1 X71.4 Y57.128 E1.51777
G1 X71.773 Y56.932 E1.53178
G1 X71.88 Y56.878 E1.53577
G1 X72.251 Y56.697 E1.5495
G1 X72.407 Y56.625 E1.55521
G1 X72.71 Y56.493 E1.5662
G1 X73.243 Y56.304 E1.58501
G1 X73.71 Y56.205 E1.60089
G1 X73.981 Y56.164 E1.61001
G1 X74.544 Y56.119 E1.62879
G1 X75.108 Y56.154 E1.64759
G1 X75.662 Y56.268 E1.6664
G1 X76.017 Y56.387 E1.67885
G1 X76.235 Y56.471 E1.68662
G1 X76.747 Y56.711 E1.70543
G1 X77.22 Y57.02 E1.72422
G1 X77.644 Y57.394 E1.74303
G1 X78.012 Y57.823 E1.76183
G1 X78.229 Y58.148 E1.77482
G1 X78.329 Y58.315 E1.7813
G1 X78.584 Y58.819 E1.80008
G1 X78.766 Y59.355 E1.81891
G1 X78.87 Y59.91 E1.83769
G1 X78.896 Y60.475 E1.8565
G1 X78.869 Y60.847 E1.86891
G1 X78.845 Y61.047 E1.87561
G1 X78.832 Y61.139 E1.8787
G1 X78.717 Y61.939 E1.90558
G1 X78.711 Y61.984 E1.90709
G1 X78.593 Y62.744 E1.93267
G1 X78.255 Y65.404 E2.02185
G1 X77.988 Y68.129 E2.11292
G1 X77.802 Y70.805 E2.20214
G1 X77.689 Y73.539 E2.29315
G1 X77.654 Y76.25 E2.38333
G1 X77.695 Y78.99 E2.47447
G1 X77.813 Y81.665 E2.56353
G1 X78.01 Y84.398 E2.65466
G1 X78.281 Y87.095 E2.74482
G1 X78.627 Y89.776 E2.83473
G1 X79.052 Y92.465 E2.92527
G1 X79.554 Y95.148 E3.01606
G1 X80.121 Y97.766 E3.10515
G1 X80.773 Y100.416 E3.19592
G1 X81.889 Y104.381 E3.33292
G1 X81.914 Y104.472 E3.33606
G1 X82.047 Y104.991 E3.35388
G1 X82.073 Y105.1 E3.35761
G1 X82.191 Y105.621 E3.37538
G1 X82.222 Y105.773 E3.38054
G1 X82.369 Y106.563 E3.40726
G1 X82.405 Y106.792 E3.41497
G1 X82.433 Y107.013 E3.42238
G1 X82.455 Y107.227 E3.42954
G1 X82.489 Y107.697 E3.44521
G1 X82.498 Y107.899 E3.45193
G1 X82.515 Y108.68 E3.47792
G1 X82.516 Y108.708 E3.47885
G1 X82.536 Y110.071 E3.52419
G1 X82.536 Y110.136 E3.52635
G1 X82.535 Y110.861 E3.55046
G1 X82.53 Y111.05 E3.55675
G1 X82.513 Y111.398 E3.56834
G1 X82.494 Y111.637 E3.57631
G1 X82.444 Y112.095 E3.59164
G1 X82.43 Y112.208 E3.59542
G1 X82.39 Y112.498 E3.60516
G1 X82.373 Y112.614 E3.60906
G1 X81.994 Y114.87 E3.68515
G1 X81.931 Y115.293 E3.69937
G1 X81.921 Y115.359 E3.70159
G1 X81.8 Y116.086 E3.7261
G1 X81.776 Y116.215 E3.73047
G1 X81.636 Y116.914 E3.75418
G1 X81.608 Y117.043 E3.75857
G1 X81.538 Y117.341 E3.76875
G1 X81.512 Y117.445 E3.77232
G1 X81.365 Y118.003 E3.79151
G1 X81.351 Y118.054 E3.79327
G1 X81.199 Y118.601 E3.81215
G1 X80.829 Y120.005 E3.86044
G1 X80.825 Y120.02 E3.86096
G1 X80.382 Y121.675 E3.91794
G1 X80.337 Y121.832 E3.92337
G1 X80.187 Y122.313 E3.94013
G1 X80.152 Y122.418 E3.94381
G1 X80.065 Y122.672 E3.95274
G1 X80.007 Y122.831 E3.95837
G1 X79.852 Y123.228 E3.97255
G1 X79.804 Y123.346 E3.97678
G1 X79.718 Y123.547 E3.98406
G1 X79.645 Y123.707 E3.98991
G1 X79.432 Y124.15 E4.00625
G1 X79.383 Y124.248 E4.0099
G1 X79.228 Y124.549 E4.02116
G1 X79.174 Y124.652 E4.02503
G1 X78.698 Y125.514 E4.05778
G1 X78.669 Y125.564 E4.0597
G1 X78.26 Y126.28 E4.08713
G1 X78.223 Y126.344 E4.08958
G1 X77.844 Y126.98 E4.11421
G1 X77.794 Y127.061 E4.11738
G1 X77.435 Y127.632 E4.13981
G1 X77.376 Y127.723 E4.14342
G1 X77.019 Y128.258 E4.16481
G1 X76.953 Y128.354 E4.16868
G1 X76.632 Y128.806 E4.18712
G1 X76.555 Y128.911 E4.19145
G1 X76.203 Y129.374 E4.2108
G1 X76.12 Y129.48 E4.21527
G1 X75.711 Y129.982 E4.23681
G1 X75.61 Y130.101 E4.242
G1 X75.064 Y130.72 E4.26946
G1 X74.91 Y130.885 E4.27696
G1 X74.344 Y131.458 E4.30375
G1 X74.291 Y131.51 E4.30622
G1 X73.372 Y132.406 E4.34891
G1 X71.436 Y134.404 E4.44144
G1 X69.632 Y136.374 E4.53029
G1 X67.86 Y138.424 E4.62041
G1 X66.125 Y140.547 E4.7116
G1 X64.482 Y142.681 E4.80118
G1 X62.863 Y144.908 E4.89276
G1 X61.345 Y147.128 E4.9822
G1 X59.884 Y149.398 E5.07199
G1 X58.467 Y151.745 E5.16318
G1 X57.584 Y153.287 E5.22228
G1 X57.566 Y153.32 E5.22353
G1 X57.564 Y153.322 E5.22362
G1 X57.218 Y153.941 E5.24721
G1 X56.907 Y154.414 E5.26604
G1 X56.456 Y154.913 E5.28841
G1 X55.843 Y155.485 E5.31629
G1 X55.791 Y155.532 E5.31862
G1 X55.069 Y156.182 E5.35094
G1 X54.163 Y157.023 E5.39205
G1 X53.723 Y157.377 E5.41083
G1 X53.237 Y157.666 E5.42964
G1 X52.715 Y157.883 E5.44844
G1 X52.168 Y158.025 E5.46724
G1 X51.606 Y158.088 E5.48605
G1 X51.041 Y158.071 E5.50485
G1 X50.432 Y157.961 E5.52543
G1 X50.087 Y157.871 E5.53729
G1 X49.957 Y157.835 E5.54178
G1 X49.641 Y157.741 E5.55274
G1 X49.506 Y157.698 E5.55746
G1 X47.571 Y157.047 E5.62536
G1 X44.973 Y156.215 E5.71609
G1 X42.355 Y155.457 E5.80674
G1 X39.709 Y154.77 E5.89767
G1 X37.054 Y154.16 E5.98827
G1 X34.417 Y153.637 E6.07769
G1 X33.962 Y153.557 E6.09305
G1 X33.873 Y153.541 E6.09606
G1 X33.53 Y153.473 E6.10769
G1 X32.973 Y153.32 E6.1269
G1 X32.504 Y153.154 E6.14345
G1 X31.986 Y152.928 E6.16225
G1 X31.315 Y152.486 E6.18897
G1 X31.026 Y152.251 E6.20136
G1 X30.614 Y151.865 E6.22014
G1 X30.149 Y151.253 E6.2457
G1 X29.886 Y150.828 E6.26233
G1 X29.63 Y150.343 E6.28057
G1 X29.401 Y149.826 E6.29937
G1 X29.349 Y149.703 E6.30382
G1 X29.236 Y149.423 E6.31386
G1 X29.17 Y149.248 E6.32008
G1 X29.045 Y148.891 E6.33266
G1 X28.891 Y148.318 E6.35239
G1 X28.789 Y147.783 E6.37051
G1 X28.722 Y147.222 E6.3893
G1 X28.735 Y146.661 E6.40796
G1 X28.777 Y146.213 E6.42293
G1 X28.91 Y145.501 E6.44702
G1 X29.232 Y144.358 E6.48652
G1 X29.936 Y141.735 E6.57685
G1 X30.575 Y139.053 E6.66855
G1 X31.112 Y136.465 E6.75646
G1 X31.602 Y133.723 E6.8491
G1 X32.001 Y131.061 E6.93863
G1 X32.326 Y128.375 E7.02862
G1 X32.575 Y125.682 E7.11857
G1 X32.751 Y122.94 E7.20996
G1 X32.846 Y120.272 E7.29875
G1 X32.869 Y118.371 E7.36198
G1 X32.875 Y115.907 E7.44394
G1 X32.842 Y113.131 E7.53627
G1 X32.733 Y110.426 E7.62631
G1 X32.546 Y107.69 E7.71753
G1 X32.288 Y105.031 E7.80638
G1 X31.945 Y102.3 E7.89793
G1 X31.533 Y99.63 E7.98778
G1 X31.043 Y96.962 E8.078
G1 X30.478 Y94.308 E8.16825
G1 X29.842 Y91.685 E8.25802
G1 X29.127 Y89.062 E8.34845
G1 X28.351 Y86.531 E8.4365
G1 X28.334 Y86.474 E8.43848
G1 X28.08 Y85.6 E8.46875
G1 X27.975 Y85.14 E8.48444
G1 X27.744 Y83.75 E8.53131
G1 X27.604 Y82.94 E8.55865
G1 X27.548 Y82.401 E8.57667
G1 X27.532 Y81.957 E8.59145
G1 X27.551 Y81.392 E8.61025
G1 X27.65 Y80.835 E8.62907
G1 X27.827 Y80.298 E8.64787
G1 X28.077 Y79.792 E8.66664
G1 X28.278 Y79.482 E8.67893
G1 X28.425 Y79.277 E8.68732
G1 X28.786 Y78.842 E8.70612
G1 X29.205 Y78.462 E8.72494
G1 X29.448 Y78.286 E8.73492
G1 X29.706 Y78.113 E8.74525
G1 X30.296 Y77.786 E8.76768
G1 X30.92 Y77.506 E8.79043
G0 F3600 X31.084 Y77.871
G1 F1350 X31.578 Y77.691 E8.80792
G1 X32.642 Y77.39 E8.8447
G1 X32.717 Y77.369 E8.84729
G1 X33.463 Y77.175 E8.87293
G1 X36.073 Y76.419 E8.9633
G1 X38.676 Y75.584 E9.05422
G1 X41.236 Y74.682 E9.1445
G1 X43.792 Y73.699 E9.23558
G1 X46.29 Y72.657 E9.32561
G1 X48.77 Y71.54 E9.41607
G1 X51.257 Y70.333 E9.50802
G1 X53.643 Y69.089 E9.59751
G1 X56.048 Y67.75 E9.68907
G1 X58.363 Y66.373 E9.77866
G1 X60.7 Y64.89 E9.87071
G1 X62.942 Y63.379 E9.96064
G1 X65.149 Y61.798 E10.05093
G1 X66.526 Y60.764 E10.10821
G1 X67.501 Y60.018 E10.14904
G1 X67.699 Y59.877 E10.15712
G1 X68.495 Y59.349 E10.18889
G1 X68.553 Y59.311 E10.1912
G1 X68.803 Y59.152 E10.20105
G1 X68.845 Y59.126 E10.2027
G1 X70.592 Y58.048 E10.27098
G1 X70.702 Y57.983 E10.27522
G1 X71.481 Y57.54 E10.30503
G1 X71.586 Y57.482 E10.30902
G1 X71.959 Y57.286 E10.32304
G1 X72.056 Y57.238 E10.32663
G1 X72.427 Y57.057 E10.34036
G1 X72.567 Y56.992 E10.3455
G1 X72.87 Y56.86 E10.35649
G1 X73.376 Y56.683 E10.37432
G1 X73.769 Y56.601 E10.38767
G1 X74.04 Y56.56 E10.39679
G1 X74.575 Y56.519 E10.41464
G1 X75.11 Y56.558 E10.43248
G1 X75.873 Y56.76 E10.45873
G1 X76.091 Y56.844 E10.4665
G1 X76.576 Y57.073 E10.48434
G1 X77.021 Y57.372 E10.50217
G1 X77.417 Y57.734 E10.52001
G1 X77.886 Y58.354 E10.54587
G1 X77.986 Y58.521 E10.55235
G1 X78.226 Y59 E10.57016
G1 X78.393 Y59.51 E10.58801
G1 X78.482 Y60.038 E10.60582
G1 X78.471 Y60.799 E10.63114
G1 X78.447 Y60.999 E10.63784
G1 X78.436 Y61.082 E10.64062
G1 X78.321 Y61.882 E10.6675
G1 X78.315 Y61.922 E10.66885
G1 X78.2 Y62.663 E10.69379
G1 X77.859 Y65.352 E10.78394
G1 X77.59 Y68.098 E10.87571
G1 X77.401 Y70.794 E10.9656
G1 X77.289 Y73.518 E11.05628
G1 X77.254 Y76.251 E11.14718
G1 X77.295 Y78.978 E11.2379
G1 X77.415 Y81.712 E11.32892
G1 X77.611 Y84.431 E11.41959
G1 X77.884 Y87.15 E11.51047
G1 X78.229 Y89.818 E11.59995
G1 X78.658 Y92.529 E11.69124
G1 X79.163 Y95.234 E11.78276
G1 X79.73 Y97.848 E11.87173
G1 X80.39 Y100.531 E11.96363
G1 X81.504 Y104.49 E12.10042
G1 X81.526 Y104.571 E12.10321
G1 X81.659 Y105.09 E12.12103
G1 X81.683 Y105.189 E12.12442
G1 X81.801 Y105.71 E12.14218
G1 X81.829 Y105.846 E12.1468
G1 X81.976 Y106.636 E12.17353
G1 X82.008 Y106.843 E12.18049
G1 X82.036 Y107.064 E12.1879
G1 X82.056 Y107.256 E12.19432
G1 X82.09 Y107.726 E12.21
G1 X82.098 Y107.908 E12.21606
G1 X82.115 Y108.689 E12.24204
G1 X82.116 Y108.714 E12.24287
G1 X82.136 Y110.077 E12.28821
G1 X82.136 Y110.135 E12.29014
G1 X82.135 Y110.86 E12.31425
G1 X82.131 Y111.031 E12.31994
G1 X82.114 Y111.379 E12.33153
G1 X82.097 Y111.594 E12.3387
G1 X82.047 Y112.052 E12.35403
G1 X82.034 Y112.153 E12.35741
G1 X81.994 Y112.443 E12.36715
G1 X81.978 Y112.547 E12.37065
G1 X81.599 Y114.803 E12.44674
G1 X81.535 Y115.234 E12.46123
G1 X81.526 Y115.293 E12.46321
G1 X81.405 Y116.02 E12.48773
G1 X81.384 Y116.136 E12.49165
G1 X81.244 Y116.835 E12.51536
G1 X81.219 Y116.951 E12.5193
G1 X81.149 Y117.249 E12.52949
G1 X81.125 Y117.343 E12.53271
G1 X80.978 Y117.901 E12.5519
G1 X80.966 Y117.947 E12.55349
G1 X80.8 Y118.545 E12.57413
G1 X80.442 Y119.903 E12.62084
G1 X80.439 Y119.917 E12.62131
G1 X79.996 Y121.572 E12.6783
G1 X79.955 Y121.713 E12.68318
G1 X79.805 Y122.194 E12.69994
G1 X79.774 Y122.289 E12.70326
G1 X79.687 Y122.543 E12.71219
G1 X79.634 Y122.685 E12.71723
G1 X79.479 Y123.082 E12.73141
G1 X79.436 Y123.189 E12.73524
G1 X79.35 Y123.39 E12.74252
G1 X79.284 Y123.534 E12.74778
G1 X79.071 Y123.977 E12.76413
G1 X79.028 Y124.065 E12.76739
G1 X78.873 Y124.366 E12.77865
G1 X78.823 Y124.458 E12.78213
G1 X78.347 Y125.32 E12.81489
G1 X78.322 Y125.366 E12.81663
G1 X77.913 Y126.082 E12.84405
G1 X77.88 Y126.139 E12.84624
G1 X77.501 Y126.775 E12.87087
G1 X77.456 Y126.848 E12.87372
G1 X77.097 Y127.419 E12.89615
G1 X77.044 Y127.501 E12.8994
G1 X76.687 Y128.036 E12.92079
G1 X76.627 Y128.122 E12.92428
G1 X76.306 Y128.574 E12.94272
G1 X76.237 Y128.669 E12.94662
G1 X75.885 Y129.132 E12.96597
G1 X75.81 Y129.227 E12.96999
G1 X75.401 Y129.729 E12.99153
G1 X75.31 Y129.836 E12.9962
G1 X74.764 Y130.455 E13.02366
G1 X74.625 Y130.604 E13.03043
G1 X74.059 Y131.177 E13.05722
G1 X74.012 Y131.224 E13.05943
G1 X73.053 Y132.16 E13.104
G1 X71.171 Y134.102 E13.19395
G1 X69.336 Y136.105 E13.2843
G1 X67.546 Y138.176 E13.37534
G1 X65.816 Y140.293 E13.46628
G1 X64.157 Y142.447 E13.5567
G1 X62.541 Y144.67 E13.64811
G1 X61.023 Y146.891 E13.73759
G1 X59.539 Y149.196 E13.82877
G1 X58.117 Y151.551 E13.92027
G1 X57.235 Y153.092 E13.97932
G1 X56.869 Y153.746 E14.00425
G1 X56.572 Y154.193 E14.0221
G1 X56.183 Y154.62 E14.04131
G1 X55.57 Y155.192 E14.0692
G1 X55.523 Y155.235 E14.07132
G1 X54.757 Y155.925 E14.10561
G1 X53.891 Y156.729 E14.14491
G1 X53.472 Y157.064 E14.16275
G1 X53.008 Y157.333 E14.18059
G1 X52.509 Y157.529 E14.19842
G1 X51.986 Y157.65 E14.21628
G1 X51.452 Y157.691 E14.23409
G1 X50.917 Y157.652 E14.25193
G1 X50.533 Y157.574 E14.26496
G1 X50.188 Y157.484 E14.27682
G1 X50.071 Y157.452 E14.28086
G1 X49.755 Y157.358 E14.29182
G1 X49.633 Y157.319 E14.29608
G1 X47.674 Y156.66 E14.36483
G1 X45.101 Y155.836 E14.45469
G1 X42.461 Y155.071 E14.54611
G1 X39.819 Y154.386 E14.63688
G1 X37.124 Y153.766 E14.72886
G1 X34.477 Y153.241 E14.81862
G1 X34.031 Y153.163 E14.83368
G1 X33.951 Y153.148 E14.83638
G1 X33.608 Y153.08 E14.84801
G1 X33.107 Y152.943 E14.86529
G1 X32.638 Y152.777 E14.88184
G1 X32.147 Y152.561 E14.89968
G1 X31.568 Y152.176 E14.9228
G1 X31.279 Y151.941 E14.93519
G1 X30.889 Y151.573 E14.95303
G1 X30.489 Y151.042 E14.97514
G1 X30.226 Y150.617 E14.99176
G1 X29.995 Y150.181 E15.00817
G1 X29.766 Y149.664 E15.02698
G1 X29.72 Y149.553 E15.03097
G1 X29.607 Y149.273 E15.04102
G1 X29.547 Y149.116 E15.04661
G1 X29.422 Y148.759 E15.05919
G1 X29.284 Y148.243 E15.07695
G1 X29.182 Y147.708 E15.09507
G1 X29.121 Y147.175 E15.11291
G1 X29.134 Y146.698 E15.12878
G1 X29.176 Y146.25 E15.14375
G1 X29.295 Y145.61 E15.1654
G1 X29.617 Y144.467 E15.2049
G1 X30.325 Y141.826 E15.29584
G1 X30.96 Y139.162 E15.38693
G1 X31.51 Y136.51 E15.47701
G1 X31.993 Y133.812 E15.56817
G1 X32.395 Y131.132 E15.6583
G1 X32.723 Y128.423 E15.74906
G1 X32.974 Y125.709 E15.83972
G1 X33.149 Y122.981 E15.93064
G1 X33.247 Y120.249 E16.02156
G1 X33.269 Y118.376 E16.08386
G1 X33.275 Y115.902 E16.16615
G1 X33.241 Y113.11 E16.25902
G1 X33.134 Y110.419 E16.34859
G1 X32.945 Y107.657 E16.44067
G1 X32.685 Y104.979 E16.53016
G1 X32.343 Y102.261 E16.62128
G1 X31.928 Y99.569 E16.71187
G1 X31.434 Y96.878 E16.80287
G1 X30.864 Y94.202 E16.89387
G1 X30.231 Y91.591 E16.98323
G1 X29.513 Y88.958 E17.074
G1 X28.733 Y86.413 E17.16253
G1 X28.718 Y86.363 E17.16427
G1 X28.464 Y85.489 E17.19454
G1 X28.37 Y85.074 E17.20869
G1 X28.139 Y83.684 E17.25556
G1 X27.998 Y82.872 E17.28297
G1 X27.947 Y82.387 E17.29919
G1 X27.931 Y81.943 E17.31397
G1 X27.952 Y81.407 E17.33181
G1 X28.052 Y80.88 E17.34965
G1 X28.229 Y80.374 E17.36748
G1 X28.603 Y79.715 E17.39268
G1 X28.75 Y79.51 E17.40107
G1 X29.095 Y79.099 E17.41892
G1 X29.671 Y78.618 E17.44388
G1 X29.929 Y78.445 E17.45421
G1 X30.46 Y78.151 E17.4744
G1 X31.084 Y77.871 E17.49714
G0 F3600 X31.248 Y78.235
G1 F1350 X31.687 Y78.076 E17.51267
G1 X32.751 Y77.775 E17.54945
G1 X32.818 Y77.757 E17.55176
G1 X33.536 Y77.57 E17.57644
G1 X36.191 Y76.801 E17.66837
G1 X38.795 Y75.966 E17.75932
G1 X41.377 Y75.056 E17.85038
G1 X43.941 Y74.07 E17.94175
G1 X46.443 Y73.026 E18.03192
G1 X48.959 Y71.893 E18.12369
G1 X51.41 Y70.703 E18.21431
G1 X53.853 Y69.43 E18.30594
G1 X56.252 Y68.093 E18.39728
G1 X58.592 Y66.702 E18.48783
G1 X60.892 Y65.243 E18.57842
G1 X63.177 Y63.703 E18.67007
G1 X65.412 Y62.102 E18.76151
G1 X66.767 Y61.084 E18.81788
G1 X67.744 Y60.336 E18.8588
G1 X67.92 Y60.21 E18.866
G1 X68.716 Y59.682 E18.89777
G1 X68.768 Y59.649 E18.89982
G1 X69.018 Y59.49 E18.90967
G1 X69.055 Y59.467 E18.91112
G1 X70.802 Y58.389 E18.9794
G1 X70.9 Y58.33 E18.9832
G1 X71.679 Y57.887 E19.01301
G1 X71.772 Y57.836 E19.01654
G1 X72.145 Y57.64 E19.03055
G1 X72.231 Y57.597 E19.03375
G1 X72.602 Y57.416 E19.04748
G1 X72.727 Y57.358 E19.05206
G1 X73.03 Y57.226 E19.06306
G1 X73.508 Y57.062 E19.07986
G1 X73.829 Y56.996 E19.09076
G1 X74.1 Y56.955 E19.09988
G1 X74.605 Y56.919 E19.11672
G1 X75.108 Y56.963 E19.13351
G1 X75.73 Y57.133 E19.15496
G1 X75.948 Y57.217 E19.16273
G1 X76.403 Y57.435 E19.17951
G1 X76.819 Y57.723 E19.19634
