;FLAVOR:UltiGCode
;TIME:3874
;MATERIAL:9492
;MATERIAL2:0
;NOZZLE_DIAMETER:0.4
;MINX:30.2
;MINY:61.297
;MINZ:0.3
;MAXX:77.8
;MAXY:155.597
;MAXZ:18.9
;Generated with Cura_SteamEngine 4.3.0
M82 ;absolute extrusion mode
;Basic settings: Layer height: 0.2 Walls: 0.8 Fill: {fill_density}
;Print time: 01:04:34
;Filament used: [1.49, 0.0]m [11.770468710937498, 0.0]g
;Filament cost: [0.0, 0.0]
;M190 S60 ;Uncomment to add your own bed temperature line
;M109 S200 ;Uncomment to add your own temperature line
G21        ;metric values
G90        ;absolute positioning
M82        ;set extruder to absolute mode
M107       ;start with the fan off
G28 X0 Y0  ;move X/Y to min endstops
G28 Z0     ;move Z to min endstops
G1 X0 Y0 Z15.0 F120 ;move the platform down 15mm
; Prime the T0 nozzle
G92 E0
G0 X-3 Y10 Z0.2 F1000
G1 Y70 E9 F1000
G1 Y110 E12.5 F1000
G0 X-2.5
G1 Y10 E25 F1000
G10
G0 X0 Y0 Z10 F1000
G11
G92 E0                  ;zero the extruded length again
; End Prime
G1 F120
;Put printing message on LCD screen
M117 Printing...
G92 E0
G92 E0
G10
;LAYER_COUNT:94
;LAYER:0
M107
G0 F3600 X37.072 Y62.56 Z0.3
;TYPE:SKIRT
G11
G1 F1800 X37.535 Y62.312 E0.06303
G1 X37.885 Y62.139 E0.10988
G1 X38.609 Y61.825 E0.20458
G1 X39.362 Y61.586 E0.29938
G1 X40.135 Y61.425 E0.39413
G1 X40.891 Y61.344 E0.48537
G1 X41.479 Y61.31 E0.55605
G1 X41.929 Y61.297 E0.61007
G1 X47.298 Y61.297 E1.25435
G1 X48.087 Y61.337 E1.34915
G1 X48.749 Y61.433 E1.42942
G1 X49.124 Y61.504 E1.47522
G1 X49.891 Y61.69 E1.56993
G1 X50.636 Y61.953 E1.66474
G1 X50.73 Y61.997 E1.67719
G1 X58.176 Y61.997 E2.57071
G1 X58.724 Y61.797 E2.64071
G1 X59.084 Y61.681 E2.6861
G1 X59.847 Y61.477 E2.78088
G1 X60.626 Y61.351 E2.87557
G1 X61.465 Y61.305 E2.9764
G1 X67.288 Y61.297 E3.67516
G1 X68.077 Y61.336 E3.76996
G1 X68.675 Y61.419 E3.84241
G1 X69.021 Y61.481 E3.88459
G1 X69.79 Y61.66 E3.97934
G1 X70.537 Y61.915 E4.07406
G1 X71.554 Y62.409 E4.20973
G1 X71.851 Y62.581 E4.25092
G1 X72.513 Y63.011 E4.34564
G1 X73.129 Y63.506 E4.44047
G1 X73.691 Y64.06 E4.53517
G1 X74.013 Y64.434 E4.59439
G1 X74.259 Y64.739 E4.64141
G1 X74.723 Y65.378 E4.73618
G1 X75.12 Y66.061 E4.83098
G1 X75.446 Y66.78 E4.92571
G1 X75.638 Y67.325 E4.99505
G1 X75.741 Y67.657 E5.03676
G1 X75.822 Y67.976 E5.07626
G1 X75.855 Y68.024 E5.08325
G1 X76.178 Y68.572 E5.15958
G1 X76.624 Y69.453 E5.27808
G1 X76.875 Y70.037 E5.35436
G1 X77.206 Y70.964 E5.47247
G1 X77.382 Y71.577 E5.54901
G1 X77.597 Y72.563 E5.67011
G1 X77.692 Y73.191 E5.74632
G1 X77.779 Y74.227 E5.87108
G1 X77.799 Y75.414 E6.01354
G1 X77.8 Y75.545 E6.02926
G1 X77.8 Y141.796 E13.97938
G1 X77.785 Y142.283 E14.03785
G1 X77.746 Y142.907 E14.11288
G1 X77.62 Y143.896 E14.23252
G1 X77.499 Y144.524 E14.30926
G1 X77.26 Y145.452 E14.42426
G1 X77.065 Y146.054 E14.50019
G1 X76.691 Y146.996 E14.62181
G1 X76.417 Y147.573 E14.69846
G1 X75.922 Y148.46 E14.82036
G1 X75.92 Y148.463 E14.82079
G1 X75.806 Y149.036 E14.8909
G1 X75.575 Y149.791 E14.98564
G1 X75.27 Y150.519 E15.08036
G1 X74.91 Y151.182 E15.17089
G1 X74.708 Y151.515 E15.21763
G1 X74.265 Y152.169 E15.31242
G1 X73.758 Y152.774 E15.40714
G1 X73.192 Y153.325 E15.50193
G1 X72.797 Y153.651 E15.56339
G1 X72.519 Y153.865 E15.60549
G1 X71.87 Y154.314 E15.70019
G1 X71.178 Y154.696 E15.79504
G1 X70.106 Y155.123 E15.93351
G1 X69.776 Y155.227 E15.97503
G1 X69.011 Y155.426 E16.06989
G1 X68.231 Y155.547 E16.16461
G1 X67.444 Y155.588 E16.25917
G1 X61.943 Y155.597 E16.9193
G1 X61.697 Y155.594 E16.94882
G1 X61.194 Y155.579 E17.0092
G1 X60.407 Y155.515 E17.10396
G1 X59.631 Y155.372 E17.19864
G1 X58.742 Y155.105 E17.31003
G1 X58.412 Y154.984 E17.35221
G1 X57.685 Y154.675 E17.447
G1 X57.543 Y154.597 E17.46644
G1 X51.357 Y154.597 E18.20876
G1 X50.823 Y154.861 E18.28025
G1 X49.748 Y155.236 E18.41687
G1 X49.413 Y155.326 E18.4585
G1 X48.641 Y155.492 E18.55325
G1 X47.856 Y155.579 E18.64803
G1 X47.395 Y155.593 E18.70338
G1 X41.936 Y155.597 E19.35846
G1 X41.697 Y155.594 E19.38714
G1 X41.194 Y155.579 E19.44753
G1 X40.407 Y155.515 E19.54228
G1 X39.631 Y155.372 E19.63697
G1 X38.742 Y155.105 E19.74835
G1 X38.412 Y154.984 E19.79053
G1 X37.685 Y154.675 E19.88532
G1 X36.993 Y154.294 E19.98012
G1 X36.344 Y153.845 E20.07482
G1 X35.958 Y153.529 E20.13468
G1 X35.668 Y153.275 E20.18094
G1 X35.101 Y152.725 E20.27573
G1 X34.592 Y152.121 E20.37052
G1 X34.148 Y151.468 E20.46528
G1 X33.875 Y150.984 E20.53196
G1 X33.714 Y150.672 E20.57409
G1 X33.643 Y150.515 E20.59477
G1 X33.416 Y150.271 E20.63476
G1 X32.786 Y149.502 E20.75405
G1 X32.412 Y148.98 E20.83111
G1 X31.871 Y148.109 E20.95415
G1 X31.569 Y147.543 E21.03113
G1 X31.161 Y146.646 E21.14939
G1 X30.933 Y146.047 E21.2263
G1 X30.64 Y145.101 E21.34514
G1 X30.49 Y144.479 E21.42192
G1 X30.317 Y143.477 E21.54394
G1 X30.249 Y142.839 E21.62093
G1 X30.205 Y142.026 E21.71863
G1 X30.2 Y139.177 E22.06051
G1 X30.2 Y74.797 E29.78611
G1 X30.215 Y74.314 E29.8441
G1 X30.254 Y73.686 E29.91961
G1 X30.383 Y72.679 E30.04143
G1 X30.506 Y72.047 E30.1187
G1 X30.748 Y71.115 E30.23425
G1 X30.946 Y70.509 E30.31075
G1 X31.331 Y69.55 E30.43476
G1 X31.61 Y68.97 E30.51199
G1 X32.099 Y68.1 E30.63175
G1 X32.45 Y67.56 E30.70904
G1 X33.041 Y66.766 E30.82781
G1 X33.454 Y66.279 E30.90444
G1 X33.943 Y65.772 E30.98897
G1 X34.306 Y65.176 E31.07271
G1 X35 Y64.298 E31.20701
G1 X35.234 Y64.042 E31.24863
G1 X35.795 Y63.486 E31.34341
G1 X36.41 Y62.991 E31.43814
G1 X37.072 Y62.56 E31.53294
G0 F3600 X37.325 Y62.876
G1 F1800 X37.712 Y62.67 E31.58555
G1 X38.062 Y62.497 E31.6324
G1 X38.768 Y62.193 E31.72464
G1 X39.502 Y61.963 E31.81694
G1 X40.256 Y61.811 E31.90924
G1 X40.914 Y61.743 E31.98862
G1 X41.502 Y61.709 E32.0593
G1 X41.929 Y61.697 E32.11056
G1 X47.298 Y61.697 E32.75484
G1 X48.066 Y61.737 E32.84712
G1 X48.675 Y61.826 E32.92098
G1 X49.05 Y61.897 E32.96678
G1 X49.797 Y62.079 E33.05904
G1 X50.521 Y62.338 E33.15131
G1 X50.644 Y62.397 E33.16768
G1 X58.266 Y62.397 E34.08232
G1 X58.359 Y62.354 E34.09462
G1 X58.846 Y62.178 E34.15676
G1 X59.206 Y62.062 E34.20214
G1 X59.95 Y61.864 E34.29453
G1 X60.71 Y61.745 E34.38684
G1 X61.466 Y61.705 E34.47769
G1 X67.289 Y61.697 E35.17645
G1 X68.057 Y61.736 E35.26873
G1 X68.604 Y61.813 E35.33502
G1 X68.95 Y61.875 E35.3772
G1 X69.699 Y62.05 E35.4695
G1 X70.426 Y62.301 E35.56179
G1 X71.354 Y62.755 E35.68576
G1 X71.651 Y62.927 E35.72695
G1 X72.295 Y63.347 E35.81921
G1 X72.893 Y63.831 E35.91153
G1 X73.437 Y64.375 E36.00385
G1 X73.702 Y64.685 E36.05279
G1 X73.948 Y64.99 E36.09981
G1 X74.399 Y65.613 E36.1921
G1 X74.783 Y66.28 E36.28446
G1 X75.096 Y66.982 E36.3767
G1 X75.256 Y67.443 E36.43525
G1 X75.359 Y67.775 E36.47697
G1 X75.452 Y68.142 E36.5224
G1 X75.51 Y68.227 E36.53475
G1 X75.833 Y68.775 E36.61108
G1 X76.257 Y69.611 E36.72356
G1 X76.508 Y70.195 E36.79984
G1 X76.822 Y71.075 E36.91196
G1 X76.998 Y71.688 E36.9885
G1 X77.202 Y72.623 E37.10334
G1 X77.297 Y73.251 E37.17955
G1 X77.379 Y74.233 E37.2978
G1 X77.399 Y75.42 E37.44026
G1 X77.4 Y75.545 E37.45526
G1 X77.4 Y141.796 E45.40538
G1 X77.386 Y142.258 E45.46085
G1 X77.347 Y142.882 E45.53588
G1 X77.227 Y143.82 E45.64935
G1 X77.106 Y144.448 E45.7261
G1 X76.88 Y145.328 E45.83513
G1 X76.685 Y145.93 E45.91106
G1 X76.33 Y146.824 E46.02649
G1 X76.056 Y147.401 E46.10314
G1 X75.586 Y148.243 E46.21886
G1 X75.543 Y148.31 E46.22841
G1 X75.413 Y148.958 E46.30772
G1 X75.186 Y149.693 E46.40003
G1 X74.883 Y150.4 E46.49233
G1 X74.568 Y150.975 E46.57101
G1 X74.366 Y151.308 E46.61774
G1 X73.933 Y151.944 E46.71007
G1 X73.437 Y152.532 E46.80238
G1 X72.883 Y153.065 E46.89464
G1 X72.553 Y153.334 E46.94573
G1 X72.275 Y153.548 E46.98783
G1 X71.642 Y153.985 E47.08013
G1 X70.967 Y154.354 E47.17244
G1 X69.985 Y154.742 E47.29915
G1 X69.655 Y154.846 E47.34067
G1 X68.911 Y155.039 E47.4329
G1 X68.15 Y155.153 E47.52524
G1 X67.443 Y155.188 E47.61018
G1 X61.942 Y155.197 E48.27031
G1 X61.709 Y155.194 E48.29827
G1 X61.206 Y155.179 E48.35865
G1 X60.44 Y155.116 E48.45089
G1 X59.684 Y154.974 E48.54319
G1 X58.88 Y154.73 E48.64402
G1 X58.55 Y154.609 E48.68619
G1 X57.842 Y154.307 E48.77856
G1 X57.644 Y154.197 E48.80574
G1 X51.265 Y154.197 E49.57122
G1 X50.628 Y154.51 E49.65639
G1 X49.644 Y154.85 E49.78132
G1 X49.309 Y154.94 E49.82295
G1 X48.557 Y155.1 E49.91521
G1 X47.792 Y155.182 E50.00753
G1 X47.394 Y155.193 E50.05531
G1 X41.935 Y155.197 E50.71039
G1 X41.709 Y155.194 E50.73751
G1 X41.206 Y155.179 E50.7979
G1 X40.44 Y155.116 E50.89013
G1 X39.684 Y154.974 E50.98244
G1 X38.88 Y154.73 E51.08326
G1 X38.55 Y154.609 E51.12544
G1 X37.842 Y154.307 E51.21781
G1 X37.17 Y153.933 E51.31009
G1 X36.54 Y153.491 E51.40244
G1 X36.221 Y153.228 E51.45206
G1 X35.931 Y152.974 E51.49832
G1 X35.38 Y152.438 E51.59056
G1 X34.887 Y151.847 E51.68292
G1 X34.458 Y151.209 E51.77518
G1 X34.231 Y150.8 E51.83131
G1 X34.07 Y150.488 E51.87344
G1 X33.982 Y150.294 E51.899
G1 X33.708 Y149.999 E51.94732
G1 X33.112 Y149.269 E52.0604
G1 X32.738 Y148.747 E52.13746
G1 X32.224 Y147.921 E52.25421
G1 X31.922 Y147.355 E52.33119
G1 X31.535 Y146.503 E52.44348
G1 X31.307 Y145.904 E52.52039
G1 X31.029 Y145.007 E52.63309
G1 X30.879 Y144.385 E52.70986
G1 X30.715 Y143.434 E52.82567
G1 X30.647 Y142.796 E52.90266
G1 X30.605 Y142.025 E52.99532
G1 X30.6 Y139.176 E53.3372
G1 X30.6 Y74.797 E61.06268
G1 X30.614 Y74.338 E61.11779
G1 X30.653 Y73.71 E61.19329
G1 X30.775 Y72.755 E61.30882
G1 X30.898 Y72.123 E61.38609
G1 X31.128 Y71.239 E61.4957
G1 X31.326 Y70.633 E61.5722
G1 X31.691 Y69.723 E61.68986
G1 X31.97 Y69.143 E61.76709
G1 X32.435 Y68.318 E61.88073
G1 X32.786 Y67.778 E61.95802
G1 X33.346 Y67.025 E62.07063
G1 X33.759 Y66.538 E62.14725
G1 X34.257 Y66.022 E62.23331
G1 X34.659 Y65.367 E62.32553
G1 X35.295 Y64.567 E62.44817
G1 X35.529 Y64.311 E62.48979
G1 X36.077 Y63.771 E62.58211
G1 X36.678 Y63.291 E62.67441
G1 X37.325 Y62.876 E62.76665
G0 F3600 X37.889 Y63.029
G1 F1800 X38.239 Y62.856 E62.8135
G1 X38.927 Y62.561 E62.90333
G1 X39.642 Y62.34 E62.99314
G1 X40.376 Y62.198 E63.08285
G1 X40.937 Y62.143 E63.15049
G1 X41.525 Y62.109 E63.22117
G1 X41.929 Y62.097 E63.26967
G1 X47.298 Y62.097 E63.91395
G1 X48.045 Y62.137 E64.00372
G1 X48.6 Y62.219 E64.07104
G1 X48.975 Y62.29 E64.11684
G1 X49.702 Y62.468 E64.20666
G1 X50.405 Y62.723 E64.2964
G1 X50.556 Y62.797 E64.31658
G1 X58.356 Y62.797 E65.25258
G1 X58.565 Y62.702 E65.28013
G1 X58.969 Y62.558 E65.33159
G1 X59.329 Y62.442 E65.37698
G1 X60.052 Y62.251 E65.46672
G1 X60.792 Y62.139 E65.55653
G1 X61.466 Y62.105 E65.63751
G1 X67.289 Y62.097 E66.33627
G1 X68.036 Y62.136 E66.42603
G1 X68.534 Y62.207 E66.4864
G1 X68.88 Y62.269 E66.52858
G1 X69.608 Y62.44 E66.61832
G1 X70.314 Y62.688 E66.70811
G1 X71.153 Y63.101 E66.82033
G1 X71.45 Y63.273 E66.86151
G1 X72.076 Y63.682 E66.95125
G1 X72.656 Y64.156 E67.04113
G1 X73.391 Y64.936 E67.16974
G1 X73.637 Y65.241 E67.21676
G1 X74.074 Y65.848 E67.30652
G1 X74.445 Y66.498 E67.39633
G1 X74.744 Y67.183 E67.48602
G1 X74.874 Y67.562 E67.5341
G1 X74.977 Y67.894 E67.57581
G1 X75.082 Y68.308 E67.62706
G1 X75.165 Y68.431 E67.64487
G1 X75.488 Y68.979 E67.7212
G1 X75.889 Y69.769 E67.82752
G1 X76.14 Y70.353 E67.90379
G1 X76.437 Y71.185 E68.00981
G1 X76.613 Y71.798 E68.08634
G1 X76.806 Y72.683 E68.19503
G1 X76.901 Y73.311 E68.27125
G1 X76.979 Y74.24 E68.38312
G1 X76.999 Y75.427 E68.52558
G1 X77 Y75.545 E68.53974
G1 X77 Y141.796 E76.48986
G1 X76.986 Y142.233 E76.54233
G1 X76.947 Y142.857 E76.61736
G1 X76.835 Y143.744 E76.72464
G1 X76.714 Y144.372 E76.80139
G1 X76.499 Y145.205 E76.90462
G1 X76.304 Y145.807 E76.98056
G1 X75.968 Y146.653 E77.08979
G1 X75.694 Y147.23 E77.16644
G1 X75.25 Y148.026 E77.27582
G1 X75.166 Y148.156 E77.29439
G1 X75.021 Y148.88 E77.383
G1 X74.796 Y149.593 E77.47272
G1 X74.496 Y150.279 E77.56256
G1 X74.226 Y150.768 E77.62959
G1 X74.024 Y151.101 E77.67633
G1 X73.602 Y151.718 E77.76603
G1 X73.117 Y152.288 E77.85584
G1 X72.309 Y153.017 E77.98643
G1 X72.031 Y153.231 E78.02853
G1 X71.415 Y153.655 E78.11827
G1 X70.757 Y154.011 E78.20805
G1 X69.865 Y154.36 E78.32299
G1 X69.535 Y154.464 E78.36451
G1 X68.811 Y154.651 E78.45424
G1 X68.07 Y154.759 E78.5441
G1 X67.442 Y154.788 E78.61954
G1 X61.941 Y154.797 E79.27966
G1 X61.721 Y154.794 E79.30606
G1 X61.218 Y154.779 E79.36645
G1 X60.473 Y154.717 E79.45616
G1 X59.738 Y154.575 E79.54599
G1 X59.017 Y154.354 E79.63648
G1 X58.687 Y154.233 E79.67866
G1 X58 Y153.938 E79.76838
G1 X57.748 Y153.797 E79.80303
G1 X51.162 Y153.797 E80.59335
G1 X51.106 Y153.832 E80.60128
G1 X50.433 Y154.158 E80.69101
G1 X49.54 Y154.463 E80.80425
G1 X49.205 Y154.553 E80.84587
G1 X48.473 Y154.708 E80.93566
G1 X47.394 Y154.793 E81.06554
G1 X41.935 Y154.797 E81.72062
G1 X41.721 Y154.794 E81.74631
G1 X41.218 Y154.779 E81.80669
G1 X40.473 Y154.717 E81.8964
G1 X39.738 Y154.575 E81.98623
G1 X39.017 Y154.354 E82.07673
G1 X38.687 Y154.233 E82.1189
G1 X38 Y153.938 E82.20862
G1 X37.347 Y153.572 E82.29845
G1 X36.485 Y152.927 E82.42764
G1 X36.195 Y152.673 E82.47391
G1 X35.659 Y152.151 E82.56369
G1 X35.182 Y151.574 E82.65352
G1 X34.77 Y150.95 E82.74325
G1 X34.586 Y150.617 E82.78891
G1 X34.425 Y150.305 E82.83104
G1 X34.318 Y150.066 E82.86246
G1 X34.001 Y149.726 E82.91824
G1 X33.437 Y149.036 E83.02519
G1 X33.063 Y148.514 E83.10224
G1 X32.577 Y147.732 E83.21273
G1 X32.275 Y147.166 E83.28971
G1 X31.909 Y146.361 E83.39583
G1 X31.681 Y145.762 E83.47274
G1 X31.418 Y144.913 E83.5794
G1 X31.268 Y144.291 E83.65618
G1 X31.112 Y143.392 E83.76567
G1 X31.044 Y142.754 E83.84266
G1 X31.005 Y142.024 E83.93039
G1 X31 Y139.175 E84.27227
G1 X31 Y74.797 E91.99763
G1 X31.013 Y74.363 E92.04973
G1 X31.052 Y73.735 E92.12524
G1 X31.168 Y72.832 E92.23449
G1 X31.291 Y72.2 E92.31175
G1 X31.508 Y71.363 E92.41551
G1 X31.706 Y70.757 E92.49201
G1 X32.052 Y69.897 E92.60325
G1 X32.331 Y69.317 E92.68049
G1 X32.77 Y68.536 E92.788
G1 X33.121 Y67.996 E92.86528
G1 X33.651 Y67.284 E92.9718
G1 X34.064 Y66.797 E93.04842
G1 X34.592 Y66.251 E93.13957
G1 X34.618 Y66.196 E93.14687
G1 X35.012 Y65.56 E93.23664
G1 X35.59 Y64.837 E93.34772
G1 X35.824 Y64.581 E93.38934
G1 X36.358 Y64.057 E93.47912
G1 X36.944 Y63.592 E93.56889
G1 X37.889 Y63.029 E93.70089
G0 F3600 X38.066 Y63.387
G1 F1800 X38.416 Y63.214 E93.74774
G1 X39.084 Y62.929 E93.83489
G1 X39.78 Y62.718 E93.92216
G1 X40.494 Y62.586 E94.0093
G1 X40.96 Y62.542 E94.06546
G1 X41.548 Y62.508 E94.13614
G1 X41.929 Y62.497 E94.18188
G1 X47.298 Y62.497 E94.82616
G1 X48.023 Y62.537 E94.91329
G1 X48.526 Y62.612 E94.97432
G1 X48.901 Y62.683 E95.02012
G1 X49.606 Y62.857 E95.10726
G1 X50.288 Y63.108 E95.19447
G1 X50.467 Y63.197 E95.21845
G1 X58.469 Y63.197 E96.17869
G1 X59.092 Y62.939 E96.25961
G1 X59.452 Y62.823 E96.305
G1 X60.154 Y62.639 E96.39208
G1 X60.873 Y62.533 E96.4793
G1 X61.467 Y62.505 E96.55066
G1 X67.29 Y62.497 E97.24942
G1 X68.015 Y62.536 E97.33654
G1 X68.463 Y62.6 E97.39085
G1 X68.809 Y62.662 E97.43303
G1 X69.516 Y62.83 E97.52023
G1 X70.2 Y63.074 E97.60738
G1 X70.953 Y63.448 E97.70827
G1 X71.25 Y63.62 E97.74945
G1 X71.857 Y64.018 E97.83656
G1 X72.417 Y64.48 E97.92367
G1 X73.079 Y65.188 E98.03999
G1 X73.325 Y65.493 E98.08701
G1 X73.749 Y66.082 E98.1741
G1 X74.106 Y66.715 E98.26131
G1 X74.492 Y67.68 E98.38603
G1 X74.595 Y68.012 E98.42774
G1 X74.709 Y68.47 E98.48438
G1 X74.821 Y68.634 E98.50821
G1 X75.144 Y69.182 E98.58454
G1 X75.522 Y69.927 E98.68479
G1 X75.773 Y70.511 E98.76107
G1 X76.053 Y71.296 E98.86108
G1 X76.229 Y71.909 E98.93761
G1 X76.411 Y72.743 E99.04005
G1 X76.506 Y73.371 E99.11627
G1 X76.579 Y74.247 E99.22175
G1 X76.599 Y75.434 E99.36421
G1 X76.6 Y75.545 E99.37753
G1 X76.6 Y141.796 E107.32765
G1 X76.587 Y142.208 E107.37712
G1 X76.548 Y142.832 E107.45214
G1 X76.442 Y143.669 E107.55338
G1 X76.321 Y144.297 E107.63013
G1 X76.119 Y145.082 E107.7274
G1 X75.924 Y145.684 E107.80333
G1 X75.607 Y146.481 E107.90626
G1 X75.333 Y147.058 E107.98291
G1 X74.914 Y147.809 E108.08611
G1 X74.783 Y148.012 E108.1151
G1 X74.772 Y148.088 E108.12432
G1 X74.628 Y148.8 E108.21149
G1 X74.406 Y149.492 E108.29869
G1 X74.11 Y150.155 E108.38582
G1 X73.884 Y150.56 E108.44148
G1 X73.682 Y150.893 E108.48822
G1 X73.272 Y151.492 E108.57532
G1 X72.798 Y152.043 E108.66254
G1 X72.065 Y152.7 E108.78066
G1 X71.787 Y152.914 E108.82276
G1 X71.188 Y153.325 E108.90993
G1 X70.547 Y153.667 E108.99712
G1 X69.745 Y153.979 E109.10038
