;FLAVOR:Marlin
;TIME:13958
;Filament used: 8.45129m, 0m
;Layer height: 0.2
;MINX:20.5
;MINY:36.126
;MINZ:0.3
;MAXX:88.853
;MAXY:178.922
;MAXZ:31.9
;Generated with Cura_SteamEngine 4.2.1
T0
M140 S70
M105
M190 S70
M104 S220
M105
M109 S220
M82 ;absolute extrusion mode

G21        ;metric values
G90        ;absolute positioning
M82        ;set extruder to absolute mode
M107       ;start with the fan off
G28 X0 Y0  ;move X/Y to min endstops
G28 Z0     ;move Z to min endstops
G1 X0 Y0 Z15.0 F120 ;move the platform down 15mm
G92 E0                  ;zero the extruded length
G1 F200 E25              ;extrude 3mm of feed stock
G92 E0                  ;zero the extruded length again
G1 F8000
M117 Printing...
G92 E0
G92 E0
G1 F1500 E-6.5
;LAYER_COUNT:154
;LAYER:0
M107
G0 F3600 X28.823 Y39.699 Z0.3
;TYPE:SKIRT
G1 F1500 E0
G1 F1200 X29.348 Y39.315 E0.03245
G1 X29.737 Y39.064 E0.05555
G1 X30.427 Y38.673 E0.09511
G1 X30.473 Y38.647 E0.09775
G1 X31.03 Y38.341 E0.12946
G1 X31.083 Y38.313 E0.13245
G1 X31.717 Y37.977 E0.16825
G1 X32.13 Y37.787 E0.19093
G1 X32.834 Y37.511 E0.22865
G1 X32.888 Y37.49 E0.23154
G1 X33.474 Y37.27 E0.26277
G1 X33.529 Y37.25 E0.26569
G1 X34.245 Y36.993 E0.30364
G1 X34.675 Y36.865 E0.32603
G1 X35.402 Y36.693 E0.3633
G1 X35.469 Y36.678 E0.36672
G1 X36.151 Y36.529 E0.40155
G1 X36.196 Y36.52 E0.40384
G1 X36.874 Y36.38 E0.43838
G1 X37.335 Y36.312 E0.46163
G1 X38.045 Y36.25 E0.49718
G1 X38.095 Y36.246 E0.49969
G1 X38.844 Y36.19 E0.53716
G1 X38.902 Y36.186 E0.54006
G1 X39.585 Y36.145 E0.5742
G1 X39.702 Y36.14 E0.58004
G1 X39.961 Y36.132 E0.59297
G1 X40.083 Y36.13 E0.59905
G1 X69.14 Y36.126 E2.04871
G1 X69.195 Y36.126 E2.05146
G1 X69.93 Y36.136 E2.08813
G1 X70.049 Y36.14 E2.09407
G1 X70.326 Y36.152 E2.1079
G1 X70.437 Y36.158 E2.11345
G1 X71.534 Y36.236 E2.16832
G1 X71.587 Y36.24 E2.17097
G1 X72.272 Y36.298 E2.20526
G1 X72.709 Y36.36 E2.22728
G1 X73.373 Y36.491 E2.26105
G1 X73.438 Y36.504 E2.26436
G1 X74.226 Y36.673 E2.30456
G1 X74.285 Y36.686 E2.30758
G1 X74.919 Y36.832 E2.34004
G1 X75.348 Y36.956 E2.36232
G1 X76.059 Y37.206 E2.39992
G1 X76.123 Y37.23 E2.40333
G1 X76.77 Y37.47 E2.43776
G1 X76.826 Y37.491 E2.44074
G1 X77.496 Y37.751 E2.47659
G1 X77.906 Y37.937 E2.49906
G1 X78.53 Y38.264 E2.5342
G1 X78.579 Y38.29 E2.53697
G1 X79.236 Y38.646 E2.57425
G1 X79.286 Y38.674 E2.57711
G1 X79.871 Y39.002 E2.61057
G1 X80.257 Y39.248 E2.63341
G1 X80.862 Y39.685 E2.67064
G1 X80.91 Y39.721 E2.67363
G1 X81.448 Y40.122 E2.70711
G1 X81.493 Y40.155 E2.70989
G1 X82.073 Y40.6 E2.74637
G1 X82.419 Y40.899 E2.76918
G1 X82.94 Y41.403 E2.80535
G1 X82.978 Y41.44 E2.80799
G1 X83.444 Y41.903 E2.84076
G1 X83.485 Y41.945 E2.84369
G1 X84.01 Y42.482 E2.88116
G1 X84.309 Y42.825 E2.90386
G1 X84.747 Y43.389 E2.93949
G1 X84.784 Y43.437 E2.94251
G1 X85.231 Y44.031 E2.9796
G1 X85.264 Y44.075 E2.98234
G1 X85.664 Y44.622 E3.01615
G1 X85.911 Y45.004 E3.03885
G1 X86.277 Y45.647 E3.07576
G1 X86.307 Y45.7 E3.0788
G1 X86.635 Y46.297 E3.11278
G1 X86.661 Y46.345 E3.1155
G1 X86.996 Y46.975 E3.1511
G1 X87.188 Y47.392 E3.17401
G1 X87.487 Y48.154 E3.21484
G1 X87.507 Y48.207 E3.21767
G1 X87.698 Y48.715 E3.24475
G1 X87.717 Y48.767 E3.24751
G1 X87.984 Y49.508 E3.2868
G1 X88.115 Y49.95 E3.3098
G1 X88.292 Y50.704 E3.34844
G1 X88.305 Y50.761 E3.35136
G1 X88.438 Y51.367 E3.38231
G1 X88.45 Y51.424 E3.38522
G1 X88.6 Y52.159 E3.42265
G1 X88.665 Y52.606 E3.44518
G1 X88.729 Y53.329 E3.48139
G1 X88.734 Y53.382 E3.48405
G1 X88.786 Y54.074 E3.51867
G1 X88.789 Y54.127 E3.52132
G1 X88.814 Y54.531 E3.54151
G1 X88.821 Y54.679 E3.5489
G1 X88.852 Y55.927 E3.61119
G1 X88.853 Y56.026 E3.61613
G1 X88.853 Y95.219 E5.57147
G1 X88.843 Y95.924 E5.60665
G1 X88.839 Y96.037 E5.61229
G1 X88.83 Y96.249 E5.62288
G1 X88.818 Y96.435 E5.63217
G1 X88.768 Y96.995 E5.66022
G1 X88.756 Y97.112 E5.66609
G1 X88.674 Y97.801 E5.70071
G1 X88.389 Y100.516 E5.83691
G1 X88.182 Y103.208 E5.97161
G1 X88.051 Y105.92 E6.10707
G1 X87.997 Y108.626 E6.2421
G1 X88.02 Y111.367 E6.37885
G1 X88.118 Y114.042 E6.5124
G1 X88.298 Y116.813 E6.65093
G1 X88.464 Y118.683 E6.74459
G1 X88.475 Y118.829 E6.7519
G1 X88.491 Y119.137 E6.76729
G1 X88.496 Y119.3 E6.77542
G1 X88.5 Y119.657 E6.79323
G1 X88.5 Y119.702 E6.79548
G1 X88.497 Y159.252 E8.76864
G1 X88.497 Y159.309 E8.77148
G1 X88.487 Y160.012 E8.80656
G1 X88.484 Y160.113 E8.8116
G1 X88.474 Y160.366 E8.82423
G1 X88.468 Y160.474 E8.82963
G1 X88.454 Y160.684 E8.84013
G1 X88.452 Y160.713 E8.84158
G1 X88.383 Y161.646 E8.88825
G1 X88.378 Y161.705 E8.89121
G1 X88.313 Y162.436 E8.92782
G1 X88.249 Y162.88 E8.9502
G1 X88.098 Y163.622 E8.98798
G1 X88.085 Y163.683 E8.99109
G1 X87.936 Y164.361 E9.02572
G1 X87.923 Y164.416 E9.02854
G1 X87.77 Y165.068 E9.06195
G1 X87.644 Y165.497 E9.08426
G1 X87.387 Y166.218 E9.12245
G1 X87.365 Y166.277 E9.12559
G1 X87.136 Y166.889 E9.15819
G1 X87.113 Y166.949 E9.16139
G1 X86.844 Y167.634 E9.19811
G1 X86.658 Y168.039 E9.22034
G1 X86.308 Y168.702 E9.25775
G1 X86.279 Y168.757 E9.26085
G1 X85.971 Y169.319 E9.29282
G1 X85.944 Y169.368 E9.29561
G1 X85.577 Y170.016 E9.33277
G1 X85.328 Y170.402 E9.35568
G1 X84.881 Y171.015 E9.39353
G1 X84.846 Y171.062 E9.39646
G1 X84.458 Y171.578 E9.42867
G1 X84.424 Y171.623 E9.43148
G1 X83.971 Y172.208 E9.46839
G1 X83.672 Y172.551 E9.4911
G1 X83.168 Y173.068 E9.52712
G1 X83.126 Y173.11 E9.53008
G1 X82.648 Y173.586 E9.56374
G1 X82.608 Y173.626 E9.56656
G1 X82.077 Y174.14 E9.60343
G1 X81.735 Y174.436 E9.62599
G1 X81.14 Y174.894 E9.66345
G1 X81.092 Y174.93 E9.66645
G1 X80.529 Y175.35 E9.70149
G1 X80.479 Y175.387 E9.70459
G1 X79.928 Y175.785 E9.7385
G1 X79.55 Y176.027 E9.7609
G1 X78.913 Y176.386 E9.79738
G1 X78.86 Y176.415 E9.80039
G1 X78.233 Y176.756 E9.836
G1 X78.184 Y176.782 E9.83877
G1 X77.57 Y177.105 E9.87338
G1 X77.156 Y177.294 E9.89608
G1 X76.44 Y177.572 E9.9344
G1 X76.381 Y177.594 E9.93754
G1 X75.757 Y177.825 E9.97074
G1 X75.705 Y177.844 E9.9735
G1 X75.034 Y178.082 E10.00902
G1 X74.596 Y178.21 E10.03179
G1 X73.876 Y178.376 E10.06865
G1 X73.818 Y178.389 E10.07162
G1 X73.111 Y178.541 E10.1077
G1 X73.063 Y178.551 E10.11014
G1 X72.425 Y178.68 E10.14262
G1 X71.988 Y178.743 E10.16464
G1 X71.306 Y178.804 E10.1988
G1 X71.235 Y178.81 E10.20236
G1 X70.48 Y178.864 E10.24012
G1 X70.419 Y178.868 E10.24317
G1 X69.723 Y178.907 E10.27795
G1 X69.61 Y178.911 E10.28359
G1 X69.286 Y178.92 E10.29976
G1 X69.175 Y178.922 E10.3053
G1 X40.169 Y178.92 E11.75242
G1 X40.113 Y178.92 E11.75521
G1 X39.405 Y178.91 E11.79054
G1 X39.297 Y178.907 E11.79593
G1 X39.029 Y178.896 E11.80931
G1 X38.903 Y178.889 E11.8156
G1 X37.773 Y178.807 E11.87213
G1 X37.71 Y178.801 E11.87528
G1 X36.988 Y178.737 E11.91145
G1 X36.542 Y178.672 E11.93393
G1 X35.816 Y178.524 E11.9709
G1 X35.757 Y178.512 E11.9739
G1 X35.042 Y178.355 E12.01042
G1 X34.988 Y178.343 E12.01318
G1 X34.356 Y178.195 E12.04557
G1 X33.923 Y178.067 E12.06809
G1 X33.175 Y177.8 E12.10772
G1 X33.112 Y177.777 E12.11106
G1 X32.535 Y177.56 E12.14182
G1 X32.483 Y177.54 E12.1446
G1 X31.789 Y177.268 E12.18179
G1 X31.376 Y177.079 E12.20445
G1 X30.721 Y176.732 E12.24143
G1 X30.671 Y176.704 E12.24429
G1 X30.062 Y176.37 E12.27894
G1 X30.013 Y176.343 E12.28173
G1 X29.404 Y175.998 E12.31665
G1 X29.018 Y175.749 E12.33957
G1 X28.4 Y175.298 E12.37773
G1 X28.354 Y175.264 E12.38059
G1 X27.806 Y174.852 E12.41479
G1 X27.76 Y174.817 E12.41768
G1 X27.223 Y174.401 E12.45157
G1 X26.879 Y174.102 E12.47431
G1 X26.3 Y173.537 E12.51467
G1 X26.256 Y173.493 E12.51777
G1 X25.816 Y173.05 E12.54892
G1 X25.784 Y173.017 E12.55121
G1 X25.287 Y172.505 E12.58681
G1 X24.984 Y172.154 E12.60995
G1 X24.535 Y171.569 E12.64674
G1 X24.502 Y171.526 E12.64944
G1 X24.082 Y170.963 E12.68449
G1 X24.049 Y170.918 E12.68727
G1 X23.639 Y170.352 E12.72214
G1 X23.392 Y169.966 E12.745
G1 X23.018 Y169.301 E12.78306
G1 X22.987 Y169.246 E12.78621
G1 X22.657 Y168.637 E12.82077
G1 X22.633 Y168.592 E12.82332
G1 X22.315 Y167.987 E12.85742
G1 X22.127 Y167.573 E12.8801
G1 X21.864 Y166.895 E12.91638
G1 X21.842 Y166.838 E12.91943
G1 X21.596 Y166.174 E12.95476
G1 X21.576 Y166.119 E12.95768
G1 X21.342 Y165.458 E12.99266
G1 X21.216 Y165.026 E13.01511
G1 X21.045 Y164.288 E13.0529
G1 X21.031 Y164.223 E13.05622
G1 X20.883 Y163.532 E13.09148
G1 X20.873 Y163.486 E13.09383
G1 X20.744 Y162.847 E13.12635
G1 X20.681 Y162.41 E13.14838
G1 X20.615 Y161.669 E13.18549
G1 X20.609 Y161.597 E13.1891
G1 X20.562 Y160.934 E13.22226
G1 X20.559 Y160.879 E13.225
G1 X20.517 Y160.144 E13.26173
G1 X20.512 Y160.033 E13.26728
G1 X20.502 Y159.691 E13.28435
G1 X20.5 Y159.574 E13.29018
G1 X20.502 Y119.871 E15.27098
G1 X20.502 Y119.815 E15.27377
G1 X20.512 Y119.107 E15.30909
G1 X20.52 Y118.917 E15.31858
G1 X20.54 Y118.593 E15.33478
G1 X20.551 Y118.452 E15.34183
G1 X20.595 Y117.999 E15.36454
G1 X20.6 Y117.945 E15.36725
G1 X20.921 Y115.055 E15.51231
G1 X21.144 Y112.324 E15.64902
G1 X21.286 Y109.661 E15.78206
G1 X21.355 Y106.916 E15.91906
G1 X21.346 Y104.207 E16.05421
G1 X21.261 Y101.501 E16.18928
G1 X21.097 Y98.768 E16.32587
G1 X20.909 Y96.645 E16.43221
G1 X20.902 Y96.565 E16.43621
G1 X20.873 Y96.141 E16.45742
G1 X20.865 Y95.948 E16.46705
G1 X20.853 Y95.347 E16.49704
G1 X20.852 Y95.255 E16.50163
G1 X20.853 Y94.934 E16.51765
G1 X20.853 Y55.776 E18.47125
G1 X20.863 Y55.069 E18.50652
G1 X20.867 Y54.953 E18.51231
G1 X20.882 Y54.606 E18.52964
G1 X20.888 Y54.495 E18.53519
G1 X20.964 Y53.428 E18.58856
G1 X20.969 Y53.37 E18.59146
G1 X21.028 Y52.683 E18.62586
G1 X21.091 Y52.241 E18.64814
G1 X21.242 Y51.486 E18.68655
G1 X21.396 Y50.773 E18.72294
G1 X21.407 Y50.724 E18.72545
G1 X21.562 Y50.047 E18.7601
G1 X21.691 Y49.602 E18.78321
G1 X21.944 Y48.889 E18.82096
G1 X21.965 Y48.832 E18.82399
G1 X22.202 Y48.195 E18.85789
G1 X22.22 Y48.147 E18.86045
G1 X22.473 Y47.493 E18.89544
G1 X22.661 Y47.078 E18.91817
G1 X23.016 Y46.401 E18.9563
G1 X23.046 Y46.347 E18.95939
G1 X23.372 Y45.748 E18.99341
G1 X23.394 Y45.707 E18.99573
G1 X23.732 Y45.103 E19.03026
G1 X23.983 Y44.71 E19.05353
G1 X24.411 Y44.119 E19.08993
G1 X24.442 Y44.076 E19.09258
G1 X24.876 Y43.493 E19.12884
G1 X24.914 Y43.444 E19.13193
G1 X25.326 Y42.908 E19.16566
G1 X25.621 Y42.566 E19.18819
G1 X26.147 Y42.022 E19.22594
G1 X26.186 Y41.983 E19.2287
G1 X26.659 Y41.507 E19.26217
G1 X26.702 Y41.464 E19.26521
G1 X27.211 Y40.967 E19.3007
G1 X27.553 Y40.669 E19.32333
G1 X28.147 Y40.208 E19.36084
G1 X28.195 Y40.171 E19.36387
G1 X28.78 Y39.731 E19.40039
G1 X28.823 Y39.699 E19.40306
G0 F3600 X29.059 Y40.022
G1 F1200 X29.584 Y39.638 E19.43551
G1 X29.934 Y39.412 E19.4563
G1 X30.624 Y39.021 E19.49586
G1 X30.666 Y38.998 E19.49825
G1 X31.223 Y38.692 E19.52996
G1 X31.27 Y38.666 E19.53264
G1 X31.904 Y38.33 E19.56844
G1 X32.276 Y38.159 E19.58886
G1 X32.98 Y37.883 E19.62659
G1 X33.029 Y37.865 E19.62919
G1 X33.615 Y37.645 E19.66042
G1 X33.664 Y37.627 E19.66303
G1 X34.38 Y37.37 E19.70098
G1 X34.767 Y37.255 E19.72112
G1 X35.494 Y37.083 E19.75839
G1 X35.555 Y37.069 E19.76151
G1 X36.237 Y36.92 E19.79634
G1 X36.277 Y36.911 E19.79839
G1 X36.955 Y36.771 E19.83293
G1 X37.37 Y36.711 E19.85385
G1 X38.08 Y36.649 E19.8894
G1 X38.125 Y36.645 E19.89166
G1 X38.874 Y36.589 E19.92913
G1 X38.926 Y36.585 E19.93173
G1 X39.609 Y36.544 E19.96587
G1 X39.714 Y36.54 E19.97111
G1 X39.973 Y36.532 E19.98404
G1 X40.084 Y36.53 E19.98958
G1 X69.141 Y36.526 E21.43924
G1 X69.19 Y36.526 E21.44168
G1 X69.925 Y36.536 E21.47835
G1 X70.032 Y36.539 E21.48369
G1 X70.309 Y36.551 E21.49753
G1 X70.408 Y36.557 E21.50247
G1 X71.505 Y36.635 E21.55734
G1 X71.554 Y36.639 E21.55979
G1 X72.239 Y36.697 E21.59409
G1 X72.632 Y36.752 E21.61389
G1 X73.296 Y36.883 E21.64766
G1 X73.354 Y36.895 E21.65061
G1 X74.142 Y37.064 E21.69082
G1 X74.195 Y37.076 E21.69353
G1 X74.829 Y37.222 E21.72599
G1 X75.215 Y37.334 E21.74604
G1 X75.926 Y37.584 E21.78364
G1 X75.984 Y37.605 E21.78672
G1 X76.631 Y37.845 E21.82115
G1 X76.681 Y37.864 E21.82381
G1 X77.351 Y38.124 E21.85967
G1 X77.72 Y38.291 E21.87988
G1 X78.344 Y38.618 E21.91502
G1 X78.388 Y38.642 E21.91752
G1 X79.045 Y38.998 E21.9548
G1 X79.091 Y39.023 E21.95742
G1 X79.676 Y39.351 E21.99088
G1 X80.023 Y39.573 E22.01143
G1 X80.628 Y40.01 E22.04866
G1 X80.671 Y40.042 E22.05134
G1 X81.209 Y40.443 E22.08481
G1 X81.249 Y40.473 E22.08731
G1 X81.829 Y40.918 E22.12378
G1 X82.141 Y41.187 E22.14433
G1 X82.662 Y41.691 E22.1805
G1 X82.696 Y41.724 E22.18286
G1 X83.162 Y42.187 E22.21563
G1 X83.199 Y42.224 E22.21824
G1 X83.724 Y42.761 E22.25571
G1 X83.993 Y43.07 E22.27615
G1 X84.431 Y43.634 E22.31178
G1 X84.465 Y43.677 E22.31451
G1 X84.912 Y44.271 E22.3516
G1 X84.941 Y44.311 E22.35407
G1 X85.341 Y44.858 E22.38787
G1 X85.564 Y45.202 E22.40833
G1 X85.93 Y45.845 E22.44524
G1 X85.956 Y45.893 E22.44796
G1 X86.284 Y46.49 E22.48195
G1 X86.308 Y46.533 E22.4844
G1 X86.643 Y47.163 E22.52
G1 X86.815 Y47.538 E22.54058
G1 X87.114 Y48.3 E22.58142
G1 X87.133 Y48.348 E22.584
G1 X87.324 Y48.856 E22.61107
G1 X87.341 Y48.903 E22.61357
G1 X87.608 Y49.644 E22.65286
G1 X87.726 Y50.041 E22.67353
G1 X87.903 Y50.795 E22.71216
G1 X87.914 Y50.846 E22.71477
G1 X88.047 Y51.452 E22.74572
G1 X88.058 Y51.504 E22.74837
G1 X88.208 Y52.239 E22.7858
G1 X88.267 Y52.642 E22.80612
G1 X88.331 Y53.365 E22.84233
G1 X88.335 Y53.412 E22.84468
G1 X88.387 Y54.104 E22.8793
G1 X88.39 Y54.152 E22.8817
G1 X88.415 Y54.556 E22.9019
G1 X88.421 Y54.689 E22.90854
G1 X88.452 Y55.937 E22.97082
G1 X88.453 Y56.026 E22.97526
G1 X88.453 Y95.213 E24.93031
G1 X88.443 Y95.918 E24.96549
G1 X88.44 Y96.02 E24.97058
G1 X88.431 Y96.232 E24.98116
G1 X88.42 Y96.399 E24.98951
G1 X88.37 Y96.959 E25.01756
G1 X88.359 Y97.064 E25.02283
G1 X88.277 Y97.753 E25.05745
G1 X87.99 Y100.477 E25.1941
G1 X87.785 Y103.161 E25.3284
G1 X87.651 Y105.927 E25.46655
G1 X87.597 Y108.615 E25.60069
G1 X87.619 Y111.351 E25.73719
G1 X87.721 Y114.118 E25.87533
G1 X87.893 Y116.772 E26.00802
G1 X88.066 Y118.718 E26.10548
G1 X88.075 Y118.85 E26.11209
G1 X88.091 Y119.158 E26.12747
G1 X88.096 Y119.305 E26.13481
G1 X88.1 Y119.662 E26.15262
G1 X88.1 Y119.702 E26.15462
G1 X88.097 Y159.252 E28.12778
G1 X88.097 Y159.303 E28.13032
G1 X88.087 Y160.006 E28.1654
G1 X88.084 Y160.097 E28.16994
G1 X88.074 Y160.35 E28.18257
G1 X88.069 Y160.447 E28.18742
G1 X88.055 Y160.657 E28.19792
G1 X88.053 Y160.684 E28.19927
G1 X87.984 Y161.617 E28.24594
G1 X87.98 Y161.67 E28.24859
G1 X87.915 Y162.401 E28.28521
G1 X87.857 Y162.8 E28.30532
G1 X87.706 Y163.542 E28.3431
G1 X87.694 Y163.597 E28.34591
G1 X87.545 Y164.275 E28.38054
G1 X87.534 Y164.324 E28.38305
G1 X87.381 Y164.976 E28.41646
G1 X87.267 Y165.363 E28.43659
G1 X87.01 Y166.084 E28.47477
G1 X86.991 Y166.137 E28.47758
G1 X86.762 Y166.749 E28.51018
G1 X86.741 Y166.803 E28.51307
G1 X86.472 Y167.488 E28.54979
G1 X86.305 Y167.853 E28.56982
G1 X85.955 Y168.516 E28.60722
G1 X85.928 Y168.565 E28.61001
G1 X85.62 Y169.127 E28.64198
G1 X85.595 Y169.171 E28.64451
G1 X85.228 Y169.819 E28.68166
G1 X85.005 Y170.166 E28.70224
G1 X84.558 Y170.779 E28.74009
G1 X84.526 Y170.822 E28.74276
G1 X84.138 Y171.338 E28.77497
G1 X84.107 Y171.378 E28.7775
G1 X83.654 Y171.963 E28.81441
G1 X83.386 Y172.272 E28.83482
G1 X82.882 Y172.789 E28.87084
G1 X82.844 Y172.827 E28.87352
G1 X82.366 Y173.303 E28.90718
G1 X82.33 Y173.339 E28.90972
G1 X81.799 Y173.853 E28.94659
G1 X81.491 Y174.119 E28.96689
G1 X80.896 Y174.577 E29.00435
G1 X80.853 Y174.61 E29.00705
G1 X80.29 Y175.03 E29.0421
G1 X80.245 Y175.062 E29.04485
G1 X79.694 Y175.46 E29.07876
G1 X79.354 Y175.678 E29.09891
G1 X78.717 Y176.037 E29.13539
G1 X78.669 Y176.064 E29.13814
G1 X78.042 Y176.405 E29.17375
G1 X77.998 Y176.428 E29.17622
G1 X77.384 Y176.751 E29.21084
G1 X77.011 Y176.921 E29.23129
G1 X76.295 Y177.199 E29.26961
G1 X76.242 Y177.219 E29.27243
G1 X75.618 Y177.45 E29.30563
G1 X75.571 Y177.467 E29.30812
G1 X74.9 Y177.705 E29.34364
G1 X74.506 Y177.82 E29.36412
G1 X73.786 Y177.986 E29.40098
G1 X73.734 Y177.998 E29.40365
G1 X73.027 Y178.15 E29.43972
G1 X72.983 Y178.159 E29.44196
G1 X72.345 Y178.288 E29.47444
G1 X71.953 Y178.345 E29.4942
G1 X71.271 Y178.406 E29.52836
G1 X71.207 Y178.411 E29.53156
G1 X70.452 Y178.465 E29.56933
G1 X70.396 Y178.468 E29.57213
G1 X69.7 Y178.507 E29.6069
G1 X69.599 Y178.512 E29.61195
G1 X69.275 Y178.521 E29.62812
G1 X69.175 Y178.522 E29.63311
