;FLAVOR:Marlin
;TIME:5186
;Filament used: 2.72433m, 1.42696m
;Layer height: 0.16
;POSTPROCESSED
;Generated with Cura_SteamEngine 3.4.1
T0
M190 S65
M104 S198
M104 T1 S190
M109 S198
M109 T1 S190
M82 ;absolute extrusion mode
; Printer start settings begin
; Calibration section to overwrite Firmware values
; Identifier CALIBR, CALRES and CALMPE, surrounded by #, + or - can be used in post processing
; #CALIBR# M92 X160 Y160 Z3200 ; +CALIBR+ Steps per unit
; #CALRESO# M201 X1000 Y1000 Z50 E1500 E1500 ; +CALRESO+ Max Accelleration
; #CALRESO# M203 X800 Y800 Z2 E90 E90 ; +CALRESO+ Max Feed
; #CALRESO# M205 X3.0 Y3.0 Z0.3 E5.0 ; +CALRESO+ Default Jerk
; #CALMPE#
M951 L32 R139 G32 N75 H300 D10 C0 ; +CALMPE+ Parking kinematic values / needs MPE kinematic to be compiled and activated in firmware
; #CALMPE#
M851 Z-0.55 ; +CALMPE+ System Z Probe Offset
; #CALMPE#
M218 T1 X0.8 Y0.0 Z0.25; +CALMPE+ T1 Nozzle offset values
; #CALMPE#
M206 X-32.00 Y0.00 Z0.00; +CALMPE+ Home Offset
; #REM#  M951 args: L: Left parking,R: Right parking, I: Grab Offset, J: Normal speed, H: High speed, D: Distance trav., C: Compenstion
; #CALMPE#
M951 L32 R140 I32 J4500 H9000 D10 C0 ; MPE Setup
; #CALMPE# M217 Z5.00 Z-Lift
G28 ;Home
G92 E5
G1 F1000 E0
; #MPE# G29 ; -MPE- Auto Bed Level, uses this if FW values are set correct.
; #MPE# G29 X3 Y3 L0 R109 F32 B168 ; +MPE+ Auto Bed Leveling, needed if not poroper defined in Firmware
G92 E-5
G1 E0 F400
G0 Z15.0 F100 ;Move the platform down 15mm
G0 X0 Y0 F9000 ;Move to front
G1 F200 E3
G92 E0
; Printer start settings end
G92 E0
G1 F1200 E-5
;LAYER_COUNT:157
;LAYER:0
M107
M104 T1 S198
G0 F1542.9 X40.103 Y88.104 Z0.16
;TYPE:SKIRT
G1 F1200 E0
G1 F900 X40.686 Y87.895 E0.01648
G1 X41.291 Y87.763 E0.03296
G1 X42.01 Y87.709 E0.05214
G1 X66.991 Y87.71 E0.71684
G1 X67.609 Y87.75 E0.73332
G1 X68.217 Y87.869 E0.7498
G1 X68.804 Y88.066 E0.76628
G1 X69.362 Y88.336 E0.78277
G1 X69.879 Y88.676 E0.79923
G1 X70.349 Y89.08 E0.81573
G1 X70.763 Y89.541 E0.83221
G1 X71.113 Y90.051 E0.84867
G1 X71.396 Y90.603 E0.86518
G1 X71.605 Y91.186 E0.88166
G1 X71.737 Y91.791 E0.89813
G1 X71.791 Y92.466 E0.91615
G1 X71.904 Y104.903 E1.24709
G1 X72.268 Y110.264 E1.39006
G1 X72.936 Y115.608 E1.53336
G1 X73.913 Y120.952 E1.67791
G1 X74.495 Y123.509 E1.74769
G1 X75.16 Y126.101 E1.81889
G1 X76.731 Y131.29 E1.96315
G1 X78.58 Y136.344 E2.10635
G1 X80.718 Y141.302 E2.25001
G1 X83.122 Y146.108 E2.393
G1 X85.801 Y150.785 E2.53641
G1 X88.753 Y155.321 E2.68041
G1 X90.297 Y157.487 E2.75119
G1 X92.561 Y160.457 E2.85056
G1 X92.982 Y161.114 E2.87132
G1 X93.664 Y162.397 E2.90998
G1 X93.919 Y162.962 E2.92648
G1 X94.022 Y163.265 E2.93499
G1 X94.44 Y164.652 E2.97354
G1 X94.62 Y165.559 E2.99814
G1 X94.766 Y167.018 E3.03716
G1 X94.788 Y167.637 E3.05364
G1 X94.767 Y167.968 E3.06246
G1 X94.622 Y169.436 E3.10171
G1 X94.521 Y170.047 E3.11819
G1 X94.439 Y170.355 E3.12667
G1 X94.016 Y171.752 E3.16551
G1 X93.799 Y172.332 E3.18199
G1 X93.655 Y172.624 E3.19065
G1 X92.962 Y173.92 E3.22976
G1 X92.635 Y174.447 E3.24626
G1 X92.433 Y174.71 E3.25508
G1 X91.472 Y175.876 E3.29529
G1 X91.048 Y176.327 E3.31176
G1 X90.789 Y176.553 E3.3209
G1 X89.653 Y177.473 E3.3598
G1 X88.887 Y177.98 E3.38424
G1 X87.6 Y178.665 E3.42304
G1 X87.036 Y178.92 E3.43951
G1 X86.73 Y179.024 E3.4481
G1 X85.35 Y179.44 E3.48646
G1 X84.442 Y179.62 E3.51109
G1 X82.979 Y179.766 E3.55021
G1 X82.36 Y179.788 E3.56669
G1 X82.021 Y179.766 E3.57573
G1 X80.541 Y179.617 E3.61531
G1 X79.93 Y179.515 E3.63179
G1 X79.63 Y179.435 E3.64005
G1 X78.247 Y179.016 E3.6785
G1 X77.667 Y178.798 E3.69499
G1 X77.374 Y178.654 E3.70367
G1 X76.062 Y177.952 E3.74327
G1 X75.536 Y177.625 E3.75975
G1 X75.263 Y177.415 E3.76891
G1 X74.109 Y176.458 E3.8088
G1 X73.659 Y176.033 E3.82527
G1 X73.445 Y175.787 E3.83395
G1 X72.525 Y174.653 E3.8728
G1 X72.167 Y174.148 E3.88927
G1 X72.012 Y173.876 E3.8976
G1 X71.328 Y172.585 E3.93648
G1 X71.073 Y172.02 E3.95297
G1 X70.958 Y171.672 E3.96272
G1 X70.075 Y168.62 E4.04726
G1 X68.427 Y163.427 E4.19223
G1 X66.512 Y158.395 E4.33549
G1 X64.312 Y153.476 E4.47887
G1 X61.835 Y148.682 E4.62245
G1 X59.104 Y144.06 E4.7653
G1 X56.107 Y139.584 E4.90863
G1 X52.866 Y135.29 E5.05177
G1 X49.367 Y131.165 E5.1957
G1 X45.663 Y127.267 E5.33878
G1 X43.755 Y125.42 E5.40943
G1 X38.832 Y121.073 E5.58418
G1 X38.395 Y120.634 E5.60067
G1 X38.018 Y120.142 E5.61716
G1 X37.708 Y119.606 E5.63363
G1 X37.47 Y119.035 E5.65009
G1 X37.306 Y118.437 E5.66659
G1 X37.222 Y117.824 E5.68306
G1 X37.209 Y117.475 E5.69235
G1 X37.21 Y92.509 E6.35665
G1 X37.25 Y91.891 E6.37313
G1 X37.369 Y91.283 E6.38961
G1 X37.566 Y90.696 E6.40609
G1 X37.836 Y90.138 E6.42258
G1 X38.176 Y89.621 E6.43904
G1 X38.58 Y89.151 E6.45553
G1 X39.041 Y88.737 E6.47202
G1 X39.551 Y88.387 E6.48848
G1 X40.103 Y88.104 E6.50499
G0 F1542.9 X40.472 Y88.386
G1 F900 X41.041 Y88.217 E6.52078
G1 X41.627 Y88.126 E6.53656
G1 X42.01 Y88.109 E6.54676
G1 X66.991 Y88.11 E7.21146
G1 X67.583 Y88.15 E7.22724
G1 X68.164 Y88.269 E7.24302
G1 X68.723 Y88.465 E7.25879
G1 X69.251 Y88.735 E7.27457
G1 X69.738 Y89.073 E7.29034
G1 X70.176 Y89.474 E7.30614
G1 X70.555 Y89.93 E7.32192
G1 X70.869 Y90.432 E7.33767
G1 X71.114 Y90.972 E7.35345
G1 X71.283 Y91.541 E7.36924
G1 X71.374 Y92.127 E7.38502
G1 X71.391 Y92.47 E7.39416
G1 X71.504 Y104.916 E7.72534
G1 X71.87 Y110.306 E7.86909
G1 X72.541 Y115.675 E8.01306
G1 X73.518 Y121.021 E8.15766
G1 X74.103 Y123.592 E8.22782
G1 X74.777 Y126.219 E8.29998
G1 X76.353 Y131.423 E8.44466
G1 X78.209 Y136.499 E8.58847
G1 X80.35 Y141.461 E8.73226
G1 X82.767 Y146.294 E8.87605
G1 X85.457 Y150.988 E9.02
G1 X88.425 Y155.55 E9.16481
G1 X89.981 Y157.733 E9.23615
G1 X92.243 Y160.7 E9.33542
G1 X92.629 Y161.302 E9.35445
G1 X93.311 Y162.585 E9.39311
G1 X93.639 Y163.38 E9.41599
G1 X94.057 Y164.767 E9.45454
G1 X94.222 Y165.599 E9.4771
G1 X94.368 Y167.058 E9.51612
G1 X94.369 Y167.929 E9.5393
G1 X94.224 Y169.397 E9.57855
G1 X94.056 Y170.239 E9.60139
G1 X93.633 Y171.636 E9.64023
G1 X93.302 Y172.436 E9.66327
G1 X92.609 Y173.732 E9.70237
G1 X92.124 Y174.455 E9.72554
G1 X91.163 Y175.621 E9.76574
G1 X90.537 Y176.242 E9.7892
G1 X89.401 Y177.162 E9.8281
G1 X88.699 Y177.627 E9.8505
G1 X87.412 Y178.312 E9.8893
G1 X86.615 Y178.641 E9.91224
G1 X85.235 Y179.057 E9.95059
G1 X84.402 Y179.222 E9.97319
G1 X82.939 Y179.368 E10.01231
G1 X82.061 Y179.368 E10.03567
G1 X80.581 Y179.219 E10.07525
G1 X79.746 Y179.052 E10.09791
G1 X78.363 Y178.633 E10.13636
G1 X77.563 Y178.302 E10.15939
G1 X76.251 Y177.6 E10.19899
G1 X75.518 Y177.107 E10.22249
G1 X74.364 Y176.15 E10.26238
G1 X73.756 Y175.535 E10.28539
G1 X72.836 Y174.401 E10.32425
G1 X72.365 Y173.689 E10.34696
G1 X71.681 Y172.398 E10.38584
G1 X71.439 Y171.856 E10.40163
G1 X71.342 Y171.561 E10.40989
G1 X70.457 Y168.502 E10.49463
G1 X68.801 Y163.285 E10.64027
G1 X66.883 Y158.246 E10.78373
G1 X64.672 Y153.3 E10.92788
G1 X62.188 Y148.493 E11.07186
G1 X59.443 Y143.847 E11.21544
G1 X56.435 Y139.354 E11.35931
G1 X53.175 Y135.036 E11.50327
G1 X49.678 Y130.913 E11.64712
G1 X45.937 Y126.975 E11.79165
G1 X44.027 Y125.126 E11.86238
G1 X39.097 Y120.773 E12.03738
G1 X38.68 Y120.352 E12.05314
G1 X38.323 Y119.878 E12.06893
G1 X38.034 Y119.361 E12.08469
G1 X37.816 Y118.809 E12.10049
G1 X37.675 Y118.233 E12.11626
G1 X37.609 Y117.475 E12.13651
G1 X37.61 Y92.509 E12.80081
G1 X37.65 Y91.917 E12.8166
G1 X37.769 Y91.336 E12.83238
G1 X37.965 Y90.777 E12.84814
G1 X38.235 Y90.249 E12.86392
G1 X38.573 Y89.762 E12.87969
G1 X38.974 Y89.324 E12.89549
G1 X39.43 Y88.945 E12.91127
G1 X39.932 Y88.631 E12.92702
G1 X40.472 Y88.386 E12.9428
G0 F1542.9 X40.309 Y88.889
G1 F900 X40.837 Y88.685 E12.95786
G1 X41.388 Y88.558 E12.97291
G1 X42.01 Y88.509 E12.98951
G1 X66.991 Y88.51 E13.65421
G1 X67.555 Y88.55 E13.66925
G1 X68.108 Y88.669 E13.6843
G1 X68.638 Y88.865 E13.69934
G1 X69.136 Y89.133 E13.71439
G1 X69.59 Y89.47 E13.72943
G1 X69.993 Y89.866 E13.74446
G1 X70.336 Y90.316 E13.75952
G1 X70.611 Y90.809 E13.77454
G1 X70.815 Y91.337 E13.7896
G1 X70.942 Y91.888 E13.80465
G1 X70.991 Y92.474 E13.82029
G1 X71.104 Y104.93 E14.15174
G1 X71.472 Y110.349 E14.29626
G1 X72.144 Y115.726 E14.44044
G1 X73.129 Y121.112 E14.58613
G1 X73.71 Y123.666 E14.65583
G1 X74.397 Y126.343 E14.72936
G1 X75.968 Y131.534 E14.87367
G1 X77.84 Y136.652 E15.01868
G1 X79.992 Y141.641 E15.16325
G1 X82.408 Y146.471 E15.30695
G1 X85.117 Y151.199 E15.45194
G1 X88.1 Y155.784 E15.59748
G1 X89.65 Y157.957 E15.6685
G1 X91.925 Y160.942 E15.76837
G1 X92.276 Y161.49 E15.78568
G1 X92.958 Y162.773 E15.82434
G1 X93.256 Y163.496 E15.84515
G1 X93.674 Y164.883 E15.8837
G1 X93.824 Y165.639 E15.9042
G1 X93.97 Y167.098 E15.94322
G1 X93.971 Y167.889 E15.96427
G1 X93.826 Y169.357 E16.00352
G1 X93.673 Y170.123 E16.0243
G1 X93.25 Y171.52 E16.06314
G1 X92.949 Y172.247 E16.08408
G1 X92.256 Y173.543 E16.12318
G1 X91.816 Y174.201 E16.14424
G1 X90.855 Y175.367 E16.18445
G1 X90.285 Y175.931 E16.20578
G1 X89.149 Y176.851 E16.24468
G1 X88.511 Y177.274 E16.26505
G1 X87.224 Y177.959 E16.30384
G1 X86.499 Y178.258 E16.32471
G1 X85.119 Y178.674 E16.36306
G1 X84.362 Y178.824 E16.38359
G1 X82.899 Y178.97 E16.42271
G1 X82.101 Y178.97 E16.44395
G1 X80.621 Y178.821 E16.48353
G1 X79.862 Y178.669 E16.50412
G1 X78.479 Y178.25 E16.54257
G1 X77.752 Y177.949 E16.56351
G1 X76.44 Y177.247 E16.6031
G1 X75.774 Y176.799 E16.62446
G1 X74.62 Y175.842 E16.66435
G1 X74.067 Y175.283 E16.68527
G1 X73.147 Y174.149 E16.72413
G1 X72.718 Y173.502 E16.74478
G1 X72.034 Y172.211 E16.78366
G1 X71.727 Y171.45 E16.80549
G1 X70.851 Y168.421 E16.88939
G1 X69.177 Y163.148 E17.0366
G1 X67.25 Y158.083 E17.18079
G1 X65.039 Y153.139 E17.3249
G1 X62.542 Y148.306 E17.46964
G1 X59.781 Y143.634 E17.61404
G1 X56.756 Y139.117 E17.75869
G1 X53.484 Y134.781 E17.90323
G1 X49.974 Y130.643 E18.04761
G1 X46.222 Y126.694 E18.19255
G1 X44.298 Y124.832 E18.26379
G1 X39.362 Y120.473 E18.43901
G1 X38.965 Y120.07 E18.45406
G1 X38.63 Y119.615 E18.4691
G1 X38.362 Y119.117 E18.48414
G1 X38.167 Y118.587 E18.49917
G1 X38.048 Y118.034 E18.51422
G1 X38.009 Y117.475 E18.52913
G1 X38.01 Y92.509 E19.19343
G1 X38.05 Y91.945 E19.20848
G1 X38.169 Y91.392 E19.22353
G1 X38.365 Y90.862 E19.23856
G1 X38.633 Y90.364 E19.25361
G1 X38.97 Y89.91 E19.26865
G1 X39.366 Y89.507 E19.28369
G1 X39.816 Y89.164 E19.29874
G1 X40.309 Y88.889 E19.31376
G0 F1542.9 X40.682 Y89.163
G1 F900 X41.193 Y89.003 E19.32801
G1 X41.723 Y88.92 E19.34229
G1 X42.01 Y88.909 E19.34993
G1 X66.991 Y88.91 E20.01462
G1 X67.526 Y88.95 E20.0289
G1 X68.049 Y89.069 E20.04317
G1 X68.548 Y89.264 E20.05743
G1 X69.013 Y89.532 E20.07171
G1 X69.433 Y89.865 E20.08597
G1 X69.799 Y90.257 E20.10024
G1 X70.103 Y90.699 E20.11451
G1 X70.337 Y91.182 E20.12879
G1 X70.497 Y91.693 E20.14304
G1 X70.591 Y92.477 E20.16405
G1 X70.704 Y104.944 E20.49579
G1 X71.074 Y110.389 E20.641
G1 X71.75 Y115.796 E20.78599
G1 X72.733 Y121.176 E20.93152
G1 X73.328 Y123.791 E21.00287
G1 X74.002 Y126.418 E21.07504
G1 X75.594 Y131.676 E21.22122
G1 X77.465 Y136.79 E21.36611
G1 X79.628 Y141.806 E21.51146
G1 X82.061 Y146.67 E21.65617
G1 X84.785 Y151.424 E21.80196
G1 X87.756 Y155.991 E21.94693
G1 X89.329 Y158.197 E22.01902
G1 X91.607 Y161.185 E22.11899
G1 X91.923 Y161.677 E22.13455
G1 X92.605 Y162.96 E22.17321
G1 X92.873 Y163.611 E22.19194
G1 X93.291 Y164.998 E22.23049
G1 X93.426 Y165.679 E22.24896
G1 X93.572 Y167.138 E22.28798
G1 X93.573 Y167.85 E22.30692
G1 X93.428 Y169.318 E22.34617
G1 X93.291 Y170.007 E22.36487
G1 X92.868 Y171.404 E22.4037
G1 X92.597 Y172.059 E22.42256
G1 X91.904 Y173.355 E22.46167
G1 X91.507 Y173.947 E22.48063
G1 X90.546 Y175.113 E22.52084
G1 X90.034 Y175.621 E22.54003
G1 X88.898 Y176.541 E22.57893
G1 X88.323 Y176.921 E22.59727
G1 X87.036 Y177.606 E22.63606
G1 X86.384 Y177.875 E22.65483
G1 X85.004 Y178.291 E22.69318
G1 X84.322 Y178.426 E22.71168
G1 X82.859 Y178.572 E22.7508
G1 X82.141 Y178.572 E22.7699
G1 X80.661 Y178.423 E22.80948
G1 X79.978 Y178.286 E22.82802
G1 X78.595 Y177.867 E22.86647
G1 X77.941 Y177.596 E22.8853
G1 X76.629 Y176.894 E22.9249
G1 X76.029 Y176.491 E22.94413
G1 X74.875 Y175.534 E22.98402
G1 X74.377 Y175.031 E23.00285
G1 X73.457 Y173.897 E23.04171
G1 X73.072 Y173.314 E23.0603
G1 X72.388 Y172.023 E23.09917
G1 X72.111 Y171.338 E23.11883
G1 X71.226 Y168.278 E23.20359
G1 X69.564 Y163.043 E23.34973
G1 X67.615 Y157.92 E23.49558
G1 X65.392 Y152.95 E23.64045
G1 X62.892 Y148.111 E23.78537
G1 X60.121 Y143.421 E23.93032
G1 X57.084 Y138.887 E24.07552
G1 X53.808 Y134.546 E24.22023
G1 X50.269 Y130.373 E24.36582
G1 X46.496 Y126.402 E24.51157
G1 X44.592 Y124.559 E24.58207
G1 X39.626 Y120.174 E24.75835
G1 X39.252 Y119.79 E24.77261
G1 X38.939 Y119.354 E24.7869
G1 X38.693 Y118.877 E24.80118
G1 X38.522 Y118.369 E24.81544
G1 X38.428 Y117.841 E24.82971
G1 X38.409 Y117.475 E24.83946
G1 X38.41 Y92.509 E25.50376
G1 X38.45 Y91.974 E25.51803
G1 X38.569 Y91.451 E25.5323
G1 X38.764 Y90.952 E25.54656
G1 X39.032 Y90.487 E25.56084
G1 X39.365 Y90.067 E25.5751
G1 X39.757 Y89.701 E25.58937
G1 X40.199 Y89.397 E25.60365
G1 X40.682 Y89.163 E25.61793
G0 F1542.9 X40.579 Y89.647
G1 F900 X41.047 Y89.457 E25.63137
G1 X41.54 Y89.344 E25.64482
G1 X42.01 Y89.309 E25.65736
G1 X66.991 Y89.31 E26.32206
G1 X67.495 Y89.35 E26.33551
G1 X67.987 Y89.469 E26.34898
G1 X68.453 Y89.664 E26.36242
G1 X68.883 Y89.929 E26.37586
G1 X69.266 Y90.26 E26.38933
G1 X69.592 Y90.646 E26.40278
G1 X69.853 Y91.079 E26.41623
G1 X70.043 Y91.547 E26.42967
G1 X70.156 Y92.04 E26.44313
G1 X70.191 Y92.481 E26.4549
G1 X70.304 Y104.957 E26.78687
G1 X70.676 Y110.431 E26.93286
G1 X71.353 Y115.846 E27.07807
G1 X72.344 Y121.267 E27.2247
G1 X72.935 Y123.865 E27.29559
G1 X73.622 Y126.542 E27.36913
G1 X75.216 Y131.809 E27.51555
G1 X77.095 Y136.944 E27.66105
G1 X79.257 Y141.958 E27.80633
G1 X81.71 Y146.862 E27.95223
G1 X84.441 Y151.628 E28.09839
G1 X87.421 Y156.209 E28.24381
G1 X89.013 Y158.441 E28.31675
G1 X91.289 Y161.427 E28.41665
G1 X91.57 Y161.865 E28.4305
G1 X92.252 Y163.148 E28.46916
G1 X92.49 Y163.727 E28.48582
G1 X92.908 Y165.114 E28.52436
G1 X93.028 Y165.718 E28.54075
G1 X93.174 Y167.177 E28.57977
G1 X93.175 Y167.811 E28.59663
G1 X93.03 Y169.279 E28.63589
G1 X92.908 Y169.891 E28.65249
G1 X92.485 Y171.288 E28.69133
G1 X92.244 Y171.87 E28.70809
G1 X91.551 Y173.166 E28.74719
G1 X91.198 Y173.692 E28.76405
G1 X90.237 Y174.858 E28.80425
G1 X89.782 Y175.31 E28.82132
G1 X88.646 Y176.23 E28.86022
G1 X88.135 Y176.568 E28.87652
G1 X86.848 Y177.253 E28.91531
G1 X86.269 Y177.492 E28.93198
G1 X84.889 Y177.908 E28.97033
G1 X84.283 Y178.028 E28.98677
G1 X82.82 Y178.174 E29.02589
G1 X82.181 Y178.174 E29.04289
G1 X80.701 Y178.025 E29.08247
G1 X80.094 Y177.904 E29.09894
G1 X78.711 Y177.485 E29.13739
G1 X78.129 Y177.244 E29.15415
G1 X76.817 Y176.542 E29.19374
G1 X76.284 Y176.183 E29.21084
G1 X75.13 Y175.226 E29.25073
G1 X74.688 Y174.779 E29.26746
G1 X73.768 Y173.645 E29.30631
G1 X73.425 Y173.127 E29.32284
G1 X72.741 Y171.836 E29.36172
G1 X72.495 Y171.227 E29.3792
G1 X71.608 Y168.161 E29.46412
G1 X69.939 Y162.9 E29.61098
G1 X67.986 Y157.771 E29.75701
G1 X65.758 Y152.788 E29.90225
G1 X63.241 Y147.917 E30.04814
G1 X60.459 Y143.209 E30.19365
G1 X57.406 Y138.649 E30.33966
G1 X54.109 Y134.281 E30.48528
G1 X50.574 Y130.113 E30.6307
G1 X46.793 Y126.134 E30.77675
G1 X44.852 Y124.255 E30.84863
G1 X39.891 Y119.874 E31.02474
G1 X39.54 Y119.51 E31.03819
G1 X39.25 Y119.096 E31.05164
G1 X39.029 Y118.641 E31.0651
G1 X38.883 Y118.157 E31.07855
G1 X38.809 Y117.475 E31.09681
G1 X38.81 Y92.509 E31.7611
G1 X38.85 Y92.005 E31.77456
G1 X38.969 Y91.513 E31.78802
G1 X39.164 Y91.047 E31.80147
G1 X39.429 Y90.617 E31.81491
G1 X39.76 Y90.234 E31.82837
G1 X40.146 Y89.908 E31.84182
