;FLAVOR:Marlin
;TIME:3762
;Filament used: 1.60541m, 1.77029m
;Layer height: 0.16
;POSTPROCESSED
;Generated with Cura_SteamEngine 3.4.1
T0
M190 S65
M104 S198
M104 T1 S190
M109 S198
M109 T1 S190
M82 ;absolute extrusion mode
; Calibration section to overwrite Firmware values
; Identifier CALIBR, CALRES and CALMPE, surrounded by #, + or - can be used in post processing
; #CALIBR# M92 X160 Y160 Z3200 ; +CALIBR+ Steps per unit
; #CALRESO# M201 X1000 Y1000 Z50 E1500 E1500 ; +CALRESO+ Max Accelleration
; #CALRESO# M203 X800 Y800 Z2 E90 E90 ; +CALRESO+ Max Feed
; #CALRESO# M205 X3.0 Y3.0 Z0.3 E5.0 ; +CALRESO+ Default Jerk
; #CALMPE#
M951 L32 R139 G32 N75 H300 D10 C0 ; +CALMPE+ Parking kinematic values / needs MPE kinematic to be compiled and activated in firmware
; #CALMPE#
M851 Z-0.55 ; +CALMPE+ System Z Probe Offset
; #CALMPE#
M218 T1 X0.8 Y0.0 Z0.25; +CALMPE+ T1 Nozzle offset values
; #CALMPE#
M206 X-32.00 Y0.00 Z0.00; +CALMPE+ Home Offset
; #REM#  M951 args: L: Left parking,R: Right parking, I: Grab Offset, J: Normal speed, H: High speed, D: Distance trav., C: Compenstion
; #CALMPE#
M951 L32 R140 I32 J4500 H9000 D10 C0 ; MPE Setup
; #CALMPE# M217 Z5.00 Z-Lift
G28 ;Home
G92 E5
G1 F1000 E0
; #MPE# G29 ; -MPE- Auto Bed Level, uses this if FW values are set correct.
; #MPE# G29 X3 Y3 L0 R109 F32 B168 ; +MPE+ Auto Bed Leveling, needed if not poroper defined in Firmware
G92 E-5
G1 E0 F400
G0 Z15.0 F100 ;Move the platform down 15mm
G0 X0 Y0 F9000 ;Move to front
G1 F200 E3
G92 E0
; Printer start settings end
G92 E0
G1 F1200 E-5
;LAYER_COUNT:157
;LAYER:0
M107
M104 T1 S198
G0 F1542.9 X40.092 Y88.07 Z0.16
;TYPE:SKIRT
G1 F1200 E0
G1 F900 X40.675 Y87.861 E0.01648
G1 X41.281 Y87.729 E0.03298
G1 X42.007 Y87.675 E0.05235
G1 X66.998 Y87.71 E0.71732
G1 X67.616 Y87.751 E0.7338
G1 X68.223 Y87.871 E0.75026
G1 X68.81 Y88.068 E0.76674
G1 X69.367 Y88.339 E0.78322
G1 X69.884 Y88.68 E0.7997
G1 X70.354 Y89.085 E0.8162
G1 X70.767 Y89.546 E0.83267
G1 X71.117 Y90.057 E0.84915
G1 X71.398 Y90.609 E0.86564
G1 X71.606 Y91.192 E0.88211
G1 X71.738 Y91.797 E0.89858
G1 X71.791 Y92.505 E0.91747
G1 X71.8 Y101.033 E1.14439
G1 X71.954 Y106.479 E1.28935
G1 X72.411 Y111.852 E1.43283
G1 X73.17 Y117.183 E1.57611
G1 X74.232 Y122.479 E1.71983
G1 X74.869 Y125.075 E1.79096
G1 X75.573 Y127.638 E1.86168
G1 X77.232 Y132.795 E2.00582
G1 X79.166 Y137.815 E2.14897
G1 X81.4 Y142.76 E2.29335
G1 X82.585 Y145.112 E2.36342
G1 X85.213 Y149.821 E2.50691
G1 X88.11 Y154.384 E2.65073
G1 X91.269 Y158.788 E2.79494
G1 X92.54 Y160.429 E2.85017
G1 X92.982 Y161.114 E2.87186
G1 X93.664 Y162.397 E2.91052
G1 X93.919 Y162.962 E2.92702
G1 X94.022 Y163.265 E2.93553
G1 X94.44 Y164.652 E2.97408
G1 X94.62 Y165.559 E2.99868
G1 X94.766 Y167.018 E3.0377
G1 X94.788 Y167.637 E3.05418
G1 X94.767 Y167.968 E3.063
G1 X94.622 Y169.436 E3.10225
G1 X94.521 Y170.047 E3.11873
G1 X94.439 Y170.355 E3.12721
G1 X94.016 Y171.752 E3.16605
G1 X93.799 Y172.332 E3.18253
G1 X93.653 Y172.628 E3.19131
G1 X92.95 Y173.94 E3.23092
G1 X92.623 Y174.466 E3.2474
G1 X92.418 Y174.732 E3.25633
G1 X91.467 Y175.882 E3.29604
G1 X91.042 Y176.333 E3.31253
G1 X90.789 Y176.553 E3.32145
G1 X89.653 Y177.473 E3.36034
G1 X88.887 Y177.98 E3.38479
G1 X87.6 Y178.665 E3.42358
G1 X87.036 Y178.92 E3.44005
G1 X86.73 Y179.024 E3.44865
G1 X85.35 Y179.44 E3.487
G1 X84.442 Y179.62 E3.51163
G1 X82.979 Y179.766 E3.55075
G1 X82.36 Y179.788 E3.56723
G1 X82.021 Y179.766 E3.57627
G1 X80.541 Y179.617 E3.61585
G1 X79.93 Y179.515 E3.63233
G1 X79.63 Y179.435 E3.64059
G1 X78.247 Y179.016 E3.67904
G1 X77.667 Y178.798 E3.69553
G1 X77.374 Y178.654 E3.70422
G1 X76.062 Y177.952 E3.74381
G1 X75.536 Y177.625 E3.76029
G1 X75.263 Y177.415 E3.76946
G1 X74.109 Y176.458 E3.80935
G1 X73.659 Y176.033 E3.82582
G1 X73.445 Y175.787 E3.83449
G1 X72.525 Y174.653 E3.87335
G1 X72.167 Y174.148 E3.88982
G1 X72.012 Y173.876 E3.89815
G1 X71.328 Y172.585 E3.93702
G1 X71.073 Y172.02 E3.95352
G1 X70.957 Y171.668 E3.96338
G1 X70.05 Y168.521 E4.05052
G1 X68.388 Y163.293 E4.19649
G1 X66.47 Y158.263 E4.33973
G1 X64.275 Y153.356 E4.48276
G1 X61.806 Y148.584 E4.62572
G1 X59.059 Y143.938 E4.76934
G1 X56.057 Y139.461 E4.91276
G1 X52.82 Y135.175 E5.05568
G1 X49.328 Y131.06 E5.19928
G1 X45.604 Y127.144 E5.34307
G1 X43.714 Y125.317 E5.41301
G1 X38.881 Y121.063 E5.58433
G1 X38.443 Y120.625 E5.60081
G1 X38.066 Y120.134 E5.61728
G1 X37.755 Y119.598 E5.63377
G1 X37.515 Y119.027 E5.65025
G1 X37.351 Y118.43 E5.66673
G1 X37.264 Y117.805 E5.68352
G1 X37.212 Y117.084 E5.70275
G1 X37.2 Y116.739 E5.71194
G1 X37.2 Y92.475 E6.35756
G1 X37.24 Y91.857 E6.37403
G1 X37.359 Y91.249 E6.39052
G1 X37.556 Y90.662 E6.40699
G1 X37.826 Y90.105 E6.42346
G1 X38.166 Y89.587 E6.43995
G1 X38.57 Y89.117 E6.45644
G1 X39.031 Y88.704 E6.47291
G1 X39.541 Y88.353 E6.48938
G1 X40.092 Y88.07 E6.50587
G0 F1542.9 X40.462 Y88.352
G1 F900 X41.031 Y88.183 E6.52166
G1 X41.616 Y88.092 E6.53741
G1 X42.006 Y88.075 E6.5478
G1 X66.997 Y88.11 E7.21276
G1 X67.589 Y88.151 E7.22855
G1 X68.169 Y88.271 E7.24431
G1 X68.729 Y88.468 E7.26011
G1 X69.256 Y88.738 E7.27586
G1 X69.743 Y89.077 E7.29165
G1 X70.18 Y89.478 E7.30743
G1 X70.558 Y89.934 E7.32319
G1 X70.872 Y90.437 E7.33897
G1 X71.116 Y90.978 E7.35476
G1 X71.284 Y91.547 E7.37055
G1 X71.375 Y92.133 E7.38633
G1 X71.391 Y92.505 E7.39623
G1 X71.4 Y101.046 E7.62349
G1 X71.554 Y106.505 E7.76881
G1 X72.012 Y111.89 E7.91261
G1 X72.776 Y117.25 E8.05667
G1 X73.846 Y122.584 E8.20142
G1 X74.47 Y125.129 E8.27115
G1 X75.191 Y127.754 E8.34358
G1 X76.858 Y132.935 E8.4884
G1 X78.796 Y137.966 E8.63185
G1 X81.041 Y142.936 E8.77696
G1 X82.231 Y145.299 E8.84736
G1 X84.872 Y150.03 E8.99153
G1 X87.777 Y154.606 E9.13575
G1 X90.961 Y159.043 E9.28106
G1 X92.223 Y160.674 E9.33593
G1 X92.629 Y161.302 E9.35583
G1 X93.311 Y162.585 E9.39449
G1 X93.639 Y163.38 E9.41738
G1 X94.057 Y164.767 E9.45592
G1 X94.222 Y165.599 E9.47849
G1 X94.368 Y167.058 E9.5175
G1 X94.369 Y167.929 E9.54068
G1 X94.224 Y169.397 E9.57993
G1 X94.056 Y170.239 E9.60278
G1 X93.633 Y171.636 E9.64161
G1 X93.3 Y172.439 E9.66475
G1 X92.597 Y173.751 E9.70435
G1 X92.11 Y174.477 E9.72761
G1 X91.159 Y175.627 E9.76732
G1 X90.537 Y176.242 E9.79059
G1 X89.401 Y177.162 E9.82949
G1 X88.699 Y177.627 E9.85189
G1 X87.412 Y178.312 E9.89069
G1 X86.615 Y178.641 E9.91363
G1 X85.235 Y179.057 E9.95198
G1 X84.402 Y179.222 E9.97458
G1 X82.939 Y179.368 E10.0137
G1 X82.061 Y179.368 E10.03706
G1 X80.581 Y179.219 E10.07664
G1 X79.746 Y179.052 E10.0993
G1 X78.363 Y178.633 E10.13775
G1 X77.563 Y178.302 E10.16078
G1 X76.251 Y177.6 E10.20038
G1 X75.518 Y177.107 E10.22388
G1 X74.364 Y176.15 E10.26377
G1 X73.756 Y175.535 E10.28678
G1 X72.836 Y174.401 E10.32564
G1 X72.365 Y173.689 E10.34835
G1 X71.681 Y172.398 E10.38723
G1 X71.439 Y171.856 E10.40302
G1 X71.341 Y171.557 E10.41139
G1 X70.422 Y168.37 E10.49965
G1 X68.77 Y163.172 E10.64477
G1 X66.842 Y158.115 E10.78878
G1 X64.638 Y153.188 E10.9324
G1 X62.148 Y148.376 E11.07656
G1 X59.401 Y143.73 E11.22017
G1 X56.385 Y139.231 E11.36429
G1 X53.129 Y134.921 E11.50802
G1 X49.623 Y130.789 E11.65221
G1 X45.901 Y126.876 E11.79591
G1 X43.984 Y125.022 E11.86687
G1 X39.145 Y120.763 E12.03839
G1 X38.727 Y120.342 E12.05418
G1 X38.37 Y119.869 E12.06994
G1 X38.08 Y119.352 E12.08572
G1 X37.861 Y118.801 E12.10149
G1 X37.719 Y118.225 E12.11728
G1 X37.663 Y117.777 E12.12929
G1 X37.611 Y117.056 E12.14853
G1 X37.6 Y116.739 E12.15697
G1 X37.6 Y92.475 E12.80258
G1 X37.64 Y91.883 E12.81837
G1 X37.759 Y91.303 E12.83413
G1 X37.955 Y90.743 E12.84991
G1 X38.225 Y90.215 E12.86569
G1 X38.563 Y89.728 E12.88147
G1 X38.964 Y89.291 E12.89725
G1 X39.419 Y88.911 E12.91302
G1 X39.922 Y88.597 E12.9288
G1 X40.462 Y88.352 E12.94458
G0 F1542.9 X40.299 Y88.855
G1 F900 X40.827 Y88.651 E12.95964
G1 X41.377 Y88.524 E12.97466
G1 X42.006 Y88.475 E12.99144
G1 X66.997 Y88.51 E13.65641
G1 X67.56 Y88.551 E13.67143
G1 X68.113 Y88.671 E13.68649
G1 X68.643 Y88.867 E13.70152
G1 X69.14 Y89.136 E13.71656
G1 X69.594 Y89.473 E13.7316
G1 X69.996 Y89.87 E13.74664
G1 X70.339 Y90.32 E13.76169
G1 X70.614 Y90.814 E13.77674
G1 X70.817 Y91.342 E13.79179
G1 X70.943 Y91.893 E13.80683
G1 X70.991 Y92.506 E13.82319
G1 X71 Y101.057 E14.05071
G1 X71.154 Y106.515 E14.196
G1 X71.616 Y111.947 E14.34105
G1 X72.381 Y117.314 E14.4853
G1 X73.453 Y122.661 E14.63041
G1 X74.09 Y125.258 E14.70156
G1 X74.804 Y127.855 E14.77322
G1 X76.477 Y133.058 E14.91865
G1 X78.434 Y138.139 E15.06352
G1 X80.672 Y143.092 E15.20814
G1 X81.877 Y145.485 E15.27943
G1 X84.536 Y150.247 E15.42456
G1 X87.438 Y154.82 E15.56867
G1 X90.64 Y159.282 E15.7148
G1 X91.907 Y160.919 E15.76988
G1 X92.276 Y161.49 E15.78797
G1 X92.958 Y162.773 E15.82663
G1 X93.256 Y163.496 E15.84744
G1 X93.674 Y164.883 E15.88598
G1 X93.824 Y165.639 E15.90649
G1 X93.97 Y167.098 E15.94551
G1 X93.971 Y167.889 E15.96655
G1 X93.826 Y169.357 E16.0058
G1 X93.673 Y170.123 E16.02659
G1 X93.25 Y171.52 E16.06543
G1 X92.948 Y172.25 E16.08645
G1 X92.245 Y173.562 E16.12605
G1 X91.802 Y174.222 E16.1472
G1 X90.851 Y175.372 E16.18691
G1 X90.285 Y175.931 E16.20808
G1 X89.149 Y176.851 E16.24697
G1 X88.511 Y177.274 E16.26734
G1 X87.224 Y177.959 E16.30613
G1 X86.499 Y178.258 E16.327
G1 X85.119 Y178.674 E16.36535
G1 X84.362 Y178.824 E16.38589
G1 X82.899 Y178.97 E16.42501
G1 X82.101 Y178.97 E16.44624
G1 X80.621 Y178.821 E16.48582
G1 X79.862 Y178.669 E16.50642
G1 X78.479 Y178.25 E16.54487
G1 X77.752 Y177.949 E16.5658
G1 X76.44 Y177.247 E16.6054
G1 X75.774 Y176.799 E16.62675
G1 X74.62 Y175.842 E16.66664
G1 X74.067 Y175.283 E16.68757
G1 X73.147 Y174.149 E16.72642
G1 X72.718 Y173.502 E16.74708
G1 X72.034 Y172.211 E16.78595
G1 X71.726 Y171.446 E16.80789
G1 X70.815 Y168.287 E16.89538
G1 X69.149 Y163.045 E17.04173
G1 X67.21 Y157.957 E17.18661
G1 X64.997 Y153.013 E17.33074
G1 X62.498 Y148.181 E17.47548
G1 X59.739 Y143.517 E17.61967
G1 X56.712 Y139.001 E17.76433
G1 X53.437 Y134.666 E17.90889
G1 X49.926 Y130.528 E18.05329
G1 X46.174 Y126.583 E18.19815
G1 X44.266 Y124.738 E18.26878
G1 X39.409 Y120.463 E18.44094
G1 X39.012 Y120.06 E18.45599
G1 X38.676 Y119.606 E18.47102
G1 X38.407 Y119.108 E18.48608
G1 X38.211 Y118.578 E18.50112
G1 X38.062 Y117.748 E18.52356
G1 X38.01 Y117.027 E18.54279
G1 X38 Y116.739 E18.55046
G1 X38 Y92.475 E19.19608
G1 X38.04 Y91.911 E19.21112
G1 X38.159 Y91.358 E19.22617
G1 X38.355 Y90.828 E19.24121
G1 X38.623 Y90.331 E19.25623
G1 X38.959 Y89.876 E19.27128
G1 X39.356 Y89.473 E19.28633
G1 X39.806 Y89.131 E19.30137
G1 X40.299 Y88.855 E19.31641
G0 F1542.9 X40.672 Y89.129
G1 F900 X41.183 Y88.969 E19.33065
G1 X41.713 Y88.886 E19.34493
G1 X42.005 Y88.875 E19.3527
G1 X66.996 Y88.91 E20.01767
G1 X67.531 Y88.951 E20.03195
G1 X68.054 Y89.07 E20.04622
G1 X68.553 Y89.266 E20.06048
G1 X69.017 Y89.534 E20.07474
G1 X69.437 Y89.868 E20.08902
G1 X69.802 Y90.261 E20.10329
G1 X70.105 Y90.704 E20.11757
G1 X70.339 Y91.186 E20.13183
G1 X70.498 Y91.698 E20.14609
G1 X70.58 Y92.228 E20.16036
G1 X70.591 Y92.506 E20.16776
G1 X70.6 Y101.032 E20.39463
G1 X70.756 Y106.56 E20.54177
G1 X71.217 Y111.983 E20.68659
G1 X71.986 Y117.377 E20.83157
G1 X73.066 Y122.766 E20.97781
G1 X73.702 Y125.354 E21.04872
G1 X74.423 Y127.979 E21.12115
G1 X76.102 Y133.198 E21.26703
G1 X78.057 Y138.275 E21.41179
G1 X80.322 Y143.287 E21.55813
G1 X81.523 Y145.672 E21.62918
G1 X84.186 Y150.443 E21.77457
G1 X87.105 Y155.042 E21.91951
G1 X90.308 Y159.506 E22.0657
G1 X91.591 Y161.163 E22.12146
G1 X91.923 Y161.677 E22.13774
G1 X92.605 Y162.96 E22.1764
G1 X92.873 Y163.611 E22.19513
G1 X93.291 Y164.998 E22.23368
G1 X93.426 Y165.679 E22.25215
G1 X93.572 Y167.138 E22.29117
G1 X93.573 Y167.85 E22.31011
G1 X93.428 Y169.318 E22.34936
G1 X93.291 Y170.007 E22.36805
G1 X92.868 Y171.404 E22.40689
G1 X92.595 Y172.061 E22.42582
G1 X91.892 Y173.373 E22.46543
G1 X91.493 Y173.967 E22.48447
G1 X90.542 Y175.117 E22.52418
G1 X90.034 Y175.621 E22.54322
G1 X88.898 Y176.541 E22.58211
G1 X88.323 Y176.921 E22.60045
G1 X87.036 Y177.606 E22.63924
G1 X86.384 Y177.875 E22.65801
G1 X85.004 Y178.291 E22.69636
G1 X84.322 Y178.426 E22.71486
G1 X82.859 Y178.572 E22.75398
G1 X82.141 Y178.572 E22.77309
G1 X80.661 Y178.423 E22.81267
G1 X79.978 Y178.286 E22.8312
G1 X78.595 Y177.867 E22.86965
G1 X77.941 Y177.596 E22.88849
G1 X76.629 Y176.894 E22.92808
G1 X76.029 Y176.491 E22.94731
G1 X74.875 Y175.534 E22.9872
G1 X74.377 Y175.031 E23.00604
G1 X73.457 Y173.897 E23.04489
G1 X73.072 Y173.314 E23.06348
G1 X72.388 Y172.023 E23.10236
G1 X72.11 Y171.335 E23.1221
G1 X71.194 Y168.159 E23.21005
G1 X69.527 Y162.913 E23.35652
G1 X67.579 Y157.803 E23.50203
G1 X65.354 Y152.829 E23.64702
G1 X62.859 Y148.007 E23.79148
G1 X60.07 Y143.292 E23.93724
G1 X57.042 Y138.775 E24.08194
G1 X53.746 Y134.411 E24.22745
G1 X50.23 Y130.268 E24.37204
G1 X46.459 Y126.303 E24.51763
G1 X44.515 Y124.422 E24.58961
G1 X39.674 Y120.162 E24.76119
G1 X39.299 Y119.779 E24.77545
G1 X38.985 Y119.344 E24.78973
G1 X38.739 Y118.868 E24.80398
G1 X38.566 Y118.36 E24.81826
G1 X38.461 Y117.719 E24.83555
G1 X38.409 Y116.998 E24.85478
G1 X38.4 Y116.739 E24.86168
G1 X38.4 Y92.475 E25.5073
G1 X38.44 Y91.94 E25.52157
G1 X38.559 Y91.417 E25.53584
G1 X38.754 Y90.918 E25.5501
G1 X39.022 Y90.453 E25.56438
G1 X39.355 Y90.033 E25.57864
G1 X39.747 Y89.667 E25.59291
G1 X40.189 Y89.364 E25.60717
G1 X40.672 Y89.129 E25.62146
G0 F1542.9 X40.569 Y89.613
G1 F900 X41.037 Y89.423 E25.6349
G1 X41.53 Y89.31 E25.64836
G1 X42.004 Y89.275 E25.66101
G1 X66.995 Y89.31 E26.32597
G1 X67.499 Y89.351 E26.33942
G1 X67.991 Y89.47 E26.35289
G1 X68.457 Y89.666 E26.36634
G1 X68.887 Y89.932 E26.3798
G1 X69.269 Y90.263 E26.39325
G1 X69.595 Y90.649 E26.40669
G1 X69.855 Y91.083 E26.42015
G1 X70.044 Y91.552 E26.43361
G1 X70.157 Y92.044 E26.44704
G1 X70.191 Y92.507 E26.45939
G1 X70.2 Y101.043 E26.68652
G1 X70.356 Y106.571 E26.83367
G1 X70.821 Y112.037 E26.97963
G1 X71.592 Y117.443 E27.12493
G1 X72.675 Y122.848 E27.27161
G1 X73.311 Y125.442 E27.34267
G1 X74.045 Y128.109 E27.41627
G1 X75.723 Y133.328 E27.56214
G1 X77.69 Y138.434 E27.70774
G1 X79.957 Y143.452 E27.85425
G1 X81.169 Y145.859 E27.92596
G1 X83.837 Y150.639 E28.07161
G1 X86.78 Y155.275 E28.21773
G1 X90 Y159.762 E28.36468
G1 X91.274 Y161.408 E28.42006
G1 X91.57 Y161.865 E28.43455
G1 X92.252 Y163.148 E28.47321
G1 X92.49 Y163.727 E28.48987
G1 X92.908 Y165.114 E28.52841
G1 X93.028 Y165.718 E28.5448
G1 X93.174 Y167.177 E28.58381
G1 X93.175 Y167.811 E28.60068
G1 X93.03 Y169.279 E28.63993
G1 X92.908 Y169.891 E28.65654
G1 X92.485 Y171.288 E28.69538
G1 X92.243 Y171.872 E28.7122
G1 X91.54 Y173.184 E28.7518
G1 X91.185 Y173.712 E28.76873
G1 X90.234 Y174.862 E28.80844
G1 X89.782 Y175.31 E28.82537
G1 X88.646 Y176.23 E28.86427
G1 X88.135 Y176.568 E28.88057
G1 X86.848 Y177.253 E28.91936
G1 X86.269 Y177.492 E28.93603
G1 X84.889 Y177.908 E28.97438
G1 X84.283 Y178.028 E28.99082
G1 X82.82 Y178.174 E29.02994
G1 X82.181 Y178.174 E29.04694
G1 X80.701 Y178.025 E29.08652
G1 X80.094 Y177.904 E29.10299
G1 X78.711 Y177.485 E29.14144
G1 X78.129 Y177.244 E29.1582
G1 X76.817 Y176.542 E29.19779
G1 X76.284 Y176.183 E29.21489
G1 X75.13 Y175.226 E29.25478
G1 X74.688 Y174.779 E29.27151
G1 X73.768 Y173.645 E29.31037
G1 X73.425 Y173.127 E29.3269
G1 X72.741 Y171.836 E29.36577
G1 X72.494 Y171.225 E29.38331
G1 X71.573 Y168.032 E29.47173
G1 X69.901 Y162.77 E29.61864
G1 X67.953 Y157.66 E29.76415
G1 X65.713 Y152.654 E29.91008
G1 X63.201 Y147.798 E30.05555
G1 X60.417 Y143.091 E30.20106
G1 X57.362 Y138.533 E30.34707
G1 X54.064 Y134.167 E30.49265
G1 X50.525 Y129.997 E30.63818
G1 X46.744 Y126.022 E30.78416
G1 X44.796 Y124.138 E30.85626
G1 X39.938 Y119.862 E31.02847
G1 X39.586 Y119.499 E31.04192
G1 X39.296 Y119.085 E31.05537
