;FLAVOR:Marlin
;TIME:1182
;Filament used: 1.1328m, 0m
;Layer height: 0.16
;POSTPROCESSED
;Generated with Cura_SteamEngine 3.4.1
T0
M190 S65
M104 S198
M109 S198
M82 ;absolute extrusion mode
; Printer start settings begin
G28 ;Home
G0 X32 Y0
G92 X0 E5
G1 F1000 E0
;G29 ;Auto Bed Level
G29 X3 Y3 L0 R109 F32 B168
G92 E-5
G1 E0 F400
G0 Z15.0 F2400 ;Move the platform down 15mm
G0 X0 Y0 Z15.0 F9000 ;Move the platform down 15mm
G1 F200 E3
G92 E0
G92 E0
G1 F1200 E-5
;LAYER_COUNT:126
;LAYER:0
M107
G0 F1542.9 X42.601 Y90.604 Z0.16
;TYPE:SKIRT
G1 F1200 E0
G1 F900 X43.184 Y90.395 E0.0173
G1 X43.79 Y90.263 E0.03463
G1 X44.509 Y90.209 E0.05478
G1 X64.491 Y90.21 E0.61304
G1 X65.109 Y90.25 E0.63034
G1 X65.717 Y90.369 E0.64765
G1 X66.304 Y90.566 E0.66495
G1 X66.862 Y90.836 E0.68227
G1 X67.379 Y91.176 E0.69956
G1 X67.849 Y91.58 E0.71687
G1 X68.263 Y92.041 E0.73419
G1 X68.613 Y92.551 E0.75147
G1 X68.896 Y93.103 E0.7688
G1 X69.105 Y93.686 E0.7861
G1 X69.237 Y94.291 E0.8034
G1 X69.291 Y95.01 E0.82355
G1 X69.291 Y114.991 E1.38179
G1 X69.251 Y115.609 E1.39909
G1 X69.132 Y116.217 E1.4164
G1 X68.935 Y116.804 E1.43369
G1 X68.665 Y117.361 E1.45099
G1 X68.325 Y117.879 E1.4683
G1 X67.921 Y118.349 E1.48562
G1 X67.46 Y118.762 E1.50291
G1 X66.95 Y119.113 E1.5202
G1 X66.399 Y119.396 E1.53751
G1 X65.816 Y119.605 E1.55481
G1 X65.21 Y119.737 E1.57214
G1 X64.491 Y119.791 E1.59229
G1 X44.509 Y119.791 E2.15055
G1 X43.891 Y119.751 E2.16786
G1 X43.283 Y119.632 E2.18516
G1 X42.696 Y119.435 E2.20246
G1 X42.139 Y119.165 E2.21976
G1 X41.621 Y118.825 E2.23707
G1 X41.151 Y118.421 E2.25438
G1 X40.738 Y117.96 E2.27168
G1 X40.387 Y117.45 E2.28897
G1 X40.104 Y116.899 E2.30628
G1 X39.895 Y116.316 E2.32358
G1 X39.763 Y115.71 E2.34091
G1 X39.709 Y114.991 E2.36105
G1 X39.709 Y95.009 E2.91932
G1 X39.749 Y94.391 E2.93662
G1 X39.868 Y93.783 E2.95393
G1 X40.065 Y93.196 E2.97123
G1 X40.335 Y92.639 E2.98852
G1 X40.675 Y92.121 E3.00584
G1 X41.079 Y91.651 E3.02315
G1 X41.54 Y91.238 E3.04044
G1 X42.05 Y90.887 E3.05774
G1 X42.601 Y90.604 E3.07505
G0 F1542.9 X42.971 Y90.886
G1 F900 X43.54 Y90.717 E3.09163
G1 X44.125 Y90.626 E3.10817
G1 X44.509 Y90.609 E3.11891
G1 X64.491 Y90.61 E3.67718
G1 X65.083 Y90.65 E3.69375
G1 X65.664 Y90.769 E3.71032
G1 X66.223 Y90.965 E3.72687
G1 X66.751 Y91.235 E3.74344
G1 X67.238 Y91.573 E3.76
G1 X67.676 Y91.974 E3.77659
G1 X68.055 Y92.43 E3.79316
G1 X68.369 Y92.932 E3.8097
G1 X68.614 Y93.473 E3.8263
G1 X68.783 Y94.041 E3.84285
G1 X68.874 Y94.627 E3.85942
G1 X68.891 Y95.01 E3.87013
G1 X68.891 Y114.991 E4.42837
G1 X68.851 Y115.583 E4.44495
G1 X68.732 Y116.163 E4.46149
G1 X68.536 Y116.723 E4.47807
G1 X68.266 Y117.251 E4.49463
G1 X67.928 Y117.738 E4.5112
G1 X67.527 Y118.175 E4.52777
G1 X67.072 Y118.555 E4.54433
G1 X66.569 Y118.869 E4.5609
G1 X66.029 Y119.114 E4.57746
G1 X65.46 Y119.283 E4.59405
G1 X64.875 Y119.374 E4.61059
G1 X64.491 Y119.391 E4.62133
G1 X44.509 Y119.391 E5.17959
G1 X43.917 Y119.351 E5.19617
G1 X43.337 Y119.232 E5.21271
G1 X42.777 Y119.036 E5.22929
G1 X42.249 Y118.766 E5.24586
G1 X41.762 Y118.428 E5.26242
G1 X41.325 Y118.027 E5.27899
G1 X40.945 Y117.572 E5.29555
G1 X40.631 Y117.069 E5.31212
G1 X40.386 Y116.529 E5.32868
G1 X40.217 Y115.96 E5.34527
G1 X40.126 Y115.375 E5.36181
G1 X40.109 Y114.991 E5.37255
G1 X40.109 Y95.009 E5.93082
G1 X40.149 Y94.417 E5.94739
G1 X40.268 Y93.837 E5.96393
G1 X40.464 Y93.277 E5.98051
G1 X40.734 Y92.749 E5.99708
G1 X41.072 Y92.262 E6.01364
G1 X41.473 Y91.825 E6.03021
G1 X41.928 Y91.445 E6.04677
G1 X42.431 Y91.131 E6.06334
G1 X42.971 Y90.886 E6.07991
G0 F1542.9 X42.808 Y91.389
G1 F900 X43.336 Y91.185 E6.09572
G1 X43.886 Y91.058 E6.11149
G1 X44.509 Y91.009 E6.12895
G1 X64.491 Y91.01 E6.68722
G1 X65.055 Y91.05 E6.70302
G1 X65.608 Y91.169 E6.71882
G1 X66.138 Y91.365 E6.73461
G1 X66.636 Y91.633 E6.75041
G1 X67.09 Y91.97 E6.7662
G1 X67.493 Y92.366 E6.78199
G1 X67.836 Y92.816 E6.7978
G1 X68.111 Y93.309 E6.81357
G1 X68.315 Y93.837 E6.82938
G1 X68.442 Y94.388 E6.84518
G1 X68.491 Y95.01 E6.86261
G1 X68.491 Y114.991 E7.42085
G1 X68.451 Y115.555 E7.43665
G1 X68.332 Y116.108 E7.45245
G1 X68.136 Y116.638 E7.46824
G1 X67.868 Y117.135 E7.48402
G1 X67.532 Y117.59 E7.49982
G1 X67.135 Y117.993 E7.51562
G1 X66.685 Y118.335 E7.53141
G1 X66.192 Y118.611 E7.5472
G1 X65.664 Y118.815 E7.56301
G1 X65.114 Y118.942 E7.57878
G1 X64.491 Y118.991 E7.59624
G1 X44.509 Y118.991 E8.15451
G1 X43.945 Y118.951 E8.17031
G1 X43.392 Y118.832 E8.18611
G1 X42.862 Y118.636 E8.2019
G1 X42.365 Y118.368 E8.21767
G1 X41.91 Y118.032 E8.23348
G1 X41.507 Y117.635 E8.24928
G1 X41.165 Y117.185 E8.26507
G1 X40.889 Y116.692 E8.28086
G1 X40.685 Y116.164 E8.29667
G1 X40.558 Y115.614 E8.31244
G1 X40.509 Y114.991 E8.3299
G1 X40.509 Y95.009 E8.88817
G1 X40.549 Y94.445 E8.90397
G1 X40.668 Y93.892 E8.91977
G1 X40.864 Y93.362 E8.93556
G1 X41.132 Y92.865 E8.95133
G1 X41.468 Y92.41 E8.96714
G1 X41.865 Y92.007 E8.98294
G1 X42.315 Y91.665 E8.99873
G1 X42.808 Y91.389 E9.01452
G0 F1542.9 X43.181 Y91.663
G1 F900 X43.692 Y91.503 E9.02948
G1 X44.222 Y91.42 E9.04446
G1 X44.509 Y91.409 E9.05249
G1 X64.491 Y91.41 E9.61076
G1 X65.026 Y91.45 E9.62575
G1 X65.549 Y91.569 E9.64073
G1 X66.048 Y91.764 E9.6557
G1 X66.513 Y92.032 E9.67069
G1 X66.933 Y92.365 E9.68567
G1 X67.299 Y92.757 E9.70065
G1 X67.603 Y93.199 E9.71564
G1 X67.837 Y93.682 E9.73063
G1 X67.997 Y94.194 E9.74562
G1 X68.08 Y94.723 E9.76058
G1 X68.091 Y95.01 E9.76861
G1 X68.091 Y114.991 E10.32684
G1 X68.051 Y115.526 E10.34183
G1 X67.932 Y116.049 E10.35682
G1 X67.737 Y116.548 E10.37179
G1 X67.469 Y117.013 E10.38678
G1 X67.136 Y117.433 E10.40176
G1 X66.744 Y117.799 E10.41674
G1 X66.302 Y118.102 E10.43171
G1 X65.819 Y118.337 E10.44672
G1 X65.308 Y118.497 E10.46168
G1 X64.778 Y118.58 E10.47667
G1 X64.491 Y118.591 E10.48469
G1 X44.509 Y118.591 E11.04296
G1 X43.974 Y118.551 E11.05795
G1 X43.451 Y118.432 E11.07293
G1 X42.952 Y118.237 E11.0879
G1 X42.487 Y117.969 E11.10289
G1 X42.067 Y117.636 E11.11787
G1 X41.701 Y117.244 E11.13285
G1 X41.398 Y116.802 E11.14782
G1 X41.163 Y116.319 E11.16283
G1 X41.003 Y115.808 E11.17779
G1 X40.92 Y115.278 E11.19278
G1 X40.909 Y114.991 E11.2008
G1 X40.909 Y95.009 E11.75907
G1 X40.949 Y94.474 E11.77406
G1 X41.068 Y93.951 E11.78905
G1 X41.263 Y93.452 E11.80401
G1 X41.531 Y92.987 E11.81901
G1 X41.864 Y92.567 E11.83398
G1 X42.256 Y92.201 E11.84897
G1 X42.698 Y91.898 E11.86394
G1 X43.181 Y91.663 E11.87894
G0 F1542.9 X43.078 Y92.147
G1 F900 X43.546 Y91.957 E11.89306
G1 X44.039 Y91.844 E11.90719
G1 X44.509 Y91.809 E11.92035
G1 X64.491 Y91.81 E12.47862
G1 X64.995 Y91.85 E12.49275
G1 X65.487 Y91.969 E12.50689
G1 X65.953 Y92.164 E12.521
G1 X66.383 Y92.429 E12.53511
G1 X66.766 Y92.76 E12.54926
G1 X67.092 Y93.146 E12.56337
G1 X67.353 Y93.579 E12.5775
G1 X67.543 Y94.048 E12.59164
G1 X67.656 Y94.54 E12.60574
G1 X67.691 Y95.01 E12.61891
G1 X67.691 Y114.991 E13.17715
G1 X67.651 Y115.495 E13.19127
G1 X67.532 Y115.986 E13.20539
G1 X67.338 Y116.453 E13.21952
G1 X67.072 Y116.883 E13.23364
G1 X66.742 Y117.266 E13.24777
G1 X66.355 Y117.592 E13.2619
G1 X65.922 Y117.853 E13.27603
G1 X65.454 Y118.043 E13.29014
G1 X64.961 Y118.156 E13.30427
G1 X64.491 Y118.191 E13.31744
G1 X44.509 Y118.191 E13.87571
G1 X44.005 Y118.151 E13.88983
G1 X43.514 Y118.032 E13.90395
G1 X43.047 Y117.838 E13.91807
G1 X42.617 Y117.572 E13.9322
G1 X42.234 Y117.242 E13.94633
G1 X41.908 Y116.855 E13.96046
G1 X41.647 Y116.422 E13.97459
G1 X41.457 Y115.954 E13.9887
G1 X41.344 Y115.461 E14.00283
G1 X41.309 Y114.991 E14.016
G1 X41.309 Y95.009 E14.57426
G1 X41.349 Y94.505 E14.58839
G1 X41.468 Y94.014 E14.6025
G1 X41.662 Y93.547 E14.61663
G1 X41.928 Y93.117 E14.63076
G1 X42.258 Y92.734 E14.64488
G1 X42.645 Y92.408 E14.65902
G1 X43.078 Y92.147 E14.67315
G1 F1200 E9.67315
G0 F1542.9 X45.114 Y94.335
G0 X45.114 Y95.614
G0 X63.83 Y95.67
G0 X63.9 Y95.6
;TYPE:WALL-INNER
G1 F1200 E14.67315
G1 F900 X63.9 Y114.4 E15.19839
G1 X45.1 Y114.4 E15.72363
G1 X45.1 Y95.6 E16.24888
G1 X63.9 Y95.6 E16.77412
G0 F1542.9 X63.83 Y95.67
G0 X45.17 Y95.67
G0 X44.7 Y95.2
;TYPE:WALL-OUTER
G1 F900 X64.3 Y95.2 E17.32172
G1 X64.3 Y114.8 E17.86931
G1 X44.7 Y114.8 E18.41691
G1 X44.7 Y95.2 E18.9645
G0 F1542.9 X44.9 Y95.2
G0 X45.17 Y95.67
G0 X45.49 Y95.99
;TYPE:SKIN
G1 F900 X63.51 Y95.99 E19.46795
G1 X63.51 Y114.01 E19.97141
G1 X45.49 Y114.01 E20.47486
G1 X45.49 Y95.99 E20.97831
G0 F1542.9 X45.89 Y96.39
G1 F900 X63.11 Y96.39 E21.45941
G1 X63.11 Y113.61 E21.94051
G1 X45.89 Y113.61 E22.42161
G1 X45.89 Y96.39 E22.90271
G0 F1542.9 X46.29 Y96.79
G1 F900 X62.71 Y96.79 E23.36147
G1 X62.71 Y113.21 E23.82022
G1 X46.29 Y113.21 E24.27897
G1 X46.29 Y96.79 E24.73772
G0 F1542.9 X62.53 Y97.036
G0 X62.496 Y97.002
G1 F900 X62.213 Y97.285 E24.75155
G1 X62.6 Y97.672
G0 F1542.9 X62.53 Y98.168
G1 F900 X61.33 Y96.969 E24.79895
G1 X61.26 Y96.899
G0 F1542.9 X60.765 Y96.969
G1 F900 X62.53 Y98.734 E24.86868
G1 X62.6 Y98.804
G0 F1542.9 X62.53 Y99.299
G1 F900 X60.199 Y96.969 E24.96076
G1 X60.129 Y96.899
G0 F1542.9 X59.633 Y96.969
G1 F900 X62.53 Y99.865 E25.07521
G1 X62.6 Y99.935
G0 F1542.9 X62.53 Y100.431
G1 F900 X59.068 Y96.969 E25.212
G1 X58.998 Y96.899
G0 F1542.9 X58.502 Y96.969
G1 F900 X62.53 Y100.996 E25.37113
G1 X62.6 Y101.066
G0 F1542.9 X62.53 Y101.562
G1 F900 X57.936 Y96.969 E25.55262
G1 X57.866 Y96.899
G0 F1542.9 X57.371 Y96.969
G1 F900 X62.53 Y102.128 E25.75646
G1 X62.6 Y102.198
G0 F1542.9 X62.53 Y102.693
G1 F900 X56.805 Y96.969 E25.98264
G1 X56.735 Y96.899
G0 F1542.9 X56.239 Y96.969
G1 F900 X62.53 Y103.259 E26.23118
G1 X62.6 Y103.329
G0 F1542.9 X62.53 Y103.825
G1 F900 X55.674 Y96.969 E26.50207
G1 X55.604 Y96.899
G0 F1542.9 X55.108 Y96.969
G1 F900 X62.53 Y104.39 E26.7953
G1 X62.6 Y104.46
G0 F1542.9 X62.53 Y104.956
G1 F900 X54.542 Y96.969 E27.1109
G1 X54.472 Y96.899
G0 F1542.9 X53.976 Y96.969
G1 F900 X62.53 Y105.522 E27.44885
G1 X62.6 Y105.592
G0 F1542.9 X62.53 Y106.087
G1 F900 X53.411 Y96.969 E27.80913
G1 X53.341 Y96.899
G0 F1542.9 X52.845 Y96.969
G1 F900 X62.53 Y106.653 E28.19178
G1 X62.6 Y106.723
G0 F1542.9 X62.53 Y107.219
G1 F900 X52.279 Y96.969 E28.59679
G1 X52.209 Y96.899
G0 F1542.9 X51.714 Y96.969
G1 F900 X62.53 Y107.784 E29.02412
G1 X62.6 Y107.854
G0 F1542.9 X62.53 Y108.35
G1 F900 X51.148 Y96.969 E29.47381
G1 X51.078 Y96.899
G0 F1542.9 X50.582 Y96.969
G1 F900 X62.53 Y108.916 E29.94587
G1 X62.6 Y108.986
G0 F1542.9 X62.53 Y109.482
G1 F900 X50.017 Y96.969 E30.44027
G1 X49.947 Y96.899
G0 F1542.9 X49.451 Y96.969
G1 F900 X62.53 Y110.047 E30.95702
G1 X62.6 Y110.117
G0 F1542.9 X62.53 Y110.613
G1 F900 X48.885 Y96.969 E31.49613
G1 X48.815 Y96.899
G0 F1542.9 X48.32 Y96.969
G1 F900 X62.53 Y111.179 E32.05758
G1 X62.6 Y111.249
G0 F1542.9 X62.53 Y111.744
G1 F900 X47.754 Y96.969 E32.64137
G1 X47.684 Y96.899
G0 F1542.9 X47.188 Y96.969
G1 F900 X62.53 Y112.31 E33.24753
G1 X62.6 Y112.38
G0 F1542.9 X62.53 Y112.876
G1 F900 X46.623 Y96.969 E33.87603
G1 X46.553 Y96.899
G0 F1542.9 X46.469 Y97.381
G1 F900 X62.117 Y113.028 E34.49428
G1 X62.187 Y113.098
G0 F1542.9 X61.551 Y113.028
G1 F900 X46.469 Y97.947 E35.09017
G1 X46.399 Y97.877
G0 F1542.9 X46.469 Y98.512
G1 F900 X60.985 Y113.028 E35.66371
G1 X61.055 Y113.098
G0 F1542.9 X60.42 Y113.028
G1 F900 X46.469 Y99.078 E36.21491
G1 X46.399 Y99.008
G0 F1542.9 X46.469 Y99.644
G1 F900 X59.854 Y113.028 E36.74374
G1 X59.924 Y113.098
G0 F1542.9 X59.288 Y113.028
G1 F900 X46.469 Y100.209 E37.25023
G1 X46.399 Y100.139
G0 F1542.9 X46.469 Y100.775
G1 F900 X58.723 Y113.028 E37.73438
G1 X58.793 Y113.098
G0 F1542.9 X58.157 Y113.028
G1 F900 X46.469 Y101.341 E38.19617
G1 X46.399 Y101.271
G0 F1542.9 X46.469 Y101.906
G1 F900 X57.591 Y113.028 E38.63561
G1 X57.661 Y113.098
G0 F1542.9 X57.026 Y113.028
G1 F900 X46.469 Y102.472 E39.05271
G1 X46.399 Y102.402
G0 F1542.9 X46.469 Y103.038
G1 F900 X56.46 Y113.028 E39.44744
G1 X56.53 Y113.098
G0 F1542.9 X55.894 Y113.028
G1 F900 X46.469 Y103.603 E39.81983
G1 X46.399 Y103.533
G0 F1542.9 X46.469 Y104.169
G1 F900 X55.328 Y113.028 E40.16986
G1 X55.398 Y113.098
G0 F1542.9 X54.763 Y113.028
G1 F900 X46.469 Y104.735 E40.49755
G1 X46.399 Y104.665
G0 F1542.9 X46.469 Y105.3
G1 F900 X54.197 Y113.028 E40.80289
G1 X54.267 Y113.098
G0 F1542.9 X53.631 Y113.028
G1 F900 X46.469 Y105.866 E41.08587
G1 X46.399 Y105.796
G0 F1542.9 X46.469 Y106.432
G1 F900 X53.066 Y113.028 E41.3465
G1 X53.136 Y113.098
G0 F1542.9 X52.5 Y113.028
G1 F900 X46.469 Y106.997 E41.58479
G1 X46.399 Y106.927
G0 F1542.9 X46.469 Y107.563
G1 F900 X51.934 Y113.028 E41.80072
G1 X52.004 Y113.098
G0 F1542.9 X51.369 Y113.028
G1 F900 X46.469 Y108.129 E41.9943
G1 X46.399 Y108.059
G0 F1542.9 X46.469 Y108.695
G1 F900 X50.803 Y113.028 E42.16552
G1 X50.873 Y113.098
G0 F1542.9 X50.237 Y113.028
G1 F900 X46.469 Y109.26 E42.3144
G1 X46.399 Y109.19
G0 F1542.9 X46.469 Y109.826
G1 F900 X49.672 Y113.028 E42.44094
G1 X49.742 Y113.098
G0 F1542.9 X49.106 Y113.028
G1 F900 X46.469 Y110.392 E42.54511
G1 X46.399 Y110.322
G0 F1542.9 X46.469 Y110.957
G1 F900 X48.54 Y113.028 E42.62693
G1 X48.61 Y113.098
G0 F1542.9 X47.975 Y113.028
G1 F900 X46.469 Y111.523 E42.68642
G1 X46.399 Y111.453
G0 F1542.9 X46.469 Y112.089
G1 F900 X47.409 Y113.028 E42.72354
G1 X47.479 Y113.098
G0 F1542.9 X46.843 Y113.028
G1 F900 X46.469 Y112.654 E42.73832
G0 F1542.9 X63.5 Y96
;TIME_ELAPSED:115.913841
;LAYER:1
M140 S60
M106 S63.8
G0 F4371.4 X63.5 Y96 Z0.32
;TYPE:WALL-INNER
G1 F2550 X63.5 Y114 E43.19331
G1 X45.5 Y114 E43.64831
G1 X45.5 Y96 E44.10331
G1 X63.5 Y96 E44.55831
G0 F4371.4 X45.17 Y95.67
G0 X45.1 Y95.6
G1 F2550 X63.9 Y95.6 E45.03353
G1 X63.9 Y114.4 E45.50875
G1 X45.1 Y114.4 E45.98397
G1 X45.1 Y95.6 E46.45919
G0 F4371.4 X45.17 Y95.67
G0 X63.83 Y114.33
G0 X64.3 Y114.8
;TYPE:WALL-OUTER
G1 F1500 X44.7 Y114.8 E46.95464
G1 X44.7 Y95.2 E47.45008
G1 X64.3 Y95.2 E47.94552
G1 X64.3 Y114.8 E48.44097
G0 F4371.4 X64.1 Y114.8
G0 X63.83 Y114.33
G0 X63.11 Y113.61
;TYPE:SKIN
G1 F1500 X45.89 Y113.61 E48.87625
G1 X45.89 Y96.39 E49.31153
G1 X63.11 Y96.39 E49.74681
G1 X63.11 Y113.61 E50.18209
G0 F4371.4 X62.71 Y113.21
G1 F1500 X46.29 Y113.21 E50.59715
G1 X46.29 Y96.79 E51.01221
G1 X62.71 Y96.79 E51.42727
G1 X62.71 Y113.21 E51.84233
G0 F4371.4 X62.31 Y112.81
G1 F1500 X46.69 Y112.81 E52.23717
G1 X46.69 Y97.19 E52.63201
G1 X62.31 Y97.19 E53.02685
G1 X62.31 Y112.81 E53.42168
G0 F4371.4 X61.601 Y112.629
G1 F1500 X62.129 Y112.101 E53.44056
G0 F4371.4 X62.129 Y111.535
G1 F1500 X61.036 Y112.629 E53.47965
G1 X60.966 Y112.699
G0 F4371.4 X60.47 Y112.629
G1 F1500 X62.129 Y110.969 E53.53897
G1 X62.199 Y110.899
G0 F4371.4 X62.129 Y110.404
G1 F1500 X59.904 Y112.629 E53.61851
G1 X59.834 Y112.699
G0 F4371.4 X59.338 Y112.629
G1 F1500 X62.129 Y109.838 E53.71829
G1 X62.199 Y109.768
G0 F4371.4 X62.129 Y109.272
G1 F1500 X58.773 Y112.629 E53.83827
G1 X58.703 Y112.699
G0 F4371.4 X58.207 Y112.629
G1 F1500 X62.129 Y108.707 E53.97848
G1 X62.199 Y108.637
G0 F4371.4 X62.129 Y108.141
G1 F1500 X57.641 Y112.629 E54.13892
G1 X57.571 Y112.699
G0 F4371.4 X57.076 Y112.629
G1 F1500 X62.129 Y107.575 E54.31957
G1 X62.199 Y107.505
G0 F4371.4 X62.129 Y107.01
G1 F1500 X56.51 Y112.629 E54.52044
G1 X56.44 Y112.699
G0 F4371.4 X55.944 Y112.629
G1 F1500 X62.129 Y106.444 E54.74154
G1 X62.199 Y106.374
G0 F4371.4 X62.129 Y105.878
G1 F1500 X55.379 Y112.629 E54.98286
G1 X55.309 Y112.699
G0 F4371.4 X54.813 Y112.629
G1 F1500 X62.129 Y105.312 E55.24441
G1 X62.199 Y105.242
G0 F4371.4 X62.129 Y104.747
G1 F1500 X54.247 Y112.629 E55.52617
G1 X54.177 Y112.699
G0 F4371.4 X53.682 Y112.629
G1 F1500 X62.129 Y104.181 E55.82815
G1 X62.199 Y104.111
G0 F4371.4 X62.129 Y103.615
G1 F1500 X53.116 Y112.629 E56.15037
G1 X53.046 Y112.699
G0 F4371.4 X52.55 Y112.629
