;FLAVOR:Marlin
;TIME:1529
;Filament used: 0.0319522m, 1.35967m
;Layer height: 0.16
;POSTPROCESSED
;Generated with Cura_SteamEngine 3.4.1
T0
M190 S65
M104 S198
M104 T1 S170
M109 S198
M109 T1 S170
M82 ;absolute extrusion mode
; Printer start settings begin
G28 ;Home
G0 X32 Y0 F3000
G92 X0 E5
G1 F1000 E0
;G29 ;Auto Bed Level
G29 X3 Y3 L0 R109 F32 B168
G92 E-5
G1 E0 F400
G0 Z15.0 F2400 ;Move the platform down 15mm
G0 X0 Y0 Z15.0 F9000 ;Move the platform down 15mm
G1 F200 E3
G92 E0
G92 E0
G1 F1200 E-5
;LAYER_COUNT:126
;LAYER:0
M107
M104 T1 S198
G0 F1542.9 X42.601 Y90.604 Z0.16
;TYPE:SKIRT
G1 F1200 E0
G1 F900 X43.184 Y90.395 E0.0173
G1 X43.79 Y90.263 E0.03463
G1 X44.509 Y90.209 E0.05478
G1 X64.491 Y90.21 E0.61304
G1 X65.109 Y90.25 E0.63034
G1 X65.717 Y90.369 E0.64765
G1 X66.304 Y90.566 E0.66495
G1 X66.862 Y90.836 E0.68227
G1 X67.379 Y91.176 E0.69956
G1 X67.849 Y91.58 E0.71687
G1 X68.263 Y92.041 E0.73419
G1 X68.613 Y92.551 E0.75147
G1 X68.896 Y93.103 E0.7688
G1 X69.105 Y93.686 E0.7861
G1 X69.237 Y94.291 E0.8034
G1 X69.29 Y94.917 E0.82095
G1 X69.456 Y103.439 E1.05909
G1 X69.911 Y108.791 E1.20916
G1 X70.67 Y114.122 E1.3596
G1 X71.732 Y119.418 E1.51051
G1 X72.369 Y122.014 E1.58519
G1 X73.073 Y124.577 E1.65945
G1 X74.732 Y129.734 E1.8108
G1 X76.666 Y134.754 E1.9611
G1 X78.9 Y139.699 E2.1127
G1 X80.085 Y142.051 E2.18628
G1 X82.713 Y146.76 E2.33694
G1 X85.61 Y151.323 E2.48795
G1 X88.751 Y155.701 E2.63849
G1 X92.489 Y160.366 E2.8055
G1 X92.98 Y161.111 E2.83043
G1 X93.663 Y162.394 E2.87103
G1 X93.918 Y162.959 E2.88835
G1 X94.022 Y163.265 E2.89738
G1 X94.44 Y164.652 E2.93785
G1 X94.62 Y165.56 E2.96372
G1 X94.766 Y167.021 E3.00474
G1 X94.788 Y167.64 E3.02204
G1 X94.764 Y167.994 E3.03196
G1 X94.607 Y169.504 E3.07437
G1 X94.426 Y170.402 E3.09996
G1 X94.015 Y171.756 E3.1395
G1 X93.797 Y172.336 E3.15681
G1 X93.652 Y172.63 E3.16597
G1 X92.949 Y173.941 E3.20753
G1 X92.622 Y174.467 E3.22483
G1 X92.418 Y174.732 E3.23417
G1 X91.467 Y175.882 E3.27587
G1 X91.042 Y176.333 E3.29318
G1 X90.789 Y176.553 E3.30255
G1 X89.653 Y177.473 E3.34339
G1 X88.887 Y177.98 E3.36905
G1 X87.6 Y178.665 E3.40978
G1 X87.036 Y178.92 E3.42708
G1 X86.73 Y179.024 E3.43611
G1 X85.35 Y179.44 E3.47638
G1 X84.442 Y179.62 E3.50224
G1 X82.979 Y179.766 E3.54331
G1 X82.36 Y179.788 E3.56062
G1 X82.021 Y179.766 E3.57011
G1 X80.541 Y179.617 E3.61167
G1 X79.93 Y179.515 E3.62898
G1 X79.63 Y179.435 E3.63765
G1 X78.247 Y179.016 E3.67802
G1 X77.667 Y178.798 E3.69533
G1 X77.374 Y178.654 E3.70446
G1 X76.062 Y177.952 E3.74603
G1 X75.536 Y177.625 E3.76333
G1 X75.263 Y177.415 E3.77295
G1 X74.109 Y176.458 E3.81484
G1 X73.659 Y176.033 E3.83213
G1 X73.445 Y175.787 E3.84124
G1 X72.525 Y174.653 E3.88204
G1 X72.167 Y174.148 E3.89933
G1 X72.012 Y173.876 E3.90808
G1 X71.328 Y172.585 E3.9489
G1 X71.073 Y172.02 E3.96622
G1 X70.972 Y171.719 E3.97509
G1 X70.557 Y170.338 E4.01538
G1 X70.464 Y169.977 E4.02579
G1 X70.009 Y167.888 E4.08552
G1 X68.651 Y162.605 E4.23792
G1 X67.021 Y157.484 E4.38807
G1 X65.096 Y152.446 E4.53875
G1 X62.893 Y147.534 E4.68915
G1 X60.418 Y142.755 E4.83951
G1 X57.676 Y138.126 E4.98982
G1 X54.67 Y133.651 E5.14044
G1 X51.423 Y129.358 E5.29082
G1 X47.935 Y125.253 E5.44132
G1 X44.216 Y121.347 E5.592
G1 X41.194 Y118.461 E5.70875
G1 X40.775 Y118.006 E5.72603
G1 X40.417 Y117.5 E5.74334
G1 X40.128 Y116.952 E5.76065
G1 X39.912 Y116.372 E5.77795
G1 X39.772 Y115.768 E5.79527
G1 X39.709 Y114.99 E5.81707
G1 X39.709 Y95.009 E6.37531
G1 X39.749 Y94.391 E6.39262
G1 X39.868 Y93.783 E6.40993
G1 X40.065 Y93.196 E6.42722
G1 X40.335 Y92.639 E6.44452
G1 X40.675 Y92.121 E6.46183
G1 X41.079 Y91.651 E6.47914
G1 X41.54 Y91.238 E6.49644
G1 X42.05 Y90.887 E6.51373
G1 X42.601 Y90.604 E6.53104
G0 F1542.9 X42.971 Y90.886
G1 F900 X43.54 Y90.717 E6.54762
G1 X44.125 Y90.626 E6.56416
G1 X44.509 Y90.609 E6.5749
G1 X64.491 Y90.61 E7.13317
G1 X65.083 Y90.65 E7.14975
G1 X65.664 Y90.769 E7.16632
G1 X66.223 Y90.965 E7.18287
G1 X66.751 Y91.235 E7.19943
G1 X67.238 Y91.573 E7.216
G1 X67.676 Y91.974 E7.23259
G1 X68.055 Y92.43 E7.24915
G1 X68.369 Y92.932 E7.2657
G1 X68.614 Y93.473 E7.28229
G1 X68.783 Y94.041 E7.29885
G1 X68.874 Y94.627 E7.31541
G1 X68.89 Y94.924 E7.32372
G1 X69.056 Y103.465 E7.56239
G1 X69.512 Y108.829 E7.71279
G1 X70.276 Y114.189 E7.86406
G1 X71.346 Y119.523 E8.01605
G1 X71.97 Y122.068 E8.08926
G1 X72.691 Y124.693 E8.16532
G1 X74.358 Y129.874 E8.31737
G1 X76.296 Y134.905 E8.468
G1 X78.541 Y139.875 E8.62036
G1 X79.731 Y142.238 E8.69428
G1 X82.372 Y146.969 E8.84566
G1 X85.277 Y151.545 E8.99709
G1 X88.431 Y155.941 E9.14825
G1 X92.177 Y160.616 E9.31562
G1 X92.627 Y161.299 E9.33847
G1 X93.31 Y162.582 E9.37908
G1 X93.639 Y163.38 E9.40319
G1 X94.057 Y164.767 E9.44367
G1 X94.222 Y165.599 E9.46736
G1 X94.368 Y167.06 E9.50839
G1 X94.387 Y167.653 E9.52496
G1 X94.366 Y167.953 E9.53336
G1 X94.209 Y169.463 E9.57578
G1 X94.043 Y170.286 E9.59924
G1 X93.632 Y171.64 E9.63877
G1 X93.3 Y172.441 E9.66299
G1 X92.597 Y173.752 E9.70455
G1 X92.11 Y174.477 E9.72896
G1 X91.159 Y175.627 E9.77065
G1 X90.537 Y176.242 E9.79509
G1 X89.401 Y177.162 E9.83593
G1 X88.699 Y177.627 E9.85945
G1 X87.412 Y178.312 E9.90018
G1 X86.615 Y178.641 E9.92427
G1 X85.235 Y179.057 E9.96454
G1 X84.402 Y179.222 E9.98827
G1 X82.939 Y179.368 E10.02934
G1 X82.061 Y179.368 E10.05387
G1 X80.581 Y179.219 E10.09543
G1 X79.746 Y179.052 E10.11922
G1 X78.363 Y178.633 E10.1596
G1 X77.563 Y178.302 E10.18378
G1 X76.251 Y177.6 E10.22536
G1 X75.518 Y177.107 E10.25004
G1 X74.364 Y176.15 E10.29192
G1 X73.756 Y175.535 E10.31608
G1 X72.836 Y174.401 E10.35688
G1 X72.365 Y173.689 E10.38073
G1 X71.681 Y172.398 E10.42155
G1 X71.355 Y171.604 E10.44553
G1 X70.94 Y170.223 E10.48582
G1 X70.855 Y169.892 E10.49537
G1 X70.396 Y167.781 E10.55572
G1 X69.039 Y162.505 E10.70792
G1 X67.397 Y157.345 E10.85921
G1 X65.467 Y152.297 E11.0102
G1 X63.256 Y147.364 E11.16123
G1 X60.771 Y142.567 E11.31217
G1 X58.009 Y137.905 E11.46356
G1 X54.992 Y133.412 E11.61476
G1 X51.739 Y129.111 E11.76542
G1 X48.238 Y124.992 E11.91645
G1 X44.499 Y121.064 E12.06797
G1 X41.47 Y118.172 E12.18497
G1 X41.07 Y117.735 E12.20152
G1 X40.732 Y117.247 E12.21811
G1 X40.463 Y116.719 E12.23466
G1 X40.267 Y116.159 E12.25124
G1 X40.149 Y115.578 E12.2678
G1 X40.109 Y114.99 E12.28427
G1 X40.109 Y95.009 E12.84251
G1 X40.149 Y94.417 E12.85908
G1 X40.268 Y93.837 E12.87563
G1 X40.464 Y93.277 E12.8922
G1 X40.734 Y92.749 E12.90877
G1 X41.072 Y92.262 E12.92533
G1 X41.473 Y91.825 E12.9419
G1 X41.928 Y91.445 E12.95847
G1 X42.431 Y91.131 E12.97503
G1 X42.971 Y90.886 E12.9916
G0 F1542.9 X42.808 Y91.389
G1 F900 X43.336 Y91.185 E13.00741
G1 X43.886 Y91.058 E13.02318
G1 X44.509 Y91.009 E13.04064
G1 X64.491 Y91.01 E13.59891
G1 X65.055 Y91.05 E13.61471
G1 X65.608 Y91.169 E13.63051
G1 X66.138 Y91.365 E13.6463
G1 X66.636 Y91.633 E13.6621
G1 X67.09 Y91.97 E13.6779
G1 X67.493 Y92.366 E13.69368
G1 X67.836 Y92.816 E13.70949
G1 X68.111 Y93.309 E13.72526
G1 X68.315 Y93.837 E13.74107
G1 X68.442 Y94.388 E13.75687
G1 X68.49 Y94.932 E13.77213
G1 X68.656 Y103.476 E14.01088
G1 X69.116 Y108.886 E14.16257
G1 X69.881 Y114.253 E14.31404
G1 X70.953 Y119.6 E14.4664
G1 X71.59 Y122.197 E14.5411
G1 X72.306 Y124.802 E14.61658
G1 X73.977 Y129.997 E14.76905
G1 X75.934 Y135.078 E14.92117
G1 X78.172 Y140.031 E15.07302
G1 X79.377 Y142.424 E15.14787
G1 X82.036 Y147.186 E15.30025
G1 X84.938 Y151.759 E15.45157
G1 X88.111 Y156.181 E15.60363
G1 X91.865 Y160.866 E15.77135
G1 X92.274 Y161.487 E15.79213
G1 X92.957 Y162.77 E15.83274
G1 X93.256 Y163.496 E15.85467
G1 X93.674 Y164.883 E15.89515
G1 X93.824 Y165.639 E15.91668
G1 X93.97 Y167.1 E15.9577
G1 X93.969 Y167.912 E15.98039
G1 X93.812 Y169.422 E16.0228
G1 X93.661 Y170.17 E16.04412
G1 X93.25 Y171.524 E16.08365
G1 X92.947 Y172.252 E16.10568
G1 X92.244 Y173.563 E16.14724
G1 X91.802 Y174.222 E16.16941
G1 X90.851 Y175.372 E16.21111
G1 X90.285 Y175.931 E16.23333
G1 X89.149 Y176.851 E16.27417
G1 X88.511 Y177.274 E16.29556
G1 X87.224 Y177.959 E16.33629
G1 X86.499 Y178.258 E16.3582
G1 X85.119 Y178.674 E16.39847
G1 X84.362 Y178.824 E16.42003
G1 X82.899 Y178.97 E16.46111
G1 X82.101 Y178.97 E16.4834
G1 X80.621 Y178.821 E16.52496
G1 X79.862 Y178.669 E16.54659
G1 X78.479 Y178.25 E16.58696
G1 X77.752 Y177.949 E16.60894
G1 X76.44 Y177.247 E16.65052
G1 X75.774 Y176.799 E16.67294
G1 X74.62 Y175.842 E16.71483
G1 X74.067 Y175.283 E16.7368
G1 X73.147 Y174.149 E16.77759
G1 X72.718 Y173.502 E16.79928
G1 X72.034 Y172.211 E16.8401
G1 X71.738 Y171.489 E16.8619
G1 X71.323 Y170.108 E16.90219
G1 X71.245 Y169.807 E16.91088
G1 X70.781 Y167.674 E16.97186
G1 X69.423 Y162.394 E17.12418
G1 X67.771 Y157.202 E17.2764
G1 X65.839 Y152.148 E17.42757
G1 X63.618 Y147.195 E17.57922
G1 X61.113 Y142.359 E17.73138
G1 X58.356 Y137.704 E17.88254
G1 X55.319 Y133.181 E18.03475
G1 X52.047 Y128.856 E18.18626
G1 X48.533 Y124.722 E18.33785
G1 X44.793 Y120.792 E18.48942
G1 X41.746 Y117.883 E18.60712
G1 X41.366 Y117.465 E18.6229
G1 X41.049 Y116.997 E18.63869
G1 X40.8 Y116.489 E18.6545
G1 X40.626 Y115.951 E18.67029
G1 X40.529 Y115.394 E18.68609
G1 X40.509 Y114.99 E18.69739
G1 X40.509 Y95.009 E19.25563
G1 X40.549 Y94.445 E19.27143
G1 X40.668 Y93.892 E19.28723
G1 X40.864 Y93.362 E19.30302
G1 X41.132 Y92.865 E19.31879
G1 X41.468 Y92.41 E19.3346
G1 X41.865 Y92.007 E19.3504
G1 X42.315 Y91.665 E19.36619
G1 X42.808 Y91.389 E19.38198
G0 F1542.9 X43.181 Y91.663
G1 F900 X43.692 Y91.503 E19.39694
G1 X44.222 Y91.42 E19.41193
G1 X44.509 Y91.409 E19.41995
G1 X64.491 Y91.41 E19.97822
G1 X65.026 Y91.45 E19.99321
G1 X65.549 Y91.569 E20.00819
G1 X66.048 Y91.764 E20.02316
G1 X66.513 Y92.032 E20.03815
G1 X66.933 Y92.365 E20.05313
G1 X67.299 Y92.757 E20.06811
G1 X67.603 Y93.199 E20.0831
G1 X67.837 Y93.682 E20.0981
G1 X67.997 Y94.194 E20.11308
G1 X68.09 Y94.94 E20.13409
G1 X68.257 Y103.502 E20.37334
G1 X68.717 Y108.922 E20.52531
G1 X69.486 Y114.316 E20.67754
G1 X70.566 Y119.705 E20.83109
G1 X71.202 Y122.293 E20.90555
G1 X71.923 Y124.918 E20.9816
G1 X73.602 Y130.137 E21.13477
G1 X75.557 Y135.214 E21.28677
G1 X77.822 Y140.226 E21.44043
G1 X79.023 Y142.611 E21.51504
G1 X81.686 Y147.382 E21.66769
G1 X84.605 Y151.981 E21.81987
G1 X87.8 Y156.434 E21.97299
G1 X91.552 Y161.116 E22.14062
G1 X91.921 Y161.675 E22.15934
G1 X92.604 Y162.958 E22.19994
G1 X92.873 Y163.611 E22.21968
G1 X93.291 Y164.998 E22.26015
G1 X93.426 Y165.679 E22.27954
G1 X93.572 Y167.14 E22.32057
G1 X93.571 Y167.87 E22.34096
G1 X93.414 Y169.38 E22.38337
G1 X93.278 Y170.054 E22.40258
G1 X92.867 Y171.408 E22.44212
G1 X92.595 Y172.063 E22.46193
G1 X91.892 Y173.374 E22.50349
G1 X91.493 Y173.967 E22.52346
G1 X90.542 Y175.117 E22.56515
G1 X90.034 Y175.621 E22.58515
G1 X88.898 Y176.541 E22.62599
G1 X88.323 Y176.921 E22.64524
G1 X87.036 Y177.606 E22.68598
G1 X86.384 Y177.875 E22.70568
G1 X85.004 Y178.291 E22.74595
G1 X84.322 Y178.426 E22.76537
G1 X82.859 Y178.572 E22.80645
G1 X82.141 Y178.572 E22.82651
G1 X80.661 Y178.423 E22.86807
G1 X79.978 Y178.286 E22.88753
G1 X78.595 Y177.867 E22.92791
G1 X77.941 Y177.596 E22.94768
G1 X76.629 Y176.894 E22.98926
G1 X76.029 Y176.491 E23.00945
G1 X74.875 Y175.534 E23.05133
G1 X74.377 Y175.031 E23.07111
G1 X73.457 Y173.897 E23.11191
G1 X73.072 Y173.314 E23.13143
G1 X72.388 Y172.023 E23.17225
G1 X72.121 Y171.374 E23.19185
G1 X71.706 Y169.993 E23.23214
G1 X71.636 Y169.722 E23.23996
G1 X71.174 Y167.599 E23.30066
G1 X69.801 Y162.262 E23.45462
G1 X68.156 Y157.091 E23.60623
G1 X66.206 Y151.99 E23.7588
G1 X63.978 Y147.02 E23.91097
G1 X61.462 Y142.163 E24.06379
G1 X58.694 Y137.491 E24.21551
G1 X55.646 Y132.951 E24.36829
G1 X52.356 Y128.601 E24.52066
G1 X48.829 Y124.451 E24.67282
G1 X45.077 Y120.51 E24.82485
G1 X42.023 Y117.594 E24.94282
G1 X41.664 Y117.195 E24.95782
G1 X41.368 Y116.748 E24.9728
G1 X41.141 Y116.262 E24.98778
G1 X40.99 Y115.748 E25.00275
G1 X40.909 Y114.99 E25.02405
G1 X40.909 Y95.009 E25.58229
G1 X40.949 Y94.474 E25.59728
G1 X41.068 Y93.951 E25.61226
G1 X41.263 Y93.452 E25.62723
G1 X41.531 Y92.987 E25.64222
G1 X41.864 Y92.567 E25.6572
G1 X42.256 Y92.201 E25.67218
G1 X42.698 Y91.898 E25.68715
G1 X43.181 Y91.663 E25.70216
G0 F1542.9 X43.078 Y92.147
G1 F900 X43.546 Y91.957 E25.71627
G1 X44.039 Y91.844 E25.7304
G1 X44.509 Y91.809 E25.74357
G1 X64.491 Y91.81 E26.30184
G1 X64.995 Y91.85 E26.31596
G1 X65.487 Y91.969 E26.3301
G1 X65.953 Y92.164 E26.34422
G1 X66.383 Y92.429 E26.35833
G1 X66.766 Y92.76 E26.37247
G1 X67.092 Y93.146 E26.38659
G1 X67.353 Y93.579 E26.40071
G1 X67.543 Y94.048 E26.41485
G1 X67.656 Y94.54 E26.42895
G1 X67.69 Y94.948 E26.44039
G1 X67.857 Y103.514 E26.67976
G1 X68.321 Y108.976 E26.83291
G1 X69.092 Y114.382 E26.98547
G1 X70.175 Y119.787 E27.13948
G1 X70.811 Y122.381 E27.2141
G1 X71.545 Y125.048 E27.29138
G1 X73.223 Y130.267 E27.44455
G1 X75.19 Y135.373 E27.59742
G1 X77.457 Y140.391 E27.75126
G1 X78.669 Y142.798 E27.82655
G1 X81.337 Y147.578 E27.97949
G1 X84.28 Y152.214 E28.13291
G1 X87.481 Y156.674 E28.28629
G1 X91.24 Y161.366 E28.45425
G1 X91.568 Y161.863 E28.47089
G1 X92.251 Y163.146 E28.5115
G1 X92.49 Y163.727 E28.52905
G1 X92.908 Y165.114 E28.56952
G1 X93.028 Y165.719 E28.58675
G1 X93.174 Y167.18 E28.62778
G1 X93.173 Y167.829 E28.64591
G1 X93.016 Y169.339 E28.68832
G1 X92.895 Y169.937 E28.70537
G1 X92.484 Y171.291 E28.7449
G1 X92.242 Y171.874 E28.76254
G1 X91.539 Y173.185 E28.8041
G1 X91.185 Y173.712 E28.82184
G1 X90.234 Y174.862 E28.86353
G1 X89.782 Y175.31 E28.88131
G1 X88.646 Y176.23 E28.92215
G1 X88.135 Y176.568 E28.93927
G1 X86.848 Y177.253 E28.98
G1 X86.269 Y177.492 E28.9975
G1 X84.889 Y177.908 E29.03777
G1 X84.283 Y178.028 E29.05503
G1 X82.82 Y178.174 E29.0961
G1 X82.181 Y178.174 E29.11396
G1 X80.701 Y178.025 E29.15551
G1 X80.094 Y177.904 E29.17281
G1 X78.711 Y177.485 E29.21318
G1 X78.129 Y177.244 E29.23078
G1 X76.817 Y176.542 E29.27235
G1 X76.284 Y176.183 E29.29031
G1 X75.13 Y175.226 E29.33219
G1 X74.688 Y174.779 E29.34975
G1 X73.768 Y173.645 E29.39055
G1 X73.425 Y173.127 E29.40791
G1 X72.741 Y171.836 E29.44873
G1 X72.504 Y171.259 E29.46615
G1 X72.089 Y169.878 E29.50644
G1 X72.027 Y169.637 E29.51339
G1 X71.56 Y167.493 E29.5747
G1 X70.189 Y162.162 E29.72849
G1 X68.532 Y156.953 E29.8812
G1 X66.578 Y151.841 E30.0341
G1 X64.334 Y146.836 E30.18735
G1 X61.819 Y141.981 E30.34011
G1 X59.032 Y137.277 E30.49286
G1 X55.967 Y132.712 E30.64648
G1 X52.671 Y128.354 E30.79914
G1 X49.132 Y124.19 E30.95182
G1 X45.349 Y120.217 E31.10509
G1 X42.299 Y117.304 E31.22292
G1 X41.962 Y116.927 E31.23705
G1 X41.689 Y116.502 E31.25116
G1 X41.486 Y116.039 E31.26529
G1 X41.358 Y115.55 E31.27941
G1 X41.309 Y114.99 E31.29511
G1 X41.309 Y95.009 E31.85335
G1 X41.349 Y94.505 E31.86748
G1 X41.468 Y94.014 E31.88159
G1 X41.662 Y93.547 E31.89572
G1 X41.928 Y93.117 E31.90985
G1 X42.258 Y92.734 E31.92397
G1 X42.645 Y92.408 E31.93811
G1 X43.078 Y92.147 E31.95223
M104 S183
G1 F1200 E26.95223
G0 F1542.9 X43.847 Y115.653
G0 X90 Y160
G1 F1200 E31.95223
G92 E0
; END MPE 0
M104 T0 S170.0
M104 T1 S198.0
M107 P0
G10 ; retract
; END MPE Done
T1
G92 E0
; START MPE 1
M109 T1 S198.0
G11
; START MPE 1 Done
M109 S198
M104 T0 S0
G0 F3600 X90 Y160 Z0.16
G1 F1500 E-5
G0 F3600 X90 Y170
G0 X94.781 Y171.989
;TYPE:SKIRT
G1 F1500 E0
G1 F1800 X94.548 Y172.616 E0.0178
G1 X94.357 Y173.008 E0.0294
G1 X93.654 Y174.319 E0.06898
G1 X93.303 Y174.889 E0.08679
G1 X93.035 Y175.242 E0.09859
G1 X92.084 Y176.392 E0.13829
G1 X91.627 Y176.881 E0.1561
G1 X91.292 Y177.175 E0.16796
G1 X90.156 Y178.095 E0.20686
G1 X89.612 Y178.484 E0.22465
G1 X89.263 Y178.686 E0.23538
G1 X87.976 Y179.371 E0.27418
G1 X87.368 Y179.65 E0.29198
G1 X86.961 Y179.79 E0.30343
G1 X85.581 Y180.206 E0.34178
