;FLAVOR:Marlin
;TIME:366
;Filament used: 0.1578m, 0.168733m
;Layer height: 0.2
;POSTPROCESSED
;Generated with Cura_SteamEngine 3.4.1
T0
M190 S65
M104 S200
M104 T1 S190
M109 S200
M109 T1 S190
M82 ;absolute extrusion mode
; Printer start settings begin
; Calibration section to overwrite Firmware values
; Identifier CALIBR, CALRES and CALMPE, surrounded by #, + or - can be used in post processing
; #CALIBR# M92 X160 Y160 Z3200 ; +CALIBR+ Steps per unit
; #CALRESO# M201 X1000 Y1000 Z50 E1500 E1500 ; +CALRESO+ Max Accelleration
; #CALRESO# M203 X800 Y800 Z2 E90 E90 ; +CALRESO+ Max Feed
; #CALRESO# M205 X3.0 Y3.0 Z0.3 E5.0 ; +CALRESO+ Default Jerk
; #CALMPE#
M951 L32 R139 G32 N75 H300 D10 C0 ; +CALMPE+ Parking kinematic values / needs MPE kinematic to be compiled and activated in firmware
; #CALMPE#
M851 Z-0.55 ; +CALMPE+ System Z Probe Offset
; #CALMPE#
M218 T1 X0.65 Y0.0 Z0.3; +CALMPE+ T1 Nozzle offset values
; #CALMPE#
M206 X-32.00 Y0.00 Z0.00; +CALMPE+ Home Offset
; #REM#  M951 args: L: Left parking,R: Right parking, I: Grab Offset, J: Normal speed, H: High speed, D: Distance trav., C: Compenstion
; #CALMPE#
M951 L32 R140 I32 J4500 H9000 D10 C0 ; MPE Setup
; #CALMPE# M217 Z5.00 Z-Lift
G28 ;Home
G92 E5
G1 F1000 E0
; #MPE# G29 ; -MPE- Auto Bed Level, uses this if FW values are set correct.
; #MPE# G29 X3 Y3 L0 R109 F32 B168 ; +MPE+ Auto Bed Leveling, needed if not poroper defined in Firmware
G92 E-5
G1 E0 F400
G0 Z15.0 F100 ;Move the platform down 15mm
G0 X0 Y0 F9000 ;Move to front
G1 F200 E3
G92 E0
; Printer start settings end

G92 E-35
G1 E0 F400 
G1 F400 E-1
;LAYER_COUNT:21
;LAYER:0
M107
M104 T1 S198
G0 F1542.9 X46.601 Y103.605 Z0.16
;TYPE:SKIRT
G1 F600 E0
G1 F900 X47.184 Y103.396 E0.0173
G1 X47.789 Y103.263 E0.03461
G1 X48.509 Y103.209 E0.05478
G1 X58.491 Y103.21 E0.33366
G1 X59.11 Y103.25 E0.35099
G1 X59.717 Y103.369 E0.36828
G1 X60.305 Y103.566 E0.3856
G1 X60.862 Y103.836 E0.40289
G1 X61.379 Y104.176 E0.42018
G1 X61.849 Y104.58 E0.4375
G1 X62.263 Y105.041 E0.45481
G1 X62.614 Y105.552 E0.47213
G1 X62.896 Y106.103 E0.48942
G1 X63.174 Y106.959 E0.51457
G1 X64.781 Y114.118 E0.71956
G1 X65.489 Y116.662 E0.79333
G1 X67.17 Y121.838 E0.94538
G1 X68.099 Y124.335 E1.01981
G1 X69.097 Y126.799 E1.09408
G1 X71.345 Y131.738 E1.24569
G1 X73.837 Y136.481 E1.39538
G1 X76.641 Y141.158 E1.54774
G1 X78.071 Y143.329 E1.62037
G1 X81.243 Y147.725 E1.77182
G1 X84.638 Y151.908 E1.92233
G1 X88.282 Y155.913 E2.07361
G1 X91.215 Y158.837 E2.18932
G1 X91.554 Y159.212 E2.20344
G1 X92.471 Y160.342 E2.2441
G1 X92.982 Y161.114 E2.26997
G1 X93.664 Y162.397 E2.31056
G1 X93.919 Y162.962 E2.32788
G1 X94.022 Y163.265 E2.33682
G1 X94.44 Y164.652 E2.37729
G1 X94.62 Y165.559 E2.40313
G1 X94.766 Y167.018 E2.44409
G1 X94.788 Y167.637 E2.4614
G1 X94.767 Y167.968 E2.47066
G1 X94.622 Y169.436 E2.51188
G1 X94.521 Y170.047 E2.52918
G1 X94.439 Y170.354 E2.53806
G1 X94.02 Y171.739 E2.57848
G1 X93.803 Y172.319 E2.59579
G1 X93.662 Y172.606 E2.60472
G1 X92.965 Y173.914 E2.64613
G1 X92.639 Y174.441 E2.66344
G1 X92.433 Y174.71 E2.67291
G1 X91.472 Y175.876 E2.71512
G1 X91.048 Y176.327 E2.73242
G1 X90.789 Y176.553 E2.74202
G1 X89.653 Y177.473 E2.78286
G1 X88.887 Y177.98 E2.80852
G1 X87.6 Y178.665 E2.84926
G1 X87.036 Y178.92 E2.86655
G1 X86.73 Y179.024 E2.87558
G1 X85.35 Y179.44 E2.91585
G1 X84.442 Y179.62 E2.94171
G1 X82.979 Y179.766 E2.98279
G1 X82.36 Y179.788 E3.00009
G1 X82.021 Y179.766 E3.00958
G1 X80.541 Y179.617 E3.05114
G1 X79.93 Y179.515 E3.06845
G1 X79.63 Y179.435 E3.07712
G1 X78.247 Y179.016 E3.11749
G1 X77.667 Y178.798 E3.13481
G1 X77.374 Y178.654 E3.14393
G1 X76.062 Y177.952 E3.1855
G1 X75.536 Y177.625 E3.2028
G1 X75.263 Y177.415 E3.21243
G1 X74.109 Y176.458 E3.25431
G1 X73.659 Y176.033 E3.2716
G1 X73.445 Y175.787 E3.28071
G1 X72.525 Y174.653 E3.32151
G1 X72.167 Y174.148 E3.33881
G1 X72.012 Y173.876 E3.34755
G1 X71.328 Y172.585 E3.38837
G1 X71.073 Y172.02 E3.40569
G1 X70.972 Y171.718 E3.41459
G1 X70.551 Y170.315 E3.45551
G1 X70.464 Y169.986 E3.46502
G1 X69.158 Y164.165 E3.63169
G1 X67.668 Y158.983 E3.78233
G1 X65.892 Y153.905 E3.93263
G1 X63.825 Y148.921 E4.08338
G1 X61.491 Y144.082 E4.23348
G1 X58.87 Y139.357 E4.38444
G1 X56.002 Y134.807 E4.5347
G1 X52.888 Y130.439 E4.68458
G1 X49.519 Y126.239 E4.835
G1 X44.959 Y121.226 E5.02434
G1 X44.573 Y120.742 E5.04163
G1 X44.252 Y120.212 E5.05894
G1 X44.002 Y119.645 E5.07626
G1 X43.827 Y119.051 E5.09356
G1 X43.731 Y118.439 E5.11086
G1 X43.71 Y117.996 E5.12325
G1 X43.709 Y108.009 E5.40228
G1 X43.749 Y107.391 E5.41958
G1 X43.868 Y106.784 E5.43686
G1 X44.064 Y106.196 E5.45418
G1 X44.335 Y105.639 E5.47148
G1 X44.675 Y105.121 E5.48879
G1 X45.079 Y104.652 E5.50609
G1 X45.539 Y104.238 E5.52338
G1 X46.05 Y103.887 E5.5407
G1 X46.601 Y103.605 E5.55799
G0 F1542.9 X46.971 Y103.887
G1 F900 X47.539 Y103.717 E5.57456
G1 X48.125 Y103.626 E5.59112
G1 X48.509 Y103.609 E5.60186
G1 X58.491 Y103.61 E5.88074
G1 X59.083 Y103.65 E5.89732
G1 X59.664 Y103.769 E5.91389
G1 X60.223 Y103.965 E5.93044
G1 X60.752 Y104.235 E5.94703
G1 X61.239 Y104.573 E5.9636
G1 X61.676 Y104.974 E5.98017
G1 X62.055 Y105.43 E5.99673
G1 X62.37 Y105.932 E6.01329
G1 X62.614 Y106.473 E6.02987
G1 X62.784 Y107.046 E6.04657
G1 X64.394 Y114.215 E6.25185
G1 X65.105 Y116.773 E6.32603
G1 X66.792 Y121.968 E6.47863
G1 X67.737 Y124.507 E6.55432
G1 X68.725 Y126.946 E6.62784
G1 X70.988 Y131.917 E6.78043
G1 X73.49 Y136.68 E6.93075
G1 X76.307 Y141.379 E7.08381
G1 X77.731 Y143.54 E7.15612
G1 X80.931 Y147.974 E7.30889
G1 X84.333 Y152.167 E7.45975
G1 X87.996 Y156.193 E7.61181
G1 X90.933 Y159.121 E7.72768
G1 X91.244 Y159.464 E7.74062
G1 X92.161 Y160.594 E7.78127
G1 X92.629 Y161.302 E7.80499
G1 X93.311 Y162.585 E7.84558
G1 X93.639 Y163.38 E7.86961
G1 X94.057 Y164.767 E7.91008
G1 X94.222 Y165.599 E7.93378
G1 X94.368 Y167.058 E7.97474
G1 X94.369 Y167.929 E7.99908
G1 X94.224 Y169.397 E8.04029
G1 X94.056 Y170.238 E8.06425
G1 X93.637 Y171.623 E8.10468
G1 X93.309 Y172.418 E8.12871
G1 X92.612 Y173.726 E8.17011
G1 X92.124 Y174.455 E8.19462
G1 X91.163 Y175.621 E8.23684
G1 X90.537 Y176.242 E8.26147
G1 X89.401 Y177.162 E8.30231
G1 X88.699 Y177.627 E8.32584
G1 X87.412 Y178.312 E8.36657
G1 X86.615 Y178.641 E8.39066
G1 X85.235 Y179.057 E8.43093
G1 X84.402 Y179.222 E8.45466
G1 X82.939 Y179.368 E8.49573
G1 X82.061 Y179.368 E8.52026
G1 X80.581 Y179.219 E8.56182
G1 X79.746 Y179.052 E8.58561
G1 X78.363 Y178.633 E8.62598
G1 X77.563 Y178.302 E8.65017
G1 X76.251 Y177.6 E8.69175
G1 X75.518 Y177.107 E8.71643
G1 X74.364 Y176.15 E8.75831
G1 X73.756 Y175.535 E8.78247
G1 X72.836 Y174.401 E8.82327
G1 X72.365 Y173.689 E8.84712
G1 X71.681 Y172.398 E8.88794
G1 X71.355 Y171.603 E8.91194
G1 X70.934 Y170.2 E8.95287
G1 X70.855 Y169.898 E8.96159
G1 X69.551 Y164.087 E9.12798
G1 X68.044 Y158.846 E9.28034
G1 X66.266 Y153.762 E9.43081
G1 X64.194 Y148.766 E9.58192
G1 X61.843 Y143.892 E9.73311
G1 X59.221 Y139.163 E9.88418
G1 X56.336 Y134.587 E10.03531
G1 X53.195 Y130.182 E10.18646
G1 X49.828 Y125.985 E10.33679
G1 X45.255 Y120.957 E10.52668
G1 X44.887 Y120.492 E10.54324
G1 X44.584 Y119.982 E10.55982
G1 X44.352 Y119.436 E10.57639
G1 X44.197 Y118.864 E10.59295
G1 X44.11 Y117.996 E10.61732
G1 X44.109 Y108.009 E10.89634
G1 X44.149 Y107.418 E10.91289
G1 X44.268 Y106.837 E10.92946
G1 X44.464 Y106.277 E10.94604
G1 X44.734 Y105.749 E10.96261
G1 X45.072 Y105.262 E10.97917
G1 X45.472 Y104.825 E10.99572
G1 X45.928 Y104.445 E11.0123
G1 X46.431 Y104.131 E11.02887
G1 X46.971 Y103.887 E11.04543
G0 F1542.9 X46.808 Y104.389
G1 F900 X47.335 Y104.185 E11.06121
G1 X47.886 Y104.058 E11.07701
G1 X48.509 Y104.009 E11.09447
G1 X58.491 Y104.01 E11.37335
G1 X59.055 Y104.05 E11.38915
G1 X59.608 Y104.169 E11.40495
G1 X60.138 Y104.365 E11.42074
G1 X60.636 Y104.634 E11.43656
G1 X61.09 Y104.97 E11.45234
G1 X61.493 Y105.366 E11.46812
G1 X61.836 Y105.816 E11.48393
G1 X62.112 Y106.31 E11.49974
G1 X62.315 Y106.837 E11.51552
G1 X62.394 Y107.134 E11.5241
G1 X64.006 Y114.314 E11.72969
G1 X64.727 Y116.907 E11.80489
G1 X66.408 Y122.083 E11.95693
G1 X67.361 Y124.641 E12.0332
G1 X68.362 Y127.113 E12.10771
G1 X70.627 Y132.09 E12.26048
G1 X73.15 Y136.893 E12.41206
G1 X75.955 Y141.572 E12.56447
G1 X77.398 Y143.762 E12.63775
G1 X80.62 Y148.226 E12.79156
G1 X84.026 Y152.424 E12.94259
G1 X87.7 Y156.463 E13.09513
G1 X90.651 Y159.404 E13.21153
G1 X90.933 Y159.716 E13.22328
G1 X91.85 Y160.846 E13.26394
G1 X92.276 Y161.49 E13.28551
G1 X92.958 Y162.773 E13.32611
G1 X93.256 Y163.496 E13.34796
G1 X93.674 Y164.883 E13.38843
G1 X93.824 Y165.639 E13.40996
G1 X93.97 Y167.098 E13.45093
G1 X93.971 Y167.889 E13.47303
G1 X93.826 Y169.357 E13.51424
G1 X93.674 Y170.122 E13.53603
G1 X93.255 Y171.507 E13.57646
G1 X92.956 Y172.23 E13.59832
G1 X92.259 Y173.538 E13.63973
G1 X91.816 Y174.201 E13.662
G1 X90.855 Y175.367 E13.70422
G1 X90.285 Y175.931 E13.72662
G1 X89.149 Y176.851 E13.76746
G1 X88.511 Y177.274 E13.78885
G1 X87.224 Y177.959 E13.82958
G1 X86.499 Y178.258 E13.85149
G1 X85.119 Y178.674 E13.89176
G1 X84.362 Y178.824 E13.91332
G1 X82.899 Y178.97 E13.9544
G1 X82.101 Y178.97 E13.97669
G1 X80.621 Y178.821 E14.01825
G1 X79.862 Y178.669 E14.03988
G1 X78.479 Y178.25 E14.08025
G1 X77.752 Y177.949 E14.10223
G1 X76.44 Y177.247 E14.14381
G1 X75.774 Y176.799 E14.16623
G1 X74.62 Y175.842 E14.20812
G1 X74.067 Y175.283 E14.23009
G1 X73.147 Y174.149 E14.27088
G1 X72.718 Y173.502 E14.29257
G1 X72.034 Y172.211 E14.33339
G1 X71.738 Y171.488 E14.35522
G1 X71.317 Y170.085 E14.39614
G1 X71.245 Y169.811 E14.40406
G1 X69.934 Y163.97 E14.57131
G1 X68.432 Y158.745 E14.7232
G1 X66.637 Y153.612 E14.87512
G1 X64.559 Y148.602 E15.02665
G1 X62.194 Y143.7 E15.17872
G1 X59.566 Y138.961 E15.33011
G1 X56.667 Y134.363 E15.48197
G1 X53.517 Y129.945 E15.63357
G1 X50.131 Y125.723 E15.78477
G1 X45.551 Y120.688 E15.97493
G1 X45.201 Y120.243 E15.99075
G1 X44.917 Y119.755 E16.00653
G1 X44.705 Y119.23 E16.02234
G1 X44.569 Y118.682 E16.03812
G1 X44.51 Y117.996 E16.05736
G1 X44.509 Y108.009 E16.33638
G1 X44.549 Y107.445 E16.35217
G1 X44.668 Y106.893 E16.36795
G1 X44.864 Y106.362 E16.38376
G1 X45.132 Y105.865 E16.39954
G1 X45.468 Y105.41 E16.41534
G1 X45.865 Y105.008 E16.43113
G1 X46.314 Y104.665 E16.44691
G1 X46.808 Y104.389 E16.46272
G0 F1542.9 X47.18 Y104.663
G1 F900 X47.692 Y104.503 E16.47771
G1 X48.222 Y104.42 E16.4927
G1 X48.509 Y104.409 E16.50072
G1 X58.491 Y104.41 E16.7796
G1 X59.026 Y104.45 E16.79459
G1 X59.549 Y104.569 E16.80958
G1 X60.048 Y104.764 E16.82455
G1 X60.513 Y105.032 E16.83954
G1 X60.933 Y105.365 E16.85452
G1 X61.299 Y105.757 E16.8695
G1 X61.603 Y106.2 E16.88451
G1 X61.837 Y106.682 E16.89948
G1 X62.004 Y107.221 E16.91524
G1 X63.622 Y114.43 E17.12166
G1 X64.337 Y116.997 E17.19611
G1 X66.037 Y122.234 E17.34994
G1 X66.986 Y124.783 E17.42593
G1 X67.993 Y127.269 E17.50087
G1 X70.266 Y132.264 E17.65419
G1 X72.803 Y137.092 E17.80657
G1 X75.615 Y141.782 E17.95935
G1 X77.075 Y143.999 E18.03351
G1 X80.3 Y148.467 E18.18746
G1 X83.726 Y152.69 E18.33939
G1 X87.405 Y156.733 E18.49211
G1 X90.368 Y159.687 E18.60901
G1 X90.622 Y159.969 E18.61961
G1 X91.539 Y161.099 E18.66027
G1 X91.923 Y161.677 E18.67965
G1 X92.605 Y162.96 E18.72025
G1 X92.873 Y163.611 E18.73992
G1 X93.291 Y164.998 E18.78039
G1 X93.426 Y165.679 E18.79979
G1 X93.572 Y167.138 E18.84075
G1 X93.573 Y167.85 E18.86064
G1 X93.428 Y169.318 E18.90186
G1 X93.291 Y170.006 E18.92146
G1 X92.872 Y171.391 E18.96188
G1 X92.603 Y172.042 E18.98156
G1 X91.906 Y173.35 E19.02297
G1 X91.507 Y173.947 E19.04303
G1 X90.546 Y175.113 E19.08525
G1 X90.034 Y175.621 E19.1054
G1 X88.898 Y176.541 E19.14624
G1 X88.323 Y176.921 E19.16549
G1 X87.036 Y177.606 E19.20623
G1 X86.384 Y177.875 E19.22593
G1 X85.004 Y178.291 E19.2662
G1 X84.322 Y178.426 E19.28563
G1 X82.859 Y178.572 E19.3267
G1 X82.141 Y178.572 E19.34676
G1 X80.661 Y178.423 E19.38832
G1 X79.978 Y178.286 E19.40778
G1 X78.595 Y177.867 E19.44816
G1 X77.941 Y177.596 E19.46793
G1 X76.629 Y176.894 E19.50951
G1 X76.029 Y176.491 E19.5297
G1 X74.875 Y175.534 E19.57159
G1 X74.377 Y175.031 E19.59136
G1 X73.457 Y173.897 E19.63216
G1 X73.072 Y173.314 E19.65168
G1 X72.388 Y172.023 E19.6925
G1 X72.121 Y171.373 E19.71213
G1 X71.7 Y169.97 E19.75305
G1 X71.635 Y169.723 E19.76019
G1 X70.323 Y163.877 E19.92758
G1 X68.808 Y158.608 E20.08075
G1 X67.011 Y153.47 E20.23283
G1 X64.922 Y148.432 E20.3852
G1 X62.556 Y143.528 E20.53732
G1 X59.909 Y138.754 E20.68983
G1 X57.002 Y134.143 E20.84212
G1 X53.84 Y129.708 E20.9943
G1 X50.426 Y125.452 E21.14673
G1 X45.847 Y120.418 E21.33685
G1 X45.517 Y119.996 E21.35182
G1 X45.253 Y119.529 E21.36681
G1 X45.061 Y119.028 E21.3818
G1 X44.946 Y118.504 E21.39679
G1 X44.91 Y117.996 E21.41102
G1 X44.909 Y108.009 E21.69004
G1 X44.949 Y107.475 E21.705
G1 X45.068 Y106.952 E21.71998
G1 X45.263 Y106.452 E21.73498
G1 X45.53 Y105.987 E21.74996
G1 X45.864 Y105.567 E21.76495
G1 X46.256 Y105.201 E21.77993
G1 X46.698 Y104.898 E21.79491
G1 X47.18 Y104.663 E21.80989
G0 F1542.9 X47.077 Y105.147
G1 F900 X47.546 Y104.957 E21.82403
G1 X48.039 Y104.844 E21.83816
G1 X48.509 Y104.809 E21.85132
G1 X58.491 Y104.81 E22.13021
G1 X58.995 Y104.85 E22.14433
G1 X59.487 Y104.969 E22.15847
G1 X59.953 Y105.164 E22.17259
G1 X60.383 Y105.429 E22.1867
G1 X60.766 Y105.76 E22.20084
G1 X61.092 Y106.146 E22.21496
G1 X61.353 Y106.579 E22.22908
G1 X61.543 Y107.048 E22.24322
G1 X61.613 Y107.309 E22.25077
G1 X63.228 Y114.505 E22.45682
G1 X63.955 Y117.115 E22.53251
G1 X65.664 Y122.378 E22.68711
G1 X66.612 Y124.924 E22.76301
G1 X67.621 Y127.415 E22.8381
G1 X69.909 Y132.443 E22.99243
G1 X72.451 Y137.284 E23.1452
G1 X75.281 Y142.002 E23.29891
G1 X76.742 Y144.221 E23.37313
G1 X79.98 Y148.708 E23.52773
G1 X83.428 Y152.957 E23.68061
G1 X87.119 Y157.014 E23.83384
G1 X90.086 Y159.971 E23.95087
G1 X90.312 Y160.221 E23.96029
G1 X91.229 Y161.351 E24.00095
G1 X91.57 Y161.865 E24.01818
G1 X92.252 Y163.148 E24.05877
G1 X92.49 Y163.727 E24.07626
G1 X92.908 Y165.114 E24.11674
G1 X93.028 Y165.718 E24.13394
G1 X93.174 Y167.177 E24.17491
G1 X93.175 Y167.811 E24.19262
G1 X93.03 Y169.279 E24.23383
G1 X92.908 Y169.891 E24.25127
G1 X92.489 Y171.276 E24.2917
G1 X92.25 Y171.854 E24.30917
G1 X91.553 Y173.162 E24.35058
G1 X91.198 Y173.692 E24.3684
G1 X90.237 Y174.858 E24.41061
G1 X89.782 Y175.31 E24.42853
G1 X88.646 Y176.23 E24.46937
G1 X88.135 Y176.568 E24.48649
G1 X86.848 Y177.253 E24.52722
G1 X86.269 Y177.492 E24.54472
G1 X84.889 Y177.908 E24.58499
G1 X84.283 Y178.028 E24.60225
G1 X82.82 Y178.174 E24.64333
G1 X82.181 Y178.174 E24.66118
G1 X80.701 Y178.025 E24.70274
G1 X80.094 Y177.904 E24.72003
G1 X78.711 Y177.485 E24.76041
G1 X78.129 Y177.244 E24.77801
G1 X76.817 Y176.542 E24.81958
G1 X76.284 Y176.183 E24.83753
G1 X75.13 Y175.226 E24.87942
G1 X74.688 Y174.779 E24.89698
G1 X73.768 Y173.645 E24.93778
G1 X73.425 Y173.127 E24.95513
G1 X72.741 Y171.836 E24.99595
G1 X72.504 Y171.258 E25.01341
G1 X72.083 Y169.855 E25.05433
G1 X72.026 Y169.636 E25.06065
G1 X70.711 Y163.776 E25.22844
G1 X69.196 Y158.508 E25.38159
G1 X67.385 Y153.327 E25.53493
G1 X65.284 Y148.263 E25.6881
G1 X62.909 Y143.339 E25.84084
G1 X60.259 Y138.561 E25.99348
G1 X57.336 Y133.924 E26.14663
G1 X54.147 Y129.451 E26.3001
G1 X50.735 Y125.198 E26.45244
G1 X46.143 Y120.149 E26.64311
G1 X45.833 Y119.75 E26.65723
G1 X45.59 Y119.306 E26.67137
G1 X45.421 Y118.83 E26.68548
G1 X45.328 Y118.333 E26.69961
G1 X45.31 Y117.996 E26.70904
G1 X45.309 Y108.009 E26.98806
G1 X45.349 Y107.505 E27.00219
G1 X45.468 Y107.014 E27.0163
G1 X45.662 Y106.547 E27.03043
G1 X45.928 Y106.117 E27.04456
G1 X46.258 Y105.734 E27.05868
G1 X46.645 Y105.408 E27.07282
G1 X47.077 Y105.147 E27.08692
G1 F1200 E22.08692
G0 F1542.9 X49.114 Y107.335
