;FLAVOR:Marlin
;TIME:2636
;Filament used: 1.64985m, 1.04474m
;Layer height: 0.2
;Generated with Cura_SteamEngine 3.6.0
T0
M140 S60
M105
M190 S60
M104 S200
M104 T1 S200
M105
M109 S200
M105
M109 T1 S200
M82 ;absolute extrusion mode
; Printer start settings begin
; Calibration section to overwrite Firmware values
; Identifier CALIBR, CALRES and CALMPE, surrounded by #, + or - can be used in post processing
; #CALIBR# M92 X160 Y160 Z3200 ; +CALIBR+ Steps per unit
; #CALRESO# M201 X1000 Y1000 Z50 E1500 E1500 ; +CALRESO+ Max Accelleration
; #CALRESO# M203 X800 Y800 Z2 E90 E90 ; +CALRESO+ Max Feed
; #CALRESO# M205 X3.0 Y3.0 Z0.3 E5.0 ; +CALRESO+ Default Jerk
; #CALMPE#
M951 L32 R139 G32 N75 H300 D10 C0 ; +CALMPE+ Parking kinematic values / needs MPE kinematic to be compiled and activated in firmware
; #CALMPE#
M851 Z-0.55 ; +CALMPE+ System Z Probe Offset
; #CALMPE#
M218 T1 X0.8 Y0.0 Z0.25; +CALMPE+ T1 Nozzle offset values
; #CALMPE#
M206 X-32.00 Y0.00 Z0.00; +CALMPE+ Home Offset
; #REM#  M951 args: L: Left parking,R: Right parking, I: Grab Offset, J: Normal speed, H: High speed, D: Distance trav., C: Compenstion
; #CALMPE#
M951 L32 R140 I32 J4500 H9000 D10 C0 ; MPE Setup
; #CALMPE# M217 Z5.00 Z-Lift
G28 ;Home
G92 E5
G1 F1000 E0
; #MPE# G29 ; -MPE- Auto Bed Level, uses this if FW values are set correct.
; #MPE# G29 X3 Y3 L0 R109 F32 B168 ; +MPE+ Auto Bed Leveling, needed if not poroper defined in Firmware
G92 E-5
G1 E0 F400
G0 Z15.0 F100 ;Move the platform down 15mm
G0 X0 Y0 F9000 ;Move to front
T1
G0 X0 Y0 F9000 ;Move to front
G92 E-30
G1 F200 E0
T0
G0 X0 Y0 F9000 ;Move to front
G92 E-30
G1 F200 E0
; Printer start settings end
G92 E0
G1 F1500 E-6.5
;LAYER_COUNT:101
;LAYER:0
M107
G0 F3600 X42.101 Y90.604 Z0.2
;TYPE:SKIRT
G1 F1500 E0
G1 F1800 X42.684 Y90.395 E0.0206
G1 X43.29 Y90.263 E0.04123
G1 X44.009 Y90.209 E0.06521
G1 X63.991 Y90.21 E0.72981
G1 X64.609 Y90.25 E0.75041
G1 X65.217 Y90.369 E0.77102
G1 X65.804 Y90.566 E0.79161
G1 X66.362 Y90.836 E0.81223
G1 X66.879 Y91.176 E0.83281
G1 X67.349 Y91.58 E0.85342
G1 X67.763 Y92.041 E0.87403
G1 X68.113 Y92.551 E0.8946
G1 X68.396 Y93.103 E0.91524
G1 X68.605 Y93.686 E0.93583
G1 X68.737 Y94.291 E0.95643
G1 X68.791 Y95.01 E0.98041
G1 X68.789 Y115.011 E1.64565
G1 X68.743 Y115.672 E1.66769
G1 X68.454 Y117.749 E1.73743
G1 X67.919 Y123.132 E1.91735
G1 X67.688 Y128.524 E2.09686
G1 X67.763 Y133.92 E2.27635
G1 X68.142 Y139.285 E2.45523
G1 X68.823 Y144.622 E2.63418
G1 X69.806 Y149.919 E2.81337
G1 X70.401 Y152.508 E2.90172
G1 X71.836 Y157.723 E3.08162
G1 X73.574 Y162.88 E3.26262
G1 X74.496 Y165.277 E3.34804
G1 X76.68 Y170.306 E3.5304
G1 X78.533 Y174.055 E3.66949
G1 X78.824 Y174.789 E3.69575
G1 X79.39 Y176.656 E3.76064
G1 X79.531 Y177.259 E3.78124
G1 X79.573 Y177.585 E3.79217
G1 X79.765 Y179.56 E3.85817
G1 X79.786 Y180.179 E3.87877
G1 X79.765 Y180.498 E3.8894
G1 X79.574 Y182.424 E3.95377
G1 X79.473 Y183.035 E3.97437
G1 X79.391 Y183.341 E3.98491
G1 X78.825 Y185.21 E4.04986
G1 X78.608 Y185.79 E4.07046
G1 X78.463 Y186.084 E4.08136
G1 X77.542 Y187.805 E4.14628
G1 X77.215 Y188.331 E4.16688
G1 X77.027 Y188.577 E4.17718
G1 X75.784 Y190.098 E4.24251
G1 X75.362 Y190.552 E4.26313
G1 X75.108 Y190.775 E4.27437
G1 X73.586 Y192.021 E4.33979
G1 X73.082 Y192.382 E4.36041
G1 X72.808 Y192.54 E4.37093
G1 X71.083 Y193.462 E4.43599
G1 X70.519 Y193.718 E4.45659
G1 X70.213 Y193.822 E4.46734
G1 X68.343 Y194.389 E4.53233
G1 X67.74 Y194.531 E4.55293
G1 X67.426 Y194.572 E4.56346
G1 X65.501 Y194.764 E4.62781
G1 X64.882 Y194.786 E4.64841
G1 X64.563 Y194.766 E4.65904
G1 X62.589 Y194.575 E4.725
G1 X61.977 Y194.475 E4.74563
G1 X61.66 Y194.391 E4.75653
G1 X59.79 Y193.825 E4.82152
G1 X59.21 Y193.608 E4.84211
G1 X58.917 Y193.464 E4.85297
G1 X57.195 Y192.543 E4.91792
G1 X56.669 Y192.216 E4.93852
G1 X56.421 Y192.026 E4.94892
G1 X54.897 Y190.78 E5.01439
G1 X54.444 Y190.358 E5.03498
G1 X54.222 Y190.106 E5.04615
G1 X52.978 Y188.588 E5.11143
G1 X52.618 Y188.085 E5.132
G1 X52.452 Y187.799 E5.143
G1 X51.522 Y186.049 E5.20891
G1 X51.268 Y185.484 E5.22952
G1 X51.163 Y185.175 E5.24037
G1 X50.599 Y183.295 E5.30565
G1 X50.46 Y182.692 E5.32623
G1 X50.418 Y182.364 E5.33723
G1 X50.234 Y180.402 E5.40278
G1 X50.216 Y179.783 E5.42337
G1 X50.243 Y179.416 E5.43561
G1 X51.188 Y171.042 E5.7159
G1 X51.487 Y165.659 E5.89522
G1 X51.481 Y160.281 E6.07409
G1 X51.171 Y154.91 E6.25303
G1 X50.556 Y149.548 E6.43254
G1 X49.643 Y144.26 E6.61102
G1 X48.425 Y138.994 E6.79079
G1 X47.715 Y136.427 E6.87937
G1 X46.056 Y131.286 E7.05905
G1 X44.113 Y126.26 E7.23827
G1 X41.886 Y121.345 E7.41774
G1 X39.743 Y117.19 E7.57324
G1 X39.495 Y116.623 E7.59382
G1 X39.323 Y116.028 E7.61442
G1 X39.228 Y115.416 E7.63502
G1 X39.209 Y114.99 E7.6492
G1 X39.209 Y95.009 E8.31377
G1 X39.249 Y94.391 E8.33437
G1 X39.368 Y93.783 E8.35498
G1 X39.565 Y93.196 E8.37557
G1 X39.835 Y92.639 E8.39616
G1 X40.175 Y92.121 E8.41677
G1 X40.579 Y91.651 E8.43738
G1 X41.04 Y91.238 E8.45796
G1 X41.401 Y90.989 E8.47255
G0 F1620 X41.55 Y90.887
G0 X42.101 Y90.604
G0 F3600 X42.471 Y90.886
G1 F1500 E8.49916
G1 F1800 X43.04 Y90.717 E8.5189
G1 X43.625 Y90.626 E8.53859
G1 X44.009 Y90.609 E8.55138
G1 X63.991 Y90.61 E9.21598
G1 X64.583 Y90.65 E9.23572
G1 X65.164 Y90.769 E9.25544
G1 X65.723 Y90.965 E9.27514
G1 X66.251 Y91.235 E9.29487
G1 X66.738 Y91.573 E9.31458
G1 X67.176 Y91.974 E9.33434
G1 X67.555 Y92.43 E9.35406
G1 X67.869 Y92.932 E9.37375
G1 X68.114 Y93.473 E9.3935
G1 X68.283 Y94.041 E9.41321
G1 X68.374 Y94.627 E9.43294
G1 X68.391 Y95.01 E9.44569
G1 X68.389 Y115.011 E10.11092
G1 X68.347 Y115.617 E10.13113
G1 X68.057 Y117.705 E10.20124
G1 X67.519 Y123.112 E10.38197
G1 X67.288 Y128.512 E10.56174
G1 X67.363 Y133.936 E10.74216
G1 X67.743 Y139.312 E10.92141
G1 X68.429 Y144.692 E11.1018
G1 X69.416 Y150.007 E11.2816
G1 X70.015 Y152.612 E11.3705
G1 X71.452 Y157.836 E11.55071
G1 X73.196 Y163.012 E11.73237
G1 X74.131 Y165.441 E11.81894
G1 X76.316 Y170.472 E12.00137
G1 X78.174 Y174.232 E12.14086
G1 X78.441 Y174.905 E12.16494
G1 X79.007 Y176.772 E12.22983
G1 X79.175 Y177.623 E12.25868
G1 X79.367 Y179.598 E12.32468
G1 X79.367 Y180.458 E12.35328
G1 X79.176 Y182.384 E12.41766
G1 X79.008 Y183.225 E12.44618
G1 X78.442 Y185.094 E12.51113
G1 X78.11 Y185.895 E12.53997
G1 X77.189 Y187.616 E12.60489
G1 X76.717 Y188.324 E12.6332
G1 X75.474 Y189.845 E12.69853
G1 X74.854 Y190.466 E12.72772
G1 X73.332 Y191.712 E12.79314
G1 X72.619 Y192.187 E12.82163
G1 X70.894 Y193.109 E12.88669
G1 X70.097 Y193.44 E12.91539
G1 X68.227 Y194.007 E12.98038
G1 X67.387 Y194.174 E13.00887
G1 X65.462 Y194.366 E13.07321
G1 X64.601 Y194.368 E13.10185
G1 X62.627 Y194.177 E13.16781
G1 X61.776 Y194.008 E13.19667
G1 X59.906 Y193.442 E13.26165
G1 X59.106 Y193.111 E13.29045
G1 X57.384 Y192.19 E13.3554
G1 X56.674 Y191.716 E13.38379
G1 X55.15 Y190.47 E13.44927
G1 X54.532 Y189.853 E13.47831
G1 X53.288 Y188.335 E13.54359
G1 X52.806 Y187.611 E13.57252
G1 X51.876 Y185.861 E13.63843
G1 X51.547 Y185.06 E13.66723
G1 X50.983 Y183.18 E13.73251
G1 X50.816 Y182.327 E13.76142
G1 X50.632 Y180.365 E13.82697
G1 X50.617 Y179.772 E13.8467
G1 X50.641 Y179.46 E13.8571
G1 X51.588 Y171.072 E14.13786
G1 X51.887 Y165.681 E14.31744
G1 X51.881 Y160.275 E14.49725
G1 X51.569 Y154.86 E14.67765
G1 X50.954 Y149.504 E14.85696
G1 X50.034 Y144.174 E15.03686
G1 X48.811 Y138.888 E15.21732
G1 X48.1 Y136.316 E15.30607
G1 X46.437 Y131.161 E15.48623
G1 X44.483 Y126.109 E15.66639
G1 X42.241 Y121.159 E15.84713
G1 X40.099 Y117.007 E16.00252
G1 X39.863 Y116.463 E16.02224
G1 X39.702 Y115.892 E16.04197
G1 X39.62 Y115.305 E16.06168
G1 X39.609 Y114.99 E16.07217
G1 X39.609 Y95.009 E16.73674
G1 X39.649 Y94.417 E16.75647
G1 X39.768 Y93.837 E16.77617
G1 X39.964 Y93.277 E16.7959
G1 X40.234 Y92.749 E16.81562
G1 X40.572 Y92.262 E16.83534
G1 X40.973 Y91.825 E16.85507
G1 X41.428 Y91.445 E16.87478
G1 X41.755 Y91.241 E16.8876
G0 F1620 X41.931 Y91.131
G0 X42.471 Y90.886
G0 F3600 X42.308 Y91.389
G1 F1500 E16.91421
G1 F1800 X42.836 Y91.185 E16.93304
G1 X43.386 Y91.058 E16.95181
G1 X44.009 Y91.009 E16.9726
G1 X63.991 Y91.01 E17.6372
G1 X64.555 Y91.05 E17.65601
G1 X65.108 Y91.169 E17.67482
G1 X65.638 Y91.365 E17.69361
G1 X66.136 Y91.633 E17.71242
G1 X66.59 Y91.97 E17.73123
G1 X66.993 Y92.366 E17.75002
G1 X67.336 Y92.816 E17.76884
G1 X67.611 Y93.309 E17.78762
G1 X67.815 Y93.837 E17.80644
G1 X67.942 Y94.388 E17.82525
G1 X67.991 Y95.01 E17.846
G1 X67.989 Y115.011 E18.51124
G1 X67.951 Y115.562 E18.52961
G1 X67.659 Y117.663 E18.60016
G1 X67.119 Y123.09 E18.78155
G1 X66.887 Y128.501 E18.96169
G1 X66.964 Y133.952 E19.14301
G1 X67.345 Y139.357 E19.32323
G1 X68.033 Y144.745 E19.50389
G1 X69.027 Y150.101 E19.68507
G1 X69.622 Y152.689 E19.77339
G1 X71.073 Y157.964 E19.95536
G1 X72.818 Y163.143 E20.13713
G1 X73.762 Y165.595 E20.22451
G1 X75.951 Y170.638 E20.40736
G1 X77.816 Y174.41 E20.54732
G1 X78.058 Y175.022 E20.56921
G1 X78.624 Y176.889 E20.6341
G1 X78.777 Y177.662 E20.6603
G1 X78.969 Y179.637 E20.7263
G1 X78.968 Y180.419 E20.75231
G1 X78.777 Y182.345 E20.81669
G1 X78.625 Y183.109 E20.84259
G1 X78.059 Y184.978 E20.90755
G1 X77.758 Y185.706 E20.93375
G1 X76.837 Y187.427 E20.99867
G1 X76.407 Y188.071 E21.02442
G1 X75.164 Y189.592 E21.08976
G1 X74.601 Y190.156 E21.11626
G1 X73.079 Y191.402 E21.18168
G1 X72.431 Y191.835 E21.20761
G1 X70.706 Y192.757 E21.27266
G1 X69.981 Y193.057 E21.29876
G1 X68.111 Y193.624 E21.36375
G1 X67.347 Y193.776 E21.38966
G1 X65.422 Y193.968 E21.454
G1 X64.64 Y193.969 E21.48001
G1 X62.666 Y193.778 E21.54597
G1 X61.892 Y193.625 E21.57222
G1 X60.022 Y193.059 E21.6372
G1 X59.295 Y192.758 E21.66337
G1 X57.573 Y191.837 E21.72832
G1 X56.927 Y191.407 E21.75413
G1 X55.403 Y190.161 E21.8196
G1 X54.841 Y189.599 E21.84604
G1 X53.597 Y188.081 E21.91132
G1 X53.159 Y187.423 E21.93761
G1 X52.229 Y185.673 E22.00352
G1 X51.93 Y184.945 E22.0297
G1 X51.366 Y183.065 E22.09498
G1 X51.214 Y182.289 E22.12128
G1 X51.03 Y180.327 E22.18682
G1 X51.038 Y179.505 E22.21416
G1 X51.987 Y171.104 E22.49536
G1 X52.287 Y165.685 E22.67587
G1 X52.281 Y160.252 E22.85657
G1 X51.969 Y154.844 E23.03674
G1 X51.349 Y149.444 E23.21753
G1 X50.424 Y144.083 E23.39847
G1 X49.2 Y138.794 E23.57903
G1 X48.491 Y136.228 E23.66758
G1 X46.809 Y131.016 E23.84973
G1 X44.853 Y125.957 E24.03013
G1 X42.603 Y120.99 E24.2115
G1 X40.454 Y116.824 E24.36741
G1 X40.231 Y116.304 E24.38622
G1 X40.084 Y115.759 E24.405
G1 X40.009 Y114.99 E24.4307
G1 X40.009 Y95.009 E25.09527
G1 X40.049 Y94.445 E25.11407
G1 X40.168 Y93.892 E25.13289
G1 X40.364 Y93.362 E25.15168
G1 X40.632 Y92.865 E25.17046
G1 X40.968 Y92.41 E25.18928
G1 X41.365 Y92.007 E25.20809
G1 X41.628 Y91.807 E25.21908
G0 F1620 X41.815 Y91.665
G0 X42.308 Y91.389
G0 F3600 X42.681 Y91.663
G1 F1500 E25.24569
G1 F1800 X43.192 Y91.503 E25.2635
G1 X43.722 Y91.42 E25.28134
G1 X44.009 Y91.409 E25.29089
G1 X63.991 Y91.41 E25.9555
G1 X64.526 Y91.45 E25.97334
G1 X65.049 Y91.569 E25.99118
G1 X65.548 Y91.764 E26.009
G1 X66.013 Y92.032 E26.02685
G1 X66.433 Y92.365 E26.04468
G1 X66.799 Y92.757 E26.06252
G1 X67.103 Y93.199 E26.08036
G1 X67.337 Y93.682 E26.09821
G1 X67.497 Y94.194 E26.11605
G1 X67.58 Y94.723 E26.13386
G1 X67.591 Y95.01 E26.14341
G1 X67.589 Y115.011 E26.80865
G1 X67.555 Y115.507 E26.82518
G1 X67.261 Y117.621 E26.89617
G1 X66.721 Y123.05 E27.07763
G1 X66.487 Y128.507 E27.2593
G1 X66.564 Y133.969 E27.44099
G1 X66.947 Y139.397 E27.62197
G1 X67.636 Y144.799 E27.8031
G1 X68.633 Y150.172 E27.98485
G1 X69.24 Y152.81 E28.07489
G1 X70.689 Y158.077 E28.25658
G1 X72.44 Y163.274 E28.43898
G1 X73.393 Y165.749 E28.52719
G1 X75.591 Y170.812 E28.71077
G1 X77.457 Y174.587 E28.85083
G1 X77.675 Y175.138 E28.87053
G1 X78.241 Y177.005 E28.93542
G1 X78.379 Y177.701 E28.95902
G1 X78.571 Y179.676 E29.02502
G1 X78.57 Y180.379 E29.0484
G1 X78.379 Y182.305 E29.11278
G1 X78.242 Y182.993 E29.13611
G1 X77.676 Y184.862 E29.20106
G1 X77.405 Y185.518 E29.22467
G1 X76.484 Y187.239 E29.28959
G1 X76.098 Y187.818 E29.31273
G1 X74.855 Y189.339 E29.37807
G1 X74.347 Y189.847 E29.40196
G1 X72.825 Y191.093 E29.46738
G1 X72.242 Y191.482 E29.49069
G1 X70.517 Y192.404 E29.55575
G1 X69.865 Y192.674 E29.57922
G1 X67.995 Y193.241 E29.64421
G1 X67.307 Y193.378 E29.66754
G1 X65.382 Y193.57 E29.73189
G1 X64.678 Y193.571 E29.7553
G1 X62.704 Y193.38 E29.82127
G1 X62.008 Y193.243 E29.84486
G1 X60.138 Y192.677 E29.90984
G1 X59.483 Y192.405 E29.93343
G1 X57.761 Y191.484 E29.99838
G1 X57.18 Y191.097 E30.0216
G1 X55.656 Y189.851 E30.08707
G1 X55.151 Y189.346 E30.11083
G1 X53.907 Y187.828 E30.1761
G1 X53.512 Y187.235 E30.1998
G1 X52.582 Y185.485 E30.26572
G1 X52.313 Y184.83 E30.28927
G1 X51.749 Y182.95 E30.35455
G1 X51.613 Y182.252 E30.3782
G1 X51.429 Y180.29 E30.44374
G1 X51.436 Y179.55 E30.46836
G1 X52.386 Y171.136 E30.74999
G1 X52.687 Y165.707 E30.93083
G1 X52.681 Y160.245 E31.1125
G1 X52.367 Y154.81 E31.29357
G1 X51.745 Y149.384 E31.47522
G1 X50.815 Y143.997 E31.65705
G1 X49.592 Y138.711 E31.8375
G1 X48.87 Y136.096 E31.92773
G1 X47.187 Y130.885 E32.10987
G1 X45.22 Y125.796 E32.29133
G1 X42.962 Y120.812 E32.47332
G1 X40.81 Y116.64 E32.62945
G1 X40.6 Y116.147 E32.64727
G1 X40.466 Y115.628 E32.6651
G1 X40.409 Y114.99 E32.68641
G1 X40.409 Y95.009 E33.35098
G1 X40.449 Y94.474 E33.36882
G1 X40.568 Y93.951 E33.38666
G1 X40.763 Y93.452 E33.40448
G1 X41.031 Y92.987 E33.42233
G1 X41.364 Y92.567 E33.44016
G1 X41.756 Y92.201 E33.458
G1 X41.981 Y92.046 E33.46708
G0 F1620 X42.198 Y91.898
G0 X42.681 Y91.663
G0 F3600 X42.578 Y92.147
G1 F1500 E33.49369
G1 F1800 X43.046 Y91.957 E33.51049
G1 X43.539 Y91.844 E33.52731
G1 X44.009 Y91.809 E33.54299
G1 X63.991 Y91.81 E34.20759
G1 X64.495 Y91.85 E34.22441
G1 X64.987 Y91.969 E34.24124
G1 X65.453 Y92.164 E34.25805
G1 X65.883 Y92.429 E34.27485
G1 X66.266 Y92.76 E34.29168
G1 X66.592 Y93.146 E34.30849
G1 X66.853 Y93.579 E34.3253
G1 X67.043 Y94.048 E34.34213
G1 X67.156 Y94.54 E34.35892
G1 X67.191 Y95.01 E34.3746
G1 X67.189 Y115.011 E35.03983
G1 X67.159 Y115.451 E35.0545
G1 X66.864 Y117.572 E35.12573
G1 X66.321 Y123.03 E35.30816
G1 X66.087 Y128.495 E35.49009
G1 X66.164 Y133.985 E35.67271
G1 X66.549 Y139.442 E35.85466
G1 X67.241 Y144.869 E36.03662
G1 X68.238 Y150.237 E36.21822
G1 X68.853 Y152.914 E36.30957
G1 X70.307 Y158.2 E36.49192
G1 X72.061 Y163.405 E36.6746
G1 X73.018 Y165.891 E36.7632
G1 X75.223 Y170.969 E36.94733
G1 X77.099 Y174.764 E37.08813
G1 X77.292 Y175.254 E37.10565
G1 X77.858 Y177.121 E37.17054
G1 X77.981 Y177.739 E37.19149
G1 X78.173 Y179.714 E37.25749
G1 X78.172 Y180.34 E37.27831
G1 X77.981 Y182.266 E37.34269
G1 X77.86 Y182.877 E37.3634
G1 X77.294 Y184.746 E37.42835
G1 X77.052 Y185.329 E37.44935
G1 X76.131 Y187.05 E37.51427
G1 X75.788 Y187.565 E37.53485
G1 X74.545 Y189.086 E37.60018
G1 X74.094 Y189.537 E37.6214
G1 X72.572 Y190.783 E37.68682
G1 X72.053 Y191.129 E37.70757
G1 X70.328 Y192.051 E37.77262
G1 X69.749 Y192.291 E37.79347
G1 X67.879 Y192.858 E37.85846
G1 X67.268 Y192.98 E37.87918
G1 X65.343 Y193.172 E37.94353
G1 X64.717 Y193.173 E37.96435
G1 X62.743 Y192.982 E38.03031
G1 X62.124 Y192.86 E38.05129
G1 X60.254 Y192.294 E38.11628
G1 X59.672 Y192.053 E38.13723
G1 X57.95 Y191.132 E38.20218
G1 X57.434 Y190.787 E38.22282
G1 X55.91 Y189.541 E38.2883
G1 X55.46 Y189.092 E38.30944
G1 X54.216 Y187.574 E38.37472
G1 X53.865 Y187.048 E38.39575
G1 X52.935 Y185.298 E38.46166
G1 X52.696 Y184.716 E38.48259
G1 X52.132 Y182.836 E38.54787
G1 X52.011 Y182.215 E38.56892
G1 X51.827 Y180.253 E38.63446
G1 X51.833 Y179.595 E38.65634
G1 X52.784 Y171.168 E38.93841
G1 X53.087 Y165.711 E39.12019
G1 X53.081 Y160.239 E39.30219
G1 X52.765 Y154.761 E39.48469
G1 X52.141 Y149.323 E39.66674
G1 X51.212 Y143.944 E39.8483
