;FLAVOR:UltiGCode
;TIME:6779
;MATERIAL:20243
;MATERIAL2:0
;NOZZLE_DIAMETER:0.4
;MINX:10.166
;MINY:36.494
;MINZ:0.3
;MAXX:79.907
;MAXY:192.894
;MAXZ:7.9
;Generated with Cura_SteamEngine 4.3.0
M82 ;absolute extrusion mode
;Basic settings: Layer height: 0.2 Walls: 0.8 Fill: {fill_density}
;Print time: 01:53:00
;Filament used: [0.0, 3.17]m [0.0, 25.101768046875]g
;Filament cost: [0.0, 0.0]
;M190 S60 ;Uncomment to add your own bed temperature line
;M109 S200 ;Uncomment to add your own temperature line
G21        ;metric values
G90        ;absolute positioning
M82        ;set extruder to absolute mode
M107       ;start with the fan off
G28 X0 Y0  ;move X/Y to min endstops
G28 Z0     ;move Z to min endstops
G1 X0 Y0 Z15.0 F120 ;move the platform down 15mm
; Prime the T0 nozzle
G92 E0
G0 X-3 Y10 Z0.2 F1000
G1 Y70 E9 F1000
G1 Y110 E12.5 F1000
G0 X-2.5
G1 Y10 E25 F1000
G10
G0 X0 Y0 Z10 F1000
G11
G92 E0                  ;zero the extruded length again
; End Prime
G1 F120
;Put printing message on LCD screen
M117 Printing...
G92 E0
G92 E0
G10
;LAYER_COUNT:39
;LAYER:0
M107
G0 F3600 X30.767 Y40.158 Z0.3
;TYPE:SKIRT
G11
G1 F1800 X30.882 Y40.072 E0.01723
G1 X31.431 Y39.681 E0.09811
G1 X31.545 Y39.604 E0.11462
G1 X32.075 Y39.26 E0.19044
G1 X32.2 Y39.183 E0.20806
G1 X32.784 Y38.841 E0.28927
G1 X32.9 Y38.776 E0.30523
G1 X33.32 Y38.553 E0.36229
G1 X33.468 Y38.479 E0.38215
G1 X34.587 Y37.957 E0.53032
G1 X34.838 Y37.853 E0.56292
G1 X36.056 Y37.406 E0.71862
G1 X36.174 Y37.365 E0.73361
G1 X36.4 Y37.292 E0.76211
G1 X36.535 Y37.252 E0.779
G1 X37.189 Y37.072 E0.8604
G1 X37.319 Y37.039 E0.8765
G1 X37.948 Y36.894 E0.95396
G1 X38.094 Y36.864 E0.97184
G1 X38.572 Y36.777 E1.03014
G1 X38.725 Y36.753 E1.04873
G1 X39.925 Y36.594 E1.19399
G1 X40.199 Y36.569 E1.227
G1 X41.668 Y36.502 E1.40347
G1 X41.778 Y36.499 E1.41667
G1 X42.136 Y36.495 E1.45963
G1 X42.166 Y36.495 E1.46323
G1 X42.707 Y36.494 E1.52815
G1 X42.714 Y36.494 E1.52899
G1 X61.654 Y36.499 E3.80179
G1 X61.79 Y36.502 E3.81812
G1 X63.029 Y36.555 E3.96693
G1 X63.282 Y36.576 E3.9974
G1 X64.57 Y36.734 E4.15312
G1 X64.843 Y36.779 E4.18632
G1 X66.109 Y37.047 E4.34161
G1 X66.373 Y37.115 E4.37432
G1 X67.582 Y37.481 E4.5259
G1 X67.705 Y37.521 E4.54142
G1 X67.941 Y37.603 E4.5714
G1 X68.063 Y37.648 E4.58701
G1 X68.505 Y37.822 E4.64401
G1 X68.651 Y37.884 E4.66304
G1 X69.724 Y38.369 E4.80435
G1 X69.956 Y38.486 E4.83553
G1 X71.072 Y39.104 E4.98861
G1 X71.303 Y39.244 E5.02102
G1 X72.345 Y39.942 E5.17152
G1 X72.564 Y40.103 E5.20414
G1 X73.568 Y40.907 E5.35849
G1 X73.773 Y41.086 E5.39115
G1 X74.505 Y41.782 E5.51236
G1 X74.61 Y41.887 E5.53018
G1 X75.236 Y42.54 E5.63873
G1 X75.408 Y42.735 E5.66993
G1 X76.189 Y43.695 E5.81844
G1 X76.346 Y43.905 E5.8499
G1 X77.074 Y44.967 E6.00441
G1 X77.223 Y45.205 E6.0381
G1 X77.851 Y46.319 E6.19156
G1 X77.973 Y46.56 E6.22398
G1 X78.506 Y47.726 E6.37782
G1 X78.551 Y47.827 E6.39109
G1 X78.65 Y48.065 E6.42202
G1 X78.707 Y48.213 E6.44106
G1 X78.866 Y48.656 E6.49754
G1 X78.914 Y48.8 E6.51575
G1 X79.255 Y49.913 E6.65544
G1 X79.32 Y50.16 E6.68609
G1 X79.594 Y51.4 E6.83848
G1 X79.641 Y51.671 E6.87148
G1 X79.81 Y52.95 E7.0263
G1 X79.835 Y53.221 E7.05895
G1 X79.899 Y54.6 E7.22461
G1 X79.902 Y54.715 E7.23842
G1 X79.907 Y55.201 E7.29674
G1 X79.907 Y56.797 E7.48826
G1 X79.897 Y57.495 E7.57203
G1 X79.85 Y57.998 E7.63265
G1 X79.724 Y58.488 E7.69337
G1 X79.405 Y59.154 E7.78198
G1 X79.109 Y59.624 E7.84863
G1 X79.064 Y59.694 E7.85862
G1 X78.199 Y60.992 E8.0458
G1 X76.715 Y63.288 E8.37386
G1 X75.29 Y65.635 E8.70335
G1 X73.932 Y68.021 E9.03279
G1 X72.16 Y71.396 E9.49022
G1 X70.957 Y73.888 E9.82228
G1 X69.847 Y76.368 E10.14833
G1 X68.785 Y78.926 E10.48069
G1 X67.83 Y81.432 E10.80251
G1 X66.915 Y84.053 E11.13565
G1 X66.092 Y86.638 E11.46119
G1 X65.329 Y89.294 E11.7928
G1 X64.649 Y91.936 E12.12017
G1 X64.04 Y94.617 E12.45009
G1 X63.517 Y97.274 E12.77504
G1 X63.057 Y100.012 E13.10821
G1 X62.688 Y102.656 E13.42856
G1 X62.379 Y105.449 E13.76577
G1 X62.157 Y108.153 E14.09134
G1 X62.012 Y110.868 E14.41761
G1 X61.942 Y113.622 E14.74819
G1 X61.951 Y116.376 E15.07867
G1 X62.035 Y119.091 E15.40463
G1 X62.198 Y121.807 E15.73114
G1 X62.442 Y124.58 E16.06518
G1 X62.754 Y127.251 E16.38788
G1 X63.154 Y130.006 E16.72195
G1 X63.613 Y132.636 E17.04232
G1 X64.174 Y135.39 E17.37958
G1 X64.786 Y138.012 E17.70268
G1 X65.486 Y140.671 E18.03263
G1 X66.261 Y143.307 E18.36234
G1 X67.103 Y145.898 E18.68927
G1 X68.022 Y148.477 E19.01781
G1 X69.017 Y151.037 E19.3474
G1 X70.065 Y153.522 E19.67103
G1 X71.221 Y156.062 E20.00591
G1 X72.433 Y158.537 E20.33661
G1 X73.673 Y160.896 E20.65642
G1 X75.053 Y163.351 E20.99437
G1 X76.435 Y165.653 E21.31657
G1 X78.174 Y168.36 E21.70266
G1 X78.967 Y169.551 E21.87436
G1 X78.988 Y169.583 E21.87896
G1 X79.377 Y170.183 E21.96477
G1 X79.618 Y170.628 E22.02549
G1 X79.785 Y171.105 E22.08614
G1 X79.891 Y171.838 E22.17502
G1 X79.906 Y172.397 E22.24212
G1 X79.907 Y172.483 E22.25244
G1 X79.907 Y174.211 E22.4598
G1 X79.901 Y174.867 E22.53852
G1 X79.899 Y174.95 E22.54849
G1 X79.874 Y175.663 E22.6341
G1 X79.867 Y175.795 E22.64996
G1 X79.83 Y176.278 E22.70809
G1 X79.812 Y176.449 E22.72872
G1 X79.66 Y177.61 E22.86923
G1 X79.643 Y177.721 E22.88271
G1 X79.593 Y178.021 E22.91921
G1 X79.567 Y178.162 E22.93641
G1 X79.436 Y178.777 E23.01187
G1 X79.404 Y178.913 E23.02863
G1 X79.228 Y179.592 E23.1128
G1 X79.191 Y179.723 E23.12914
G1 X79.057 Y180.162 E23.18422
G1 X79.004 Y180.32 E23.20422
G1 X78.593 Y181.452 E23.34873
G1 X78.555 Y181.551 E23.36146
G1 X78.462 Y181.783 E23.39145
G1 X78.403 Y181.921 E23.40946
G1 X78.118 Y182.545 E23.49178
G1 X78.06 Y182.665 E23.50778
G1 X77.772 Y183.232 E23.58409
G1 X77.704 Y183.359 E23.60138
G1 X77.382 Y183.928 E23.67983
G1 X77.314 Y184.043 E23.69586
G1 X76.95 Y184.628 E23.77854
G1 X76.868 Y184.753 E23.79648
G1 X76.515 Y185.265 E23.87111
G1 X76.434 Y185.377 E23.8877
G1 X76.046 Y185.891 E23.96498
G1 X75.961 Y185.998 E23.98138
G1 X75.525 Y186.527 E24.06364
G1 X75.434 Y186.633 E24.0804
G1 X75.136 Y186.964 E24.13385
G1 X75.022 Y187.084 E24.15371
G1 X74.145 Y187.962 E24.30263
G1 X74.08 Y188.026 E24.31357
G1 X73.896 Y188.2 E24.34396
G1 X73.773 Y188.31 E24.36377
G1 X73.265 Y188.743 E24.44386
G1 X73.157 Y188.831 E24.46058
G1 X72.648 Y189.228 E24.53804
G1 X72.539 Y189.31 E24.55441
G1 X72.134 Y189.599 E24.61412
G1 X71.999 Y189.69 E24.63365
G1 X70.992 Y190.334 E24.77709
G1 X70.759 Y190.469 E24.80941
G1 X69.637 Y191.06 E24.96158
G1 X69.523 Y191.117 E24.97688
G1 X69.221 Y191.261 E25.01703
G1 X69.094 Y191.319 E25.03378
G1 X68.526 Y191.56 E25.10782
G1 X68.4 Y191.61 E25.12409
G1 X67.776 Y191.844 E25.20406
G1 X67.637 Y191.893 E25.22175
G1 X67.164 Y192.046 E25.2814
G1 X67.009 Y192.091 E25.30077
G1 X65.848 Y192.403 E25.44503
G1 X65.589 Y192.462 E25.47691
G1 X64.315 Y192.693 E25.63228
G1 X64.191 Y192.713 E25.64735
G1 X63.929 Y192.75 E25.67911
G1 X63.791 Y192.766 E25.69578
G1 X63.131 Y192.83 E25.77535
G1 X62.987 Y192.841 E25.79268
G1 X62.251 Y192.879 E25.88112
G1 X62.125 Y192.883 E25.89624
G1 X61.22 Y192.894 E26.00485
G1 X42.221 Y192.894 E28.28473
G1 X41.476 Y192.886 E28.37414
G1 X41.401 Y192.884 E28.38314
G1 X40.754 Y192.862 E28.46083
G1 X40.612 Y192.854 E28.47789
G1 X39.965 Y192.803 E28.55577
G1 X39.826 Y192.789 E28.57254
G1 X39.329 Y192.728 E28.63263
G1 X39.168 Y192.704 E28.65216
G1 X37.967 Y192.494 E28.79847
G1 X37.705 Y192.437 E28.83064
G1 X36.476 Y192.114 E28.98313
G1 X36.362 Y192.082 E28.99734
G1 X36.111 Y192.006 E29.02881
G1 X35.965 Y191.958 E29.04725
G1 X35.313 Y191.726 E29.1303
G1 X35.187 Y191.678 E29.14648
G1 X34.571 Y191.429 E29.22621
G1 X34.443 Y191.374 E29.24292
G1 X34.024 Y191.183 E29.29818
G1 X33.877 Y191.111 E29.31782
G1 X32.813 Y190.559 E29.46166
G1 X32.586 Y190.429 E29.49306
G1 X31.469 Y189.728 E29.6513
G1 X31.354 Y189.652 E29.66785
G1 X31.135 Y189.501 E29.69977
G1 X31.023 Y189.421 E29.71628
G1 X30.497 Y189.024 E29.79536
G1 X30.388 Y188.938 E29.81203
G1 X29.896 Y188.532 E29.88857
G1 X29.789 Y188.439 E29.90558
G1 X29.275 Y187.975 E29.98868
G1 X29.177 Y187.883 E30.00481
G1 X28.726 Y187.44 E30.08067
G1 X28.631 Y187.343 E30.09696
G1 X28.185 Y186.866 E30.17533
G1 X28.083 Y186.752 E30.19368
G1 X27.676 Y186.273 E30.26911
G1 X27.595 Y186.173 E30.28455
G1 X27.16 Y185.617 E30.36927
G1 X27.075 Y185.504 E30.38623
G1 X26.811 Y185.134 E30.44078
G1 X26.719 Y184.997 E30.46058
G1 X26.058 Y183.962 E30.60795
G1 X25.924 Y183.732 E30.63989
G1 X25.329 Y182.603 E30.79303
G1 X25.21 Y182.351 E30.82648
G1 X24.701 Y181.14 E30.98411
G1 X24.658 Y181.032 E30.99806
G1 X24.56 Y180.773 E31.03129
G1 X24.508 Y180.624 E31.05023
G1 X24.355 Y180.15 E31.11
G1 X24.31 Y179.997 E31.12914
G1 X23.998 Y178.836 E31.2734
G1 X23.939 Y178.576 E31.30539
G1 X23.708 Y177.301 E31.46088
G1 X23.689 Y177.18 E31.47558
G1 X23.528 Y176.046 E31.61303
G1 X23.099 Y173.302 E31.94631
G1 X22.598 Y170.597 E32.27643
G1 X22.021 Y167.908 E32.60645
G1 X21.374 Y165.265 E32.93298
G1 X20.648 Y162.628 E33.26119
G1 X19.852 Y160.018 E33.58863
G1 X18.978 Y157.421 E33.91745
G1 X18.025 Y154.837 E34.24794
G1 X17.018 Y152.324 E34.57281
G1 X15.912 Y149.776 E34.90614
G1 X14.757 Y147.309 E35.23301
G1 X13.528 Y144.865 E35.56129
G1 X12.408 Y142.781 E35.84519
G1 X12.186 Y142.38 E35.9002
G1 X12.14 Y142.294 E35.9119
G1 X11.997 Y142.016 E35.94941
G1 X11.975 Y141.971 E35.95543
G1 X11.731 Y141.478 E36.02143
G1 X11.701 Y141.415 E36.02981
G1 X11.57 Y141.135 E36.0669
G1 X11.505 Y140.988 E36.08619
G1 X11.376 Y140.672 E36.12715
G1 X11.352 Y140.611 E36.13502
G1 X11.121 Y140.01 E36.21228
G1 X11.06 Y139.835 E36.23452
G1 X10.856 Y139.196 E36.31501
G1 X10.822 Y139.082 E36.32929
G1 X10.638 Y138.422 E36.41151
G1 X10.591 Y138.232 E36.43499
G1 X10.541 Y137.998 E36.46371
G1 X10.524 Y137.917 E36.47364
G1 X10.355 Y137.013 E36.584
G1 X10.318 Y136.759 E36.6148
G1 X10.208 Y135.711 E36.74125
G1 X10.193 Y135.482 E36.76879
G1 X10.168 Y134.723 E36.85992
G1 X10.166 Y134.618 E36.87252
G1 X10.166 Y134.081 E36.93696
G1 X10.175 Y133.843 E36.96554
G1 X10.248 Y132.863 E37.08347
G1 X10.266 Y132.689 E37.10446
G1 X10.323 Y132.25 E37.15758
G1 X10.326 Y132.223 E37.16084
G1 X10.709 Y129.46 E37.49557
G1 X11.008 Y126.724 E37.82585
G1 X11.226 Y124.048 E38.14803
G1 X11.373 Y121.264 E38.48258
G1 X11.439 Y118.548 E38.80859
G1 X11.428 Y115.794 E39.13908
G1 X11.341 Y113.076 E39.4654
G1 X11.174 Y110.331 E39.79541
G1 X10.932 Y107.608 E40.12346
G1 X10.628 Y105.008 E40.43758
G1 X10.46 Y103.718 E40.59369
G1 X10.45 Y103.638 E40.60337
G1 X10.343 Y102.611 E40.72727
G1 X10.328 Y102.384 E40.75457
G1 X10.303 Y101.625 E40.8457
G1 X10.301 Y101.52 E40.8583
G1 X10.301 Y100.988 E40.92214
G1 X10.31 Y100.749 E40.95085
G1 X10.386 Y99.735 E41.07287
G1 X10.408 Y99.53 E41.09761
G1 X10.503 Y98.852 E41.17976
G1 X10.516 Y98.768 E41.18996
G1 X10.554 Y98.541 E41.21758
G1 X10.564 Y98.483 E41.22464
G1 X10.638 Y98.086 E41.2731
G1 X10.676 Y97.911 E41.29459
G1 X10.832 Y97.274 E41.37329
G1 X10.858 Y97.174 E41.38569
G1 X10.987 Y96.712 E41.44325
G1 X11.035 Y96.557 E41.46272
G1 X11.107 Y96.342 E41.48993
G1 X11.133 Y96.266 E41.49957
G1 X11.452 Y95.387 E41.61178
G1 X11.538 Y95.175 E41.63924
G1 X11.842 Y94.494 E41.72873
G1 X11.877 Y94.418 E41.73877
G1 X12.063 Y94.029 E41.79051
G1 X12.104 Y93.945 E41.80173
G1 X12.428 Y93.315 E41.88674
G1 X12.458 Y93.26 E41.89426
G1 X12.772 Y92.677 E41.97372
G1 X14.015 Y90.203 E42.30596
G1 X15.17 Y87.732 E42.63328
G1 X16.268 Y85.199 E42.96457
G1 X17.287 Y82.657 E43.2932
G1 X18.224 Y80.102 E43.61977
G1 X19.09 Y77.524 E43.94612
G1 X19.894 Y74.887 E44.27694
G1 X20.614 Y72.258 E44.60404
G1 X21.264 Y69.594 E44.93309
G1 X21.844 Y66.887 E45.26531
G1 X22.335 Y64.225 E45.59014
G1 X22.754 Y61.531 E45.9173
G1 X23.101 Y58.793 E46.24849
G1 X23.369 Y56.067 E46.57719
G1 X23.52 Y53.936 E46.83355
G1 X23.522 Y53.909 E46.8368
G1 X23.6 Y52.928 E46.95489
G1 X23.614 Y52.787 E46.97189
G1 X23.675 Y52.296 E47.03127
G1 X23.699 Y52.136 E47.05068
G1 X23.909 Y50.943 E47.19604
G1 X23.93 Y50.838 E47.20889
G1 X23.981 Y50.596 E47.23857
G1 X24.015 Y50.449 E47.25667
G1 X24.182 Y49.808 E47.33616
G1 X24.219 Y49.678 E47.35238
G1 X24.412 Y49.048 E47.43145
G1 X24.459 Y48.907 E47.44928
G1 X24.621 Y48.454 E47.50702
G1 X24.677 Y48.308 E47.52578
G1 X25.153 Y47.158 E47.67513
G1 X25.269 Y46.91 E47.70799
G1 X25.859 Y45.771 E47.86192
G1 X25.918 Y45.662 E47.87679
G1 X26.051 Y45.428 E47.90909
G1 X26.12 Y45.312 E47.92529
G1 X26.459 Y44.77 E48.002
G1 X26.54 Y44.647 E48.01967
G1 X26.921 Y44.096 E48.10006
G1 X26.998 Y43.99 E48.11578
G1 X27.381 Y43.482 E48.19213
G1 X27.465 Y43.374 E48.20855
G1 X27.884 Y42.865 E48.28766
G1 X27.982 Y42.753 E48.30552
G1 X28.426 Y42.262 E48.38496
G1 X28.519 Y42.163 E48.40125
G1 X28.97 Y41.705 E48.47839
G1 X29.071 Y41.607 E48.49528
G1 X29.428 Y41.275 E48.55378
G1 X29.549 Y41.168 E48.57316
G1 X30.492 Y40.376 E48.72094
G1 X30.579 Y40.305 E48.73441
G1 X30.767 Y40.158 E48.76305
G10
;MESH:FilamentSpoolRoller.FCStd(1)
G0 F3600 X26.987 Y49.337
G0 X26.413 Y51.305
G0 X26.102 Y53.33
G0 X25.349 Y87.74
G0 X25.246 Y89.032
G0 X23.088 Y96.494
G0 X23.139 Y96.581
;TYPE:WALL-INNER
G11
G1 F1800 X22.584 Y97.033 E48.84894
G1 X22.169 Y97.451 E48.91963
G1 X21.732 Y98.004 E49.0042
G1 X21.417 Y98.501 E49.07481
G1 X21.108 Y99.137 E49.15967
G1 X20.91 Y99.691 E49.23026
G1 X20.747 Y100.377 E49.31488
G1 X20.672 Y100.961 E49.38553
G1 X20.662 Y101.666 E49.47014
G1 X20.717 Y102.252 E49.54077
G1 X20.857 Y102.942 E49.62526
G1 X21.038 Y103.503 E49.69599
G1 X21.325 Y104.146 E49.78049
G1 X21.622 Y104.656 E49.85131
G1 X22.042 Y105.222 E49.93589
G1 X22.442 Y105.654 E50.00654
G1 X22.974 Y106.115 E50.09101
G1 X23.458 Y106.451 E50.16172
G1 X24.08 Y106.787 E50.24655
G1 X24.624 Y107.009 E50.31706
G1 X25.303 Y107.203 E50.4018
G1 X25.883 Y107.302 E50.4724
G1 X26.587 Y107.344 E50.55703
G1 X27.174 Y107.315 E50.62756
G1 X27.871 Y107.205 E50.71223
G1 X28.439 Y107.049 E50.78292
G1 X29.094 Y106.79 E50.86744
G1 X29.616 Y106.515 E50.93824
G1 X30.199 Y106.119 E51.02281
G1 X30.648 Y105.74 E51.09332
G1 X31.134 Y105.227 E51.17812
G1 X31.49 Y104.758 E51.24878
G1 X31.852 Y104.152 E51.33349
G1 X32.099 Y103.618 E51.40409
G1 X32.32 Y102.949 E51.48864
G1 X32.446 Y102.374 E51.55927
G1 X32.518 Y101.671 E51.64407
G1 X32.515 Y101.083 E51.71464
G1 X32.434 Y100.384 E51.79908
G1 X32.304 Y99.81 E51.8697
G1 X32.075 Y99.143 E51.95433
G1 X31.822 Y98.609 E52.02524
G1 X31.452 Y98.01 E52.10972
G1 X31.092 Y97.545 E52.18029
G1 X30.6 Y97.037 E52.26515
G1 X30.148 Y96.661 E52.33571
G1 X29.559 Y96.273 E52.42035
G1 X29.037 Y96.003 E52.49087
G1 X28.376 Y95.752 E52.57571
G1 X27.808 Y95.603 E52.64618
G1 X27.11 Y95.499 E52.73087
G1 X26.522 Y95.476 E52.80148
G1 X25.82 Y95.527 E52.88594
G1 X25.239 Y95.632 E52.95679
G1 X24.564 Y95.833 E53.04131
G1 X24.014 Y96.064 E53.11289
G1 X23.139 Y96.581 E53.23485
G0 F3600 X23.088 Y96.494
G0 X24.544 Y95.798
G0 X25.822 Y95.487
G0 X27.114 Y95.461
G0 X28.142 Y95.663
G0 X38.158 Y98.495
G0 X38.256 Y98.471
G1 F1800 X38.721 Y99.08 E53.3268
G1 X38.787 Y99.18 E53.34117
G1 X38.828 Y99.353 E53.36251
G1 X38.79 Y99.445 E53.37445
G1 X38.817 Y99.711 E53.40654
G1 X38.584 Y100.437 E53.49804
G1 X38.963 Y101.147 E53.59461
G1 X39 Y101.41 E53.62649
G1 X39.022 Y101.451 E53.63207
G1 X38.98 Y101.542 E53.6441
G1 X38.928 Y102.718 E53.78535
G1 X38.963 Y102.81 E53.79717
G1 X38.894 Y102.948 E53.81568
G1 X38.696 Y104.149 E53.96175
G1 X38.731 Y104.241 E53.97356
G1 X38.469 Y105.205 E54.09343
G1 X38.088 Y106.239 E54.22567
G1 X37.599 Y107.268 E54.36238
G1 X37.59 Y107.35 E54.37228
G1 X37.125 Y108.139 E54.48218
G1 X37.062 Y108.183 E54.4914
G1 X36.394 Y109.117 E54.6292
G1 X35.665 Y109.963 E54.76321
G1 X34.855 Y110.748 E54.89857
G1 X33.983 Y111.453 E55.03313
G1 X33.048 Y112.079 E55.16815
G1 X32.998 Y112.143 E55.1779
G1 X32.184 Y112.589 E55.28928
G1 X32.109 Y112.596 E55.29832
G1 X31.038 Y113.06 E55.43838
G1 X29.979 Y113.412 E55.5723
G1 X28.908 Y113.664 E55.70433
G1 X27.793 Y113.823 E55.83948
G1 X26.67 Y113.881 E55.97442
G1 X25.564 Y113.839 E56.10724
G1 X24.452 Y113.696 E56.24178
G1 X23.361 Y113.456 E56.37583
G1 X22.307 Y113.122 E56.5085
G1 X21.27 Y112.688 E56.6434
G1 X20.283 Y112.167 E56.77733
G1 X19.358 Y111.569 E56.90951
G1 X18.482 Y110.885 E57.04288
G1 X17.647 Y110.103 E57.18016
G1 X16.904 Y109.266 E57.31446
