;FLAVOR:Marlin
;TIME:16271
;Filament used: 16.5056m
;Layer height: 0.2
;Generated with Cura_SteamEngine 3.6.0
M82 ;absolute extrusion mode
; Ender 4 CoreXY, Due RADDS, TMC2130 Custom Start G-code
M104 S230.0 ; Set Extruder temperature
M140 S80.0 ; Set Heat Bed temperature
;CoreXY Sensorless Homing Part #1
M914 X1 Y1 ; +TMCFINE+ Setup  StallGuard Sensitivity
G92 X0 Y0
G0 X5 Y5 F6000
G28 X
M190 S80.0 ; Wait for Heat Bed temperature
M109 S230.0 ; Wait for Extruder temperature
;End Part #1
; Identifier CALIBR, CALRES and CALMPE, surrounded by #, + or - can be used in post processing
; #CALIBR# M92 X320 Y320 Z400 E440; +CALIBR+ Steps per unit
; #CALIBR#M851 Z-2.1 ; +CALIBR+  Z Probe Offset
; #CALRESO# M201 X500 Y500 Z50 E500 ; +CALRESO+ Max Accelleration
; #CALRESO# M203 X300 Y300 Z2 E90 ; +CALRESO+ Max Feed
; #CALRESO# M205 X3.0 Y3.0 Z0.3 E5.0 ; +CALRESO+ Default Jerk
;CoreXY Sensorless Homing Part #2
G0 X10 F6000
G28 X
G92 X-3
G0 X10 F6000
G28 Y
G0 Y10 F6000
G28 Y
G92 Y-3
G0 Y10 F6000
G28 Z
G0 X0 Y0 F6000
G92 E20
G1 F300 E0
;End Part #2
; #MPE# G29 ; -MPE- Auto Bed Level, uses this if FW values are set correct.
M906 X950 Y950 Z800 E800
M914 X8 Y8 ; +TMCFINE+ Setup  StallGuard Sensitivity
G1 Z5.0 F3000 ; Move Z Axis up little to prevent scratching of Heat Bed
;G1 X15.1 Y20 Z0.3 F5000.0 ; Move to start position
;G1 X15.1 Y200.0 Z0.3 F1500.0 E15 ; Draw the first line
;G1 X15.4 Y200.0 Z0.3 F5000.0 ; Move to side a little
;G1 X15.4 Y20 Z0.3 F1500.0 E30 ; Draw the second line
G92 E0 ; Reset Extruder
G1 Z5.0 F3000 ; Move Z Axis up little to prevent scratching of Heat Bed
;END Custom Start Code
G92 E0
G1 F1200 E-6
;LAYER_COUNT:51
;LAYER:0
M107
G0 F2880 X55.368 Y83.976 Z0.2
;TYPE:SKIRT
G1 F1200 E0
G1 X59.524 Y81.377 E0.19564
G1 X59.949 Y81.133 E0.2152
G1 X64.178 Y78.919 E0.40572
G1 X64.624 Y78.707 E0.42543
G1 X69.085 Y76.794 E0.61916
G1 X69.545 Y76.617 E0.63883
G1 X73.99 Y75.104 E0.82623
G1 X74.454 Y74.966 E0.84556
G1 X79.131 Y73.76 E1.03833
G1 X79.601 Y73.657 E1.05753
G1 X83.655 Y72.931 E1.22191
G1 X84.089 Y72.869 E1.23941
G1 X88.975 Y72.336 E1.43558
G1 X89.36 Y72.305 E1.45099
G1 X96.41 Y71.965 E1.7327
G1 X101.684 Y71.415 E1.94434
G1 X106.96 Y70.562 E2.15765
G1 X109.436 Y70.054 E2.25853
G1 X114.622 Y68.756 E2.4719
G1 X119.685 Y67.18 E2.68354
G1 X124.649 Y65.321 E2.8951
G1 X129.493 Y63.186 E3.10638
G1 X134.205 Y60.785 E3.31746
G1 X138.78 Y58.116 E3.52886
G1 X143.193 Y55.195 E3.74008
G1 X147.438 Y52.026 E3.95151
G1 X151.515 Y48.609 E4.16382
G1 X153.422 Y46.867 E4.26691
G1 X160.339 Y40.018 E4.65542
G1 X160.673 Y39.71 E4.67356
G1 X162.609 Y38.048 E4.77539
G1 X163.177 Y37.613 E4.80395
G1 X163.761 Y37.26 E4.83118
G1 X165.409 Y36.379 E4.90577
G1 X166.057 Y36.077 E4.9343
G1 X166.561 Y35.901 E4.95561
G1 X168.37 Y35.35 E5.03108
G1 X169.065 Y35.18 E5.05964
G1 X169.605 Y35.103 E5.08141
G1 X171.456 Y34.92 E5.15565
G1 X172.171 Y34.89 E5.18421
G1 X172.715 Y34.92 E5.20596
G1 X174.639 Y35.11 E5.28312
G1 X175.346 Y35.22 E5.31168
G1 X175.877 Y35.357 E5.33357
G1 X177.657 Y35.9 E5.40784
G1 X178.329 Y36.147 E5.43642
G1 X178.814 Y36.381 E5.45791
G1 X180.448 Y37.257 E5.53191
G1 X181.058 Y37.63 E5.56044
G1 X181.634 Y38.078 E5.58957
G1 X183.846 Y40.01 E5.70679
G1 X184.163 Y40.306 E5.7241
G1 X195.305 Y51.457 E6.35325
G1 X195.697 Y51.887 E6.37648
G1 X197.021 Y53.478 E6.45909
G1 X197.447 Y54.053 E6.48765
G1 X197.747 Y54.556 E6.51103
G1 X198.628 Y56.205 E6.58565
G1 X198.929 Y56.854 E6.6142
G1 X199.11 Y57.37 E6.63602
G1 X199.657 Y59.181 E6.71153
G1 X199.825 Y59.877 E6.74011
G1 X199.899 Y60.404 E6.76135
G1 X200.081 Y62.249 E6.83534
G1 X200.111 Y62.963 E6.86387
G1 X200.082 Y63.499 E6.88529
G1 X199.897 Y65.395 E6.96132
G1 X199.788 Y66.101 E6.98983
G1 X199.651 Y66.631 E7.01168
G1 X199.109 Y68.418 E7.08621
G1 X198.864 Y69.089 E7.11472
G1 X198.621 Y69.593 E7.13706
G1 X197.718 Y71.271 E7.21311
G1 X197.344 Y71.881 E7.24167
G1 X197.036 Y72.29 E7.2621
G1 X195.984 Y73.576 E7.32842
G1 X195.571 Y74.034 E7.35303
G1 X190.244 Y79.397 E7.65473
G1 X186.545 Y83.312 E7.8697
G1 X183.135 Y87.355 E8.0808
G1 X179.957 Y91.59 E8.29212
G1 X177.02 Y96 E8.5036
G1 X174.339 Y100.567 E8.71496
G1 X171.928 Y105.263 E8.92565
G1 X169.753 Y110.164 E9.13966
G1 X168.794 Y112.596 E9.244
G1 X167.916 Y115.027 E9.34716
G1 X166.318 Y120.113 E9.55993
G1 X165.01 Y125.28 E9.77267
G1 X164.468 Y127.875 E9.87847
G1 X164.02 Y130.385 E9.98024
G1 X163.298 Y135.701 E10.19436
G1 X162.882 Y141.003 E10.40662
G1 X162.741 Y145.075 E10.56924
G1 X162.713 Y145.491 E10.58588
G1 X162.231 Y150.303 E10.7789
G1 X162.163 Y150.794 E10.79868
G1 X161.313 Y155.538 E10.99104
G1 X161.208 Y156.014 E11.0105
G1 X160.031 Y160.556 E11.19777
G1 X159.892 Y161.022 E11.21718
G1 X158.315 Y165.633 E11.41168
G1 X158.134 Y166.1 E11.43167
G1 X156.222 Y170.526 E11.6241
G1 X156.004 Y170.981 E11.64423
G1 X153.648 Y175.434 E11.8453
G1 X153.402 Y175.859 E11.8649
G1 X150.921 Y179.787 E12.05033
G1 X150.643 Y180.191 E12.0699
G1 X147.749 Y184.078 E12.26332
G1 X147.414 Y184.492 E12.28458
G1 X143.846 Y188.533 E12.49973
G1 X143.491 Y188.904 E12.52023
G1 X140.03 Y192.242 E12.71214
G1 X139.66 Y192.571 E12.7319
G1 X135.903 Y195.671 E12.92631
G1 X135.507 Y195.973 E12.94618
G1 X131.538 Y198.759 E13.13973
G1 X131.155 Y199.008 E13.15796
G1 X127.477 Y201.216 E13.32918
G1 X127.103 Y201.424 E13.34626
G1 X123.68 Y203.179 E13.49979
G1 X123.307 Y203.355 E13.51625
G1 X119.591 Y204.967 E13.67792
G1 X119.198 Y205.123 E13.69479
G1 X115.247 Y206.535 E13.86225
G1 X114.928 Y206.639 E13.87564
G1 X112.141 Y207.473 E13.99175
G1 X111.725 Y207.583 E14.00893
G1 X106.901 Y208.68 E14.20638
G1 X106.497 Y208.758 E14.2228
G1 X102.897 Y209.336 E14.36833
G1 X102.539 Y209.383 E14.38274
G1 X99.692 Y209.677 E14.49697
G1 X99.361 Y209.703 E14.51022
G1 X95.553 Y209.897 E14.66241
G1 X95.095 Y209.904 E14.68069
G1 X90.043 Y209.8 E14.88237
G1 X89.543 Y209.77 E14.90236
G1 X84.806 Y209.3 E15.09235
G1 X84.325 Y209.233 E15.11173
G1 X79.627 Y208.403 E15.30214
G1 X79.154 Y208.301 E15.32146
G1 X74.681 Y207.157 E15.50573
G1 X74.221 Y207.021 E15.52488
G1 X69.71 Y205.499 E15.71489
G1 X69.251 Y205.324 E15.7345
G1 X64.807 Y203.434 E15.92724
G1 X64.362 Y203.224 E15.94688
G1 X60.106 Y201.013 E16.1383
G1 X59.68 Y200.771 E16.15786
G1 X55.639 Y198.262 E16.3477
G1 X55.234 Y197.989 E16.36719
G1 X51.375 Y195.163 E16.5581
G1 X50.99 Y194.857 E16.57773
G1 X47.333 Y191.721 E16.77
G1 X46.984 Y191.399 E16.78895
G1 X44.083 Y188.512 E16.95231
G1 X43.927 Y188.351 E16.96125
G1 X43.114 Y187.483 E17.00872
G1 X42.89 Y187.231 E17.02218
G1 X39.78 Y183.539 E17.21485
G1 X39.481 Y183.155 E17.23427
G1 X36.702 Y179.294 E17.42414
G1 X36.432 Y178.887 E17.44363
G1 X33.962 Y174.837 E17.63296
G1 X33.725 Y174.413 E17.65235
G1 X31.565 Y170.179 E17.84206
G1 X31.366 Y169.751 E17.8609
G1 X29.593 Y165.533 E18.04352
G1 X29.422 Y165.078 E18.06292
G1 X27.91 Y160.545 E18.25364
G1 X27.774 Y160.08 E18.27297
G1 X26.619 Y155.483 E18.46215
G1 X26.519 Y155.008 E18.48153
G1 X25.732 Y150.435 E18.66673
G1 X25.668 Y149.959 E18.6859
G1 X25.213 Y145.2 E18.8767
G1 X25.185 Y144.713 E18.89617
G1 X25.095 Y139.977 E19.08523
G1 X25.102 Y139.535 E19.10288
G1 X25.297 Y135.645 E19.25833
G1 X25.33 Y135.238 E19.27463
G1 X25.78 Y131.304 E19.43266
G1 X25.831 Y130.951 E19.4469
G1 X26.374 Y127.778 E19.57538
G1 X26.447 Y127.414 E19.5902
G1 X27.339 Y123.563 E19.74797
G1 X27.462 Y123.108 E19.76678
G1 X28.95 Y118.319 E19.96694
G1 X29.102 Y117.885 E19.98529
G1 X30.735 Y113.713 E20.1641
G1 X30.879 Y113.376 E20.17873
G1 X31.895 Y111.163 E20.27592
G1 X32.053 Y110.842 E20.2902
G1 X33.968 Y107.22 E20.45372
G1 X34.178 Y106.852 E20.47063
G1 X36.645 Y102.851 E20.65824
G1 X36.918 Y102.445 E20.67777
G1 X39.734 Y98.574 E20.86882
G1 X40.043 Y98.182 E20.88874
G1 X43.207 Y94.478 E21.08317
G1 X43.52 Y94.137 E21.10165
G1 X46.656 Y90.963 E21.27973
G1 X47.014 Y90.627 E21.29933
G1 X50.669 Y87.455 E21.49248
G1 X51.054 Y87.146 E21.51218
G1 X54.713 Y84.435 E21.69394
G0 F1080 X54.951 Y84.259
G0 X55.368 Y83.976
G0 F2880 X55.58 Y84.315
G1 F1200 E21.72587
G1 X59.736 Y81.716 E21.92151
G1 X60.134 Y81.487 E21.93984
G1 X64.363 Y79.273 E22.13036
G1 X64.781 Y79.075 E22.14882
G1 X69.242 Y77.162 E22.34255
G1 X69.674 Y76.996 E22.36102
G1 X74.119 Y75.483 E22.54842
G1 X74.554 Y75.353 E22.56654
G1 X79.231 Y74.147 E22.75932
G1 X79.671 Y74.051 E22.77729
G1 X83.725 Y73.325 E22.94167
G1 X84.132 Y73.266 E22.95808
G1 X89.018 Y72.733 E23.15425
G1 X89.38 Y72.705 E23.16874
G1 X96.434 Y72.364 E23.45061
G1 X101.738 Y71.812 E23.66345
G1 X107.03 Y70.956 E23.87741
G1 X109.522 Y70.444 E23.97895
G1 X114.733 Y69.14 E24.19334
G1 X119.817 Y67.557 E24.40587
G1 X124.793 Y65.694 E24.61793
G1 X129.657 Y63.551 E24.83007
G1 X134.408 Y61.129 E25.04291
G1 X138.984 Y58.46 E25.25435
G1 X143.431 Y55.517 E25.46718
G1 X147.689 Y52.339 E25.67925
G1 X151.784 Y48.907 E25.8925
G1 X153.678 Y47.176 E25.99491
G1 X160.62 Y40.302 E26.38483
G1 X160.934 Y40.013 E26.40186
G1 X162.87 Y38.351 E26.5037
G1 X163.42 Y37.931 E26.53132
G1 X163.949 Y37.613 E26.55595
G1 X165.597 Y36.732 E26.63054
G1 X166.226 Y36.441 E26.6582
G1 X166.678 Y36.283 E26.67731
G1 X168.487 Y35.732 E26.75278
G1 X169.16 Y35.569 E26.78042
G1 X169.645 Y35.501 E26.79997
G1 X171.496 Y35.318 E26.87421
G1 X172.188 Y35.29 E26.90185
G1 X172.676 Y35.318 E26.92136
G1 X174.6 Y35.508 E26.99852
G1 X175.284 Y35.616 E27.02616
G1 X175.761 Y35.74 E27.04583
G1 X177.541 Y36.283 E27.12011
G1 X178.19 Y36.523 E27.14772
G1 X178.625 Y36.734 E27.16702
G1 X180.259 Y37.61 E27.24102
G1 X180.849 Y37.972 E27.26864
G1 X181.371 Y38.379 E27.29506
G1 X183.583 Y40.311 E27.41228
G1 X183.88 Y40.589 E27.42852
G1 X195.022 Y51.74 E28.05768
G1 X195.39 Y52.143 E28.07946
G1 X196.714 Y53.734 E28.16207
G1 X197.125 Y54.291 E28.1897
G1 X197.394 Y54.745 E28.21076
G1 X198.275 Y56.394 E28.28538
G1 X198.566 Y57.022 E28.313
G1 X198.727 Y57.486 E28.33261
G1 X199.274 Y59.297 E28.40811
G1 X199.435 Y59.971 E28.43577
G1 X199.501 Y60.443 E28.45479
G1 X199.683 Y62.288 E28.52879
G1 X199.711 Y62.98 E28.55643
G1 X199.684 Y63.46 E28.57562
G1 X199.499 Y65.356 E28.65165
G1 X199.392 Y66.04 E28.67928
G1 X199.269 Y66.514 E28.69883
G1 X198.727 Y68.301 E28.77336
G1 X198.488 Y68.951 E28.801
G1 X198.269 Y69.403 E28.82105
G1 X197.366 Y71.081 E28.8971
G1 X197.003 Y71.671 E28.92475
G1 X196.726 Y72.037 E28.94307
G1 X195.674 Y73.323 E29.00938
G1 X195.287 Y73.752 E29.03244
G1 X189.971 Y79.103 E29.33349
G1 X186.24 Y83.052 E29.55032
G1 X182.825 Y87.102 E29.76176
G1 X179.633 Y91.354 E29.97397
G1 X176.68 Y95.79 E30.18666
G1 X173.992 Y100.369 E30.39858
G1 X171.557 Y105.111 E30.61134
G1 X169.39 Y109.995 E30.82459
G1 X168.421 Y112.45 E30.92993
G1 X167.541 Y114.891 E31.0335
G1 X165.935 Y120 E31.24725
G1 X164.613 Y125.219 E31.46213
G1 X164.084 Y127.756 E31.56556
G1 X163.619 Y130.358 E31.67106
G1 X162.903 Y135.633 E31.88353
G1 X162.482 Y141.004 E32.09855
G1 X162.341 Y145.061 E32.26057
G1 X162.315 Y145.451 E32.27617
G1 X161.833 Y150.263 E32.46919
G1 X161.769 Y150.723 E32.48773
G1 X160.919 Y155.467 E32.68009
G1 X160.821 Y155.914 E32.69835
G1 X159.644 Y160.456 E32.88562
G1 X159.513 Y160.893 E32.90383
G1 X157.936 Y165.504 E33.09833
G1 X157.767 Y165.941 E33.11703
G1 X155.855 Y170.367 E33.30946
G1 X155.65 Y170.794 E33.32836
G1 X153.294 Y175.247 E33.52944
G1 X153.064 Y175.645 E33.54778
G1 X150.583 Y179.573 E33.73321
G1 X150.323 Y179.952 E33.75155
G1 X147.429 Y183.839 E33.94497
G1 X147.114 Y184.227 E33.96492
G1 X143.546 Y188.268 E34.18007
G1 X143.213 Y188.616 E34.1993
G1 X139.752 Y191.954 E34.39121
G1 X139.406 Y192.263 E34.40973
G1 X135.649 Y195.363 E34.60413
G1 X135.277 Y195.646 E34.62279
G1 X131.308 Y198.432 E34.81633
G1 X130.949 Y198.665 E34.83341
G1 X127.271 Y200.873 E35.00463
G1 X126.92 Y201.068 E35.02066
G1 X123.497 Y202.823 E35.17418
G1 X123.148 Y202.988 E35.18959
G1 X119.432 Y204.6 E35.35126
G1 X119.063 Y204.746 E35.3671
G1 X115.112 Y206.158 E35.53456
G1 X114.813 Y206.256 E35.54712
G1 X112.026 Y207.09 E35.66323
G1 X111.636 Y207.193 E35.67933
G1 X106.812 Y208.29 E35.87678
G1 X106.433 Y208.363 E35.89218
G1 X102.833 Y208.941 E36.03771
G1 X102.498 Y208.985 E36.05119
G1 X99.651 Y209.279 E36.16543
G1 X99.34 Y209.303 E36.17788
G1 X95.532 Y209.497 E36.33006
G1 X95.104 Y209.504 E36.34714
G1 X90.052 Y209.4 E36.54882
G1 X89.583 Y209.372 E36.56757
G1 X84.846 Y208.902 E36.75757
G1 X84.394 Y208.839 E36.77578
G1 X79.696 Y208.009 E36.96619
G1 X79.253 Y207.914 E36.98427
G1 X74.78 Y206.77 E37.16855
G1 X74.349 Y206.642 E37.18649
G1 X69.838 Y205.12 E37.37651
G1 X69.408 Y204.956 E37.39488
G1 X64.964 Y203.066 E37.58762
G1 X64.546 Y202.869 E37.60606
G1 X60.29 Y200.658 E37.79748
G1 X59.891 Y200.431 E37.81581
G1 X55.85 Y197.922 E38.00565
G1 X55.47 Y197.666 E38.02394
G1 X51.611 Y194.84 E38.21484
G1 X51.25 Y194.554 E38.23322
G1 X47.593 Y191.418 E38.4255
G1 X47.267 Y191.116 E38.44324
G1 X44.366 Y188.229 E38.60659
G1 X44.219 Y188.078 E38.615
G1 X43.406 Y187.21 E38.66246
G1 X43.196 Y186.974 E38.67507
G1 X40.086 Y183.282 E38.86774
G1 X39.805 Y182.921 E38.886
G1 X37.026 Y179.06 E39.07587
G1 X36.773 Y178.679 E39.09412
G1 X34.303 Y174.629 E39.28346
G1 X34.081 Y174.232 E39.30161
G1 X31.921 Y169.998 E39.49132
G1 X31.735 Y169.596 E39.509
G1 X29.962 Y165.378 E39.69161
G1 X29.801 Y164.951 E39.70983
G1 X28.289 Y160.418 E39.90055
G1 X28.162 Y159.982 E39.91867
G1 X27.007 Y155.385 E40.10785
G1 X26.913 Y154.941 E40.12597
G1 X26.126 Y150.368 E40.31117
G1 X26.066 Y149.921 E40.32917
G1 X25.611 Y145.162 E40.51998
G1 X25.585 Y144.705 E40.53825
G1 X25.495 Y139.969 E40.7273
G1 X25.502 Y139.555 E40.74383
G1 X25.697 Y135.665 E40.89928
G1 X25.728 Y135.283 E40.91458
G1 X26.178 Y131.349 E41.07262
G1 X26.225 Y131.019 E41.08592
G1 X26.768 Y127.846 E41.2144
G1 X26.837 Y127.504 E41.22833
G1 X27.729 Y123.653 E41.3861
G1 X27.844 Y123.227 E41.40371
G1 X29.332 Y118.438 E41.60386
G1 X29.475 Y118.031 E41.62108
G1 X31.108 Y113.859 E41.7999
G1 X31.242 Y113.543 E41.8136
G1 X32.258 Y111.33 E41.91079
G1 X32.407 Y111.029 E41.92419
G1 X34.322 Y107.407 E42.08771
G1 X34.519 Y107.062 E42.10357
G1 X36.986 Y103.061 E42.29118
G1 X37.241 Y102.68 E42.30947
G1 X40.057 Y98.809 E42.50053
G1 X40.347 Y98.442 E42.5192
G1 X43.511 Y94.738 E42.71363
G1 X43.805 Y94.418 E42.73097
G1 X46.941 Y91.244 E42.90906
G1 X47.276 Y90.93 E42.92738
G1 X50.931 Y87.758 E43.12054
G1 X51.292 Y87.468 E43.13902
G1 X54.926 Y84.776 E43.31952
G0 F1080 X55.189 Y84.581
G0 X55.58 Y84.315
G0 F2880 X55.792 Y84.654
G1 F1200 E43.35145
G1 X59.948 Y82.055 E43.54709
G1 X60.32 Y81.842 E43.5642
G1 X64.549 Y79.628 E43.75472
G1 X64.939 Y79.442 E43.77196
G1 X69.4 Y77.529 E43.96569
G1 X69.803 Y77.375 E43.98291
G1 X74.248 Y75.862 E44.17032
G1 X74.654 Y75.74 E44.18724
G1 X79.331 Y74.534 E44.38001
G1 X79.742 Y74.445 E44.3968
G1 X83.796 Y73.719 E44.56117
G1 X84.176 Y73.664 E44.5765
G1 X89.062 Y73.131 E44.77267
G1 X89.399 Y73.105 E44.78616
G1 X96.46 Y72.764 E45.0683
G1 X101.789 Y72.209 E45.28215
G1 X107.083 Y71.353 E45.49619
G1 X109.625 Y70.831 E45.59976
G1 X114.844 Y69.525 E45.81448
G1 X119.95 Y67.935 E46.02793
G1 X124.937 Y66.068 E46.24046
G1 X129.843 Y63.906 E46.45444
G1 X134.586 Y61.489 E46.66691
G1 X139.206 Y58.793 E46.8804
G1 X143.645 Y55.855 E47.09286
G1 X147.94 Y52.65 E47.30675
G1 X152.052 Y49.203 E47.52091
G1 X153.972 Y47.448 E47.62473
G1 X160.902 Y40.587 E48.01394
G1 X161.194 Y40.317 E48.02982
G1 X163.13 Y38.655 E48.13165
G1 X163.663 Y38.25 E48.15837
G1 X164.138 Y37.965 E48.18048
G1 X165.786 Y37.084 E48.25506
G1 X166.394 Y36.805 E48.28176
G1 X166.794 Y36.666 E48.29867
G1 X168.603 Y36.115 E48.37414
G1 X169.254 Y35.959 E48.40086
G1 X169.684 Y35.899 E48.41819
G1 X171.535 Y35.716 E48.49243
G1 X172.204 Y35.69 E48.51915
G1 X172.636 Y35.716 E48.53642
G1 X174.56 Y35.906 E48.61359
G1 X175.221 Y36.012 E48.6403
G1 X175.644 Y36.123 E48.65776
G1 X177.424 Y36.666 E48.73203
G1 X178.051 Y36.899 E48.75873
G1 X178.436 Y37.087 E48.77583
G1 X180.07 Y37.963 E48.84983
G1 X180.64 Y38.313 E48.87653
G1 X181.108 Y38.68 E48.90026
G1 X183.32 Y40.612 E49.01748
G1 X183.597 Y40.872 E49.03265
G1 X194.739 Y52.023 E49.6618
G1 X195.082 Y52.399 E49.68211
G1 X196.406 Y53.99 E49.76473
G1 X196.803 Y54.529 E49.79145
G1 X197.041 Y54.933 E49.81016
G1 X197.922 Y56.582 E49.88478
G1 X198.202 Y57.19 E49.9115
