;FLAVOR:Marlin
;TIME:6184
;Filament used: 4.60669m, 0m
;Layer height: 0.1
;POSTPROCESSED
;Generated with Cura_SteamEngine 3.6.0
T0
M140 S60
M105
M190 S60
M104 S184
M105
M109 S184
M82 ;absolute extrusion mode
; Printer start settings begin
; Calibration section to overwrite Firmware values
; Identifier CALIBR, CALRES and CALMPE, surrounded by #, + or - can be used in post processing
; #CALIBR# M92 X160 Y160 Z3200 ; +CALIBR+ Steps per unit
; #CALRESO# M201 X1000 Y1000 Z50 E1500 E1500 ; +CALRESO+ Max Accelleration
; #CALRESO# M203 X800 Y800 Z2 E90 E90 ; +CALRESO+ Max Feed
; #CALRESO# M205 X3.0 Y3.0 Z0.3 E5.0 ; +CALRESO+ Default Jerk
; #CALMPE#
M951 L32 R139 G32 N75 H300 D10 C0 ; +CALMPE+ Parking kinematic values / needs MPE kinematic to be compiled and activated in firmware
; #CALMPE#
M851 Z-0.55 ; +CALMPE+ System Z Probe Offset
; #CALMPE#
M218 T1 X0.75 Y0.0 Z0.25; +CALMPE+ T1 Nozzle offset values
; #CALMPE#
M206 X-32.00 Y0.00 Z0.00; +CALMPE+ Home Offset
; #REM#  M951 args: L: Left parking,R: Right parking, I: Grab Offset, J: Normal speed, H: High speed, D: Distance trav., C: Compenstion
; #CALMPE#
M951 L32 R140 I32 J4500 H9000 D10 C0 ; MPE Setup
; #CALMPE# M217 Z5.00 Z-Lift
G28 ;Home
G92 E5
G1 F1000 E0
; #MPE# G29 ; -MPE- Auto Bed Level, uses this if FW values are set correct.
; #MPE# G29 X3 Y3 L0 R109 F32 B168 ; +MPE+ Auto Bed Leveling, needed if not poroper defined in Firmware
G92 E-5
G1 E0 F400
G0 Z15.0 F100 ;Move the platform down 15mm
G0 X0 Y0 F9000 ;Move to front
T1
G0 X0 Y0 F9000 ;Move to front
G92 E-30
G1 F200 E0
T0
G0 X0 Y0 F9000 ;Move to front
G92 E-30
G1 F200 E0
; Printer start settings end
G92 E0
G1 F1200 E-3
;LAYER_COUNT:236
;LAYER:0
M107
G0 F2400 X38.324 Y76.962 Z0.16
;TYPE:SKIRT
G1 F1200 E0
G1 X40.891 Y75.677 E0.11457
G1 X41.711 Y75.324 E0.15021
G1 X44.267 Y74.392 E0.25879
G1 X45.119 Y74.135 E0.29431
G1 X47.907 Y73.466 E0.40874
G1 X48.821 Y73.304 E0.44579
G1 X51.677 Y72.97 E0.56056
G1 X52.602 Y72.917 E0.59754
G1 X55.47 Y72.924 E0.71201
G1 X56.352 Y72.976 E0.74727
G1 X59.053 Y73.29 E0.8558
G1 X59.941 Y73.446 E0.89178
G1 X62.733 Y74.104 E1.00627
G1 X63.618 Y74.369 E1.04314
G1 X66.317 Y75.354 E1.15782
G1 X67.166 Y75.722 E1.19475
G1 X69.726 Y77.018 E1.30927
G1 X70.487 Y77.459 E1.34437
G1 X72.76 Y78.953 E1.45294
G1 X73.482 Y79.489 E1.48883
G1 X75.682 Y81.33 E1.60332
G1 X76.362 Y81.973 E1.64067
G1 X78.328 Y84.067 E1.75531
G1 X78.897 Y84.747 E1.7907
G1 X80.52 Y86.926 E1.89914
G1 X81.009 Y87.667 E1.93458
G1 X82.451 Y90.149 E2.04914
G1 X82.872 Y90.983 E2.08643
G1 X84.007 Y93.62 E2.20101
G1 X84.32 Y94.485 E2.23773
G1 X85.136 Y97.235 E2.35222
G1 X85.339 Y98.095 E2.38749
G1 X85.813 Y100.774 E2.49607
G1 X85.919 Y101.676 E2.53232
G1 X86.088 Y104.556 E2.64746
G1 X86.087 Y105.477 E2.68422
G1 X85.917 Y108.328 E2.79822
G1 X85.813 Y109.215 E2.83386
G1 X85.342 Y111.893 E2.94238
G1 X85.138 Y112.76 E2.97793
G1 X84.322 Y115.511 E3.09246
G1 X84.008 Y116.378 E3.12926
G1 X82.872 Y119.016 E3.2439
G1 X82.453 Y119.849 E3.28112
G1 X81.012 Y122.33 E3.39563
G1 X80.523 Y123.07 E3.43103
G1 X78.899 Y125.251 E3.53956
G1 X78.329 Y125.932 E3.575
G1 X76.362 Y128.027 E3.6897
G1 X75.681 Y128.67 E3.72708
G1 X73.482 Y130.51 E3.84152
G1 X72.743 Y131.058 E3.87824
G1 X70.341 Y132.627 E3.99275
G1 X69.58 Y133.065 E4.02779
G1 X67.149 Y134.288 E4.13641
G1 X66.315 Y134.648 E4.17266
G1 X63.615 Y135.632 E4.28736
G1 X62.731 Y135.896 E4.32418
G1 X59.94 Y136.553 E4.43862
G1 X59.059 Y136.708 E4.47432
G1 X56.358 Y137.024 E4.58286
G1 X55.468 Y137.077 E4.61845
G1 X52.599 Y137.083 E4.73295
G1 X51.674 Y137.03 E4.76993
G1 X48.819 Y136.695 E4.88466
G1 X47.908 Y136.533 E4.92159
G1 X45.12 Y135.864 E5.03603
G1 X44.273 Y135.609 E5.07133
G1 X41.717 Y134.679 E5.17989
G1 X40.891 Y134.323 E5.21579
G1 X38.323 Y133.037 E5.33042
G1 X37.521 Y132.574 E5.36738
G1 X35.126 Y130.994 E5.4819
G1 X34.387 Y130.441 E5.51873
G1 X32.196 Y128.59 E5.63321
G1 X31.558 Y127.986 E5.66828
G1 X29.69 Y126.007 E5.77689
G1 X29.106 Y125.312 E5.81312
G1 X27.39 Y123.008 E5.92778
G1 X26.883 Y122.235 E5.96468
G1 X25.454 Y119.748 E6.07916
G1 X25.056 Y118.954 E6.11461
G1 X23.978 Y116.457 E6.22316
G1 X23.669 Y115.61 E6.25915
G1 X22.843 Y112.862 E6.37367
G1 X22.63 Y111.964 E6.41051
G1 X22.134 Y109.136 E6.5251
G1 X22.03 Y108.243 E6.56098
G1 X21.872 Y105.531 E6.66941
G1 X21.871 Y104.65 E6.70457
G1 X22.028 Y101.785 E6.81909
G1 X22.134 Y100.862 E6.85617
G1 X22.631 Y98.033 E6.97081
G1 X22.844 Y97.134 E7.00769
G1 X23.671 Y94.387 E7.12219
G1 X23.977 Y93.549 E7.15779
G1 X25.053 Y91.052 E7.26631
G1 X25.453 Y90.252 E7.30201
G1 X26.883 Y87.764 E7.41655
G1 X27.393 Y86.989 E7.45358
G1 X29.11 Y84.686 E7.56823
G1 X29.703 Y83.981 E7.605
G1 X31.679 Y81.897 E7.71962
G1 X32.326 Y81.289 E7.75506
G1 X34.407 Y79.543 E7.86347
G1 X35.124 Y79.008 E7.89918
G1 X37.52 Y77.427 E8.01375
G1 X38.324 Y76.962 E8.05082
G0 F2400 X38.504 Y77.32
G1 F1200 X41.071 Y76.035 E8.1654
G1 X41.848 Y75.7 E8.19917
G1 X44.404 Y74.768 E8.30775
G1 X45.212 Y74.524 E8.34144
G1 X48 Y73.855 E8.45587
G1 X48.867 Y73.701 E8.49102
G1 X51.723 Y73.367 E8.60579
G1 X52.601 Y73.317 E8.64089
G1 X55.469 Y73.324 E8.75535
G1 X56.306 Y73.374 E8.78882
G1 X59.007 Y73.688 E8.89735
G1 X59.849 Y73.835 E8.93146
G1 X62.641 Y74.493 E9.04595
G1 X63.481 Y74.744 E9.08094
G1 X66.18 Y75.729 E9.19561
G1 X66.985 Y76.079 E9.23065
G1 X69.545 Y77.375 E9.34517
G1 X70.268 Y77.793 E9.3785
G1 X72.541 Y79.287 E9.48707
G1 X73.225 Y79.796 E9.5211
G1 X75.425 Y81.637 E9.63559
G1 X76.071 Y82.247 E9.67105
G1 X78.037 Y84.341 E9.78569
G1 X78.577 Y84.986 E9.81926
G1 X80.2 Y87.165 E9.92771
G1 X80.663 Y87.868 E9.9613
G1 X82.105 Y90.35 E10.07587
G1 X82.504 Y91.141 E10.11123
G1 X83.639 Y93.778 E10.22581
G1 X83.936 Y94.599 E10.26066
G1 X84.752 Y97.349 E10.37515
G1 X84.945 Y98.165 E10.40862
G1 X85.419 Y100.844 E10.5172
G1 X85.519 Y101.7 E10.5516
G1 X85.688 Y104.58 E10.66674
G1 X85.688 Y105.453 E10.70159
G1 X85.518 Y108.304 E10.81558
G1 X85.419 Y109.146 E10.84942
G1 X84.948 Y111.824 E10.95794
G1 X84.754 Y112.646 E10.99165
G1 X83.938 Y115.397 E11.10618
G1 X83.641 Y116.22 E11.1411
G1 X82.505 Y118.858 E11.25573
G1 X82.107 Y119.648 E11.29104
G1 X80.666 Y122.129 E11.40555
G1 X80.202 Y122.832 E11.43917
G1 X78.578 Y125.013 E11.5477
G1 X78.038 Y125.658 E11.58128
G1 X76.071 Y127.753 E11.69597
G1 X75.425 Y128.363 E11.73143
G1 X73.226 Y130.203 E11.84587
G1 X72.524 Y130.723 E11.88074
G1 X70.122 Y132.292 E11.99525
G1 X69.401 Y132.708 E12.02847
G1 X66.97 Y133.931 E12.13708
G1 X66.178 Y134.273 E12.17152
G1 X63.478 Y135.257 E12.28621
G1 X62.64 Y135.507 E12.32112
G1 X59.849 Y136.164 E12.43555
G1 X59.013 Y136.311 E12.46943
G1 X56.312 Y136.627 E12.57797
G1 X55.467 Y136.677 E12.61176
G1 X52.598 Y136.683 E12.72626
G1 X51.721 Y136.633 E12.76132
G1 X48.866 Y136.298 E12.87606
G1 X48.001 Y136.144 E12.91112
G1 X45.213 Y135.475 E13.02556
G1 X44.41 Y135.233 E13.05903
G1 X41.854 Y134.303 E13.16759
G1 X41.07 Y133.966 E13.20165
G1 X38.502 Y132.68 E13.31627
G1 X37.741 Y132.24 E13.35136
G1 X35.346 Y130.66 E13.46588
G1 X34.645 Y130.136 E13.50081
G1 X32.454 Y128.285 E13.61528
G1 X31.849 Y127.711 E13.64857
G1 X29.981 Y125.732 E13.75719
G1 X29.427 Y125.073 E13.79155
G1 X27.711 Y122.769 E13.90621
G1 X27.23 Y122.036 E13.9412
G1 X25.801 Y119.549 E14.05568
G1 X25.423 Y118.795 E14.08934
G1 X24.345 Y116.298 E14.1979
G1 X24.052 Y115.495 E14.23201
G1 X23.226 Y112.747 E14.34654
G1 X23.024 Y111.895 E14.38149
G1 X22.528 Y109.067 E14.49608
G1 X22.43 Y108.219 E14.53015
G1 X22.272 Y105.507 E14.63858
G1 X22.27 Y104.672 E14.6719
G1 X22.427 Y101.807 E14.78642
G1 X22.528 Y100.932 E14.82158
G1 X23.025 Y98.103 E14.93622
G1 X23.227 Y97.25 E14.97121
G1 X24.054 Y94.503 E15.0857
G1 X24.344 Y93.708 E15.11948
G1 X25.42 Y91.211 E15.228
G1 X25.8 Y90.451 E15.26191
G1 X27.23 Y87.963 E15.37645
G1 X27.713 Y87.228 E15.41155
G1 X29.43 Y84.925 E15.5262
G1 X29.993 Y84.256 E15.5611
G1 X31.969 Y82.172 E15.67572
G1 X32.583 Y81.595 E15.70935
G1 X34.664 Y79.849 E15.81777
G1 X35.344 Y79.341 E15.85165
G1 X37.74 Y77.76 E15.96622
G1 X38.504 Y77.32 E16.00141
G0 F2400 X38.683 Y77.677
G1 F1200 X41.25 Y76.392 E16.11598
G1 X41.985 Y76.076 E16.14792
G1 X44.541 Y75.144 E16.2565
G1 X45.306 Y74.913 E16.2884
G1 X48.094 Y74.244 E16.40283
G1 X48.914 Y74.098 E16.43607
G1 X51.77 Y73.764 E16.55084
G1 X52.6 Y73.717 E16.58402
G1 X55.468 Y73.724 E16.69849
G1 X56.259 Y73.771 E16.73011
G1 X58.96 Y74.085 E16.83864
G1 X59.758 Y74.225 E16.87098
G1 X62.55 Y74.883 E16.98547
G1 X63.344 Y75.12 E17.01854
G1 X66.043 Y76.105 E17.13321
G1 X66.805 Y76.436 E17.16637
G1 X69.365 Y77.732 E17.28089
G1 X70.048 Y78.127 E17.31238
G1 X72.321 Y79.621 E17.42094
G1 X72.968 Y80.103 E17.45315
G1 X75.168 Y81.944 E17.56764
G1 X75.779 Y82.521 E17.60118
G1 X77.745 Y84.615 E17.71582
G1 X78.256 Y85.225 E17.74758
G1 X79.879 Y87.404 E17.85602
G1 X80.318 Y88.069 E17.88783
G1 X81.76 Y90.551 E18.00239
G1 X82.137 Y91.3 E18.03586
G1 X83.272 Y93.937 E18.15044
G1 X83.553 Y94.713 E18.18338
G1 X84.369 Y97.463 E18.29787
G1 X84.551 Y98.234 E18.32949
G1 X85.025 Y100.913 E18.43808
G1 X85.12 Y101.723 E18.47063
G1 X85.289 Y104.603 E18.58577
G1 X85.289 Y105.43 E18.61878
G1 X85.119 Y108.281 E18.73277
G1 X85.025 Y109.077 E18.76476
G1 X84.554 Y111.755 E18.87329
G1 X84.371 Y112.533 E18.90519
G1 X83.555 Y115.284 E19.01971
G1 X83.273 Y116.062 E19.05274
G1 X82.137 Y118.7 E19.16738
G1 X81.761 Y119.447 E19.20076
G1 X80.32 Y121.928 E19.31527
G1 X79.881 Y122.593 E19.34707
G1 X78.257 Y124.774 E19.4556
G1 X77.746 Y125.384 E19.48736
G1 X75.779 Y127.479 E19.60206
G1 X75.168 Y128.057 E19.63563
G1 X72.969 Y129.897 E19.75006
G1 X72.305 Y130.389 E19.78305
G1 X69.903 Y131.958 E19.89756
G1 X69.221 Y132.35 E19.92895
G1 X66.79 Y133.573 E20.03757
G1 X66.041 Y133.897 E20.07014
G1 X63.341 Y134.881 E20.18483
G1 X62.548 Y135.118 E20.21787
G1 X59.757 Y135.775 E20.33231
G1 X58.966 Y135.914 E20.36436
G1 X56.265 Y136.23 E20.4729
G1 X55.467 Y136.277 E20.50481
G1 X52.598 Y136.283 E20.61931
G1 X51.767 Y136.235 E20.65254
G1 X48.912 Y135.9 E20.76727
G1 X48.095 Y135.755 E20.80038
G1 X45.307 Y135.086 E20.91482
G1 X44.547 Y134.857 E20.9465
G1 X41.991 Y133.927 E21.05506
G1 X41.25 Y133.608 E21.08726
G1 X38.682 Y132.322 E21.20188
G1 X37.961 Y131.906 E21.23511
G1 X35.566 Y130.326 E21.34962
G1 X34.904 Y129.83 E21.38264
G1 X32.713 Y127.979 E21.49712
G1 X32.14 Y127.437 E21.5286
G1 X30.272 Y125.458 E21.63721
G1 X29.748 Y124.834 E21.66973
G1 X28.032 Y122.53 E21.78439
G1 X27.577 Y121.836 E21.81752
G1 X26.148 Y119.349 E21.932
G1 X25.79 Y118.637 E21.9638
G1 X24.712 Y116.14 E22.07235
G1 X24.435 Y115.38 E22.10464
G1 X23.609 Y112.632 E22.21917
G1 X23.418 Y111.826 E22.25223
G1 X22.922 Y108.998 E22.36682
G1 X22.829 Y108.196 E22.39904
G1 X22.671 Y105.484 E22.50747
G1 X22.669 Y104.694 E22.539
G1 X22.826 Y101.829 E22.65352
G1 X22.922 Y101.001 E22.68679
G1 X23.419 Y98.172 E22.80143
G1 X23.61 Y97.365 E22.83453
G1 X24.437 Y94.618 E22.94903
G1 X24.711 Y93.866 E22.98097
G1 X25.787 Y91.369 E23.08949
G1 X26.147 Y90.651 E23.12155
G1 X27.577 Y88.163 E23.23608
G1 X28.034 Y87.467 E23.26932
G1 X29.751 Y85.164 E23.38397
G1 X30.283 Y84.532 E23.41694
G1 X32.259 Y82.448 E23.53156
G1 X32.84 Y81.901 E23.56341
G1 X34.921 Y80.155 E23.67183
G1 X35.565 Y79.675 E23.70389
G1 X37.961 Y78.094 E23.81846
G1 X38.683 Y77.677 E23.85174
G0 F2400 X38.862 Y78.035
G1 F1200 X41.429 Y76.75 E23.96631
G1 X42.122 Y76.451 E23.99644
G1 X44.678 Y75.519 E24.10502
G1 X45.399 Y75.302 E24.13507
G1 X48.187 Y74.633 E24.24951
G1 X48.96 Y74.496 E24.28084
G1 X51.816 Y74.162 E24.39561
G1 X52.599 Y74.117 E24.42691
G1 X55.467 Y74.124 E24.54138
G1 X56.213 Y74.168 E24.5712
G1 X58.914 Y74.482 E24.67973
G1 X59.666 Y74.614 E24.71021
G1 X62.458 Y75.272 E24.82469
G1 X63.207 Y75.496 E24.8559
G1 X65.906 Y76.481 E24.97057
G1 X66.624 Y76.793 E25.00181
G1 X69.184 Y78.089 E25.11634
G1 X69.828 Y78.462 E25.14604
G1 X72.101 Y79.956 E25.2546
G1 X72.712 Y80.409 E25.28496
G1 X74.912 Y82.25 E25.39945
G1 X75.488 Y82.794 E25.43108
G1 X77.454 Y84.888 E25.54572
G1 X77.935 Y85.464 E25.57567
G1 X79.558 Y87.643 E25.68411
G1 X79.972 Y88.269 E25.71406
G1 X81.414 Y90.751 E25.82863
G1 X81.769 Y91.458 E25.86021
G1 X82.904 Y94.095 E25.97479
G1 X83.169 Y94.827 E26.00586
G1 X83.985 Y97.577 E26.12035
G1 X84.157 Y98.304 E26.15017
G1 X84.631 Y100.983 E26.25875
G1 X84.721 Y101.746 E26.28942
G1 X84.89 Y104.626 E26.40456
G1 X84.889 Y105.406 E26.43569
G1 X84.719 Y108.257 E26.54968
G1 X84.631 Y109.007 E26.57982
G1 X84.16 Y111.685 E26.68835
G1 X83.988 Y112.419 E26.71844
G1 X83.172 Y115.17 E26.83296
G1 X82.906 Y115.903 E26.86409
G1 X81.77 Y118.541 E26.97872
G1 X81.415 Y119.246 E27.01023
G1 X79.974 Y121.727 E27.12474
G1 X79.561 Y122.354 E27.1547
G1 X77.937 Y124.535 E27.26323
G1 X77.455 Y125.111 E27.29321
G1 X75.488 Y127.206 E27.40791
G1 X74.911 Y127.75 E27.43956
G1 X72.712 Y129.59 E27.554
G1 X72.086 Y130.054 E27.5851
G1 X69.684 Y131.623 E27.69961
G1 X69.041 Y131.993 E27.72921
G1 X66.61 Y133.216 E27.83783
G1 X65.904 Y133.521 E27.86852
G1 X63.204 Y134.505 E27.98322
G1 X62.456 Y134.728 E28.01437
G1 X59.665 Y135.385 E28.12881
G1 X58.92 Y135.516 E28.159
G1 X56.219 Y135.832 E28.26754
G1 X55.466 Y135.877 E28.29765
G1 X52.597 Y135.883 E28.41216
G1 X51.814 Y135.838 E28.44346
G1 X48.959 Y135.503 E28.55819
G1 X48.188 Y135.366 E28.58944
G1 X45.4 Y134.697 E28.70388
G1 X44.683 Y134.481 E28.73377
G1 X42.127 Y133.551 E28.84232
G1 X41.429 Y133.25 E28.87266
G1 X38.861 Y131.964 E28.98729
G1 X38.182 Y131.572 E29.01858
G1 X35.787 Y129.992 E29.1331
G1 X35.162 Y129.525 E29.16424
G1 X32.971 Y127.674 E29.27872
G1 X32.43 Y127.162 E29.30844
G1 X30.562 Y125.183 E29.41706
G1 X30.069 Y124.595 E29.44769
G1 X28.353 Y122.291 E29.56235
G1 X27.923 Y121.637 E29.59359
G1 X26.494 Y119.15 E29.70807
G1 X26.158 Y118.478 E29.73805
G1 X25.08 Y115.981 E29.8466
G1 X24.818 Y115.265 E29.87703
G1 X23.992 Y112.517 E29.99156
G1 X23.812 Y111.757 E30.02273
G1 X23.316 Y108.929 E30.13733
G1 X23.228 Y108.173 E30.16771
G1 X23.07 Y105.461 E30.27613
G1 X23.069 Y104.716 E30.30587
G1 X23.226 Y101.851 E30.42039
G1 X23.316 Y101.07 E30.45176
G1 X23.813 Y98.241 E30.5664
G1 X23.993 Y97.48 E30.59761
G1 X24.82 Y94.733 E30.71211
G1 X25.079 Y94.024 E30.74224
G1 X26.155 Y91.527 E30.85076
G1 X26.494 Y90.85 E30.88098
G1 X27.924 Y88.362 E30.99551
G1 X28.355 Y87.706 E31.02684
G1 X30.072 Y85.403 E31.14149
G1 X30.574 Y84.807 E31.1726
G1 X32.55 Y82.723 E31.28722
G1 X33.097 Y82.208 E31.3172
G1 X35.178 Y80.462 E31.42562
G1 X35.785 Y80.009 E31.45585
G1 X38.181 Y78.428 E31.57042
G1 X38.862 Y78.035 E31.60181
G0 F2400 X39.041 Y78.393
G1 F1200 X41.608 Y77.108 E31.71638
G1 X42.259 Y76.827 E31.74468
G1 X44.815 Y75.895 E31.85327
G1 X45.492 Y75.691 E31.88149
G1 X48.28 Y75.022 E31.99592
G1 X49.007 Y74.893 E32.02539
G1 X51.863 Y74.559 E32.14016
G1 X52.598 Y74.517 E32.16954
G1 X55.466 Y74.524 E32.28401
G1 X56.167 Y74.565 E32.31203
G1 X58.868 Y74.879 E32.42056
G1 X59.574 Y75.003 E32.44917
G1 X62.366 Y75.661 E32.56366
G1 X63.07 Y75.872 E32.59299
G1 X65.769 Y76.857 E32.70767
G1 X66.443 Y77.149 E32.73698
G1 X69.003 Y78.445 E32.8515
G1 X69.608 Y78.796 E32.87942
G1 X71.881 Y80.29 E32.98798
G1 X72.455 Y80.716 E33.01651
G1 X74.655 Y82.557 E33.13101
G1 X75.196 Y83.068 E33.16071
G1 X77.162 Y85.162 E33.27535
G1 X77.614 Y85.702 E33.30345
G1 X79.237 Y87.881 E33.4119
G1 X79.626 Y88.47 E33.44007
G1 X81.068 Y90.952 E33.55464
G1 X81.402 Y91.616 E33.5843
G1 X82.537 Y94.253 E33.69889
G1 X82.786 Y94.94 E33.72805
G1 X83.602 Y97.69 E33.84254
G1 X83.763 Y98.374 E33.87058
G1 X84.237 Y101.053 E33.97917
G1 X84.321 Y101.77 E34.00798
G1 X84.49 Y104.65 E34.12313
G1 X84.49 Y105.382 E34.15234
G1 X84.32 Y108.233 E34.26634
G1 X84.237 Y108.938 E34.29467
G1 X83.766 Y111.616 E34.40319
G1 X83.604 Y112.305 E34.43144
G1 X82.788 Y115.056 E34.54597
G1 X82.538 Y115.745 E34.57522
G1 X81.402 Y118.383 E34.68986
G1 X81.069 Y119.045 E34.71943
G1 X79.628 Y121.526 E34.83395
G1 X79.24 Y122.115 E34.8621
G1 X77.616 Y124.296 E34.97063
G1 X77.163 Y124.837 E34.99879
G1 X75.196 Y126.932 E35.11349
G1 X74.655 Y127.443 E35.14319
G1 X72.456 Y129.283 E35.25763
G1 X71.868 Y129.719 E35.28684
G1 X69.466 Y131.288 E35.40135
G1 X68.861 Y131.636 E35.42921
G1 X66.43 Y132.859 E35.53782
G1 X65.767 Y133.145 E35.56664
G1 X63.067 Y134.129 E35.68134
