;FLAVOR:UltiGCode
;TIME:3484
;MATERIAL:3876
;MATERIAL2:4607
;NOZZLE_DIAMETER:0.4
;POSTPROCESSED
;Generated with Cura_SteamEngine 3.6.0
M82 ;absolute extrusion mode
; Printer start settings begin
M140 S55.0
M190 S55.0
M104 S184.0
M104 T1 S175.0 
M109 S184.0 
; Calibration section to overwrite Firmware values
; Identifier CALIBR, CALRES and CALMPE, surrounded by #, + or - can be used in post processing
; #CALIBR# M92 X162 Y162 Z3200 ; +CALIBR+ Steps per unit
; #CALRESO# M201 X1000 Y1000 Z50 E1500 E1500 ; +CALRESO+ Max Accelleration
; #CALRESO# M203 X800 Y800 Z2 E90 E90 ; +CALRESO+ Max Feed
; #CALRESO# M205 X3.0 Y3.0 Z0.3 E5.0 ; +CALRESO+ Default Jerk
; #CALMPE# M951 L32 R139 G32 N75 H300 D10 C0 ; +CALMPE+ Parking kinematic values / needs MPE kinematic to be compiled and activated in firmware
; #CALMPE# M851 Z-0.55 ; +CALMPE+ System Z Probe Offset
; #CALMPE# M218 T1 X-0.55 Y0.25 Z0.25; +CALMPE+ T1 Nozzle offset values
; #CALMPE# M206 X-32.00 Y0.00 Z0.00; +CALMPE+ Home Offset
; #REM#  M951 args: L: Left parking,R: Right parking, I: Grab Offset, J: Normal speed, H: High speed, D: Distance trav., C: Compenstion
; #CALMPE# M951 L32 R140 I32 J4500 H9000 D10 C0 ; MPE Setup
; #CALMPE# M217 Z5.00 Z-Lift
G28 ;Home
G90 ; Absolute positioning
G92 E5
G1 F1000 E0
; #MPE# G29 ; -MPE- Auto Bed Level, uses this if FW values are set correct.
; #MPE# G29 X3 Y3 L0 R109 F32 B168 ; +MPE+ Auto Bed Leveling, needed if not poroper defined in Firmware
G92 E-5
G1 E0 F400
G0 Z15.0 F100 ;Move the platform down 15mm
G0 X0 Y0 F9000 ;Move to front
T1
G0 X0 Y0 F9000 ;Move to front
G92 E-30
G1 F200 E0
T0
G0 X0 Y0 F9000 ;Move to front
G92 E-30
G1 F200 E0
; Printer start settings end
G92 E0
G10
;LAYER_COUNT:75
;LAYER:0
M107
G0 F1800 X43.86 Y85.493 Z0.2
;TYPE:SKIRT
G11
G1 F1200 X44.177 Y85.337 E0.0424
G1 X46.699 Y84.268 E0.3711
G1 X47.14 Y84.118 E0.427
G1 X49.775 Y83.43 E0.7538
G1 X50.177 Y83.352 E0.80294
G1 X52.202 Y83.093 E1.04792
G1 X52.487 Y83.069 E1.08224
G1 X53.858 Y83.017 E1.24688
G1 X54.092 Y83.017 E1.27496
G1 X55.454 Y83.065 E1.4385
G1 X55.688 Y83.082 E1.46665
G1 X57.063 Y83.232 E1.63263
G1 X57.403 Y83.288 E1.67398
G1 X60.014 Y83.862 E1.99478
G1 X60.35 Y83.955 E2.03662
G1 X61.695 Y84.409 E2.20697
G1 X61.916 Y84.493 E2.23534
G1 X63.193 Y85.032 E2.40167
G1 X63.407 Y85.132 E2.43001
G1 X64.61 Y85.748 E2.5922
G1 X64.912 Y85.923 E2.63408
G1 X67.213 Y87.438 E2.96468
G1 X67.496 Y87.648 E3.00697
G1 X68.559 Y88.53 E3.17272
G1 X68.773 Y88.725 E3.20746
G1 X70.245 Y90.19 E3.45668
G1 X70.52 Y90.501 E3.50649
G1 X72.196 Y92.67 E3.83542
G1 X72.395 Y92.959 E3.87753
G1 X73.107 Y94.125 E4.04147
G1 X73.22 Y94.327 E4.06925
G1 X73.857 Y95.563 E4.23611
G1 X73.979 Y95.828 E4.27112
G1 X74.715 Y97.646 E4.50648
G1 X74.812 Y97.92 E4.54135
G1 X75.235 Y99.317 E4.71651
G1 X75.297 Y99.554 E4.74591
G1 X76.742 Y106.097 E5.54999
G1 X77.428 Y108.699 E5.8729
G1 X79.055 Y113.957 E6.53337
G1 X80.968 Y119.091 E7.19083
G1 X83.168 Y124.106 E7.84799
G1 X85.646 Y128.989 E8.50509
G1 X88.407 Y133.74 E9.16449
G1 X90.99 Y137.709 E9.73275
G1 X91.131 Y137.947 E9.76594
G1 X92.052 Y139.672 E10.0006
G1 X92.291 Y140.25 E10.07565
G1 X92.858 Y142.12 E10.31014
G1 X92.981 Y142.739 E10.38587
G1 X93.173 Y144.714 E10.62399
G1 X93.172 Y145.34 E10.69911
G1 X92.981 Y147.266 E10.93137
G1 X92.86 Y147.877 E11.00611
G1 X92.294 Y149.746 E11.24045
G1 X92.052 Y150.329 E11.3162
G1 X91.131 Y152.05 E11.55043
G1 X90.788 Y152.565 E11.62468
G1 X89.545 Y154.086 E11.8604
G1 X89.096 Y154.535 E11.9366
G1 X87.589 Y155.771 E12.17048
G1 X87.066 Y156.12 E12.24593
G1 X85.302 Y157.061 E12.48585
G1 X84.722 Y157.301 E12.56117
G1 X82.876 Y157.859 E12.79259
G1 X82.26 Y157.981 E12.86794
G1 X80.269 Y158.175 E13.108
G1 X79.904 Y158.19 E13.15183
G1 X76.477 Y158.131 E13.56313
G1 X70.993 Y158.285 E14.22147
G1 X65.525 Y158.749 E14.87999
G1 X60.126 Y159.517 E15.53439
G1 X54.733 Y160.598 E16.19443
G1 X52.115 Y161.238 E16.51784
G1 X46.822 Y162.776 E17.17927
G1 X42.164 Y164.38 E17.77044
G1 X41.865 Y164.467 E17.80781
G1 X39.549 Y165.02 E18.09354
G1 X39.105 Y165.093 E18.14754
G1 X36.678 Y165.321 E18.44006
G1 X36.21 Y165.331 E18.49623
G1 X33.658 Y165.196 E18.8029
G1 X33.222 Y165.142 E18.85562
G1 X31.094 Y164.732 E19.11568
G1 X30.669 Y164.62 E19.16842
G1 X28.278 Y163.807 E19.47147
G1 X27.844 Y163.623 E19.52804
G1 X25.593 Y162.465 E19.8318
G1 X25.194 Y162.221 E19.88793
G1 X23.174 Y160.775 E20.18603
G1 X22.816 Y160.477 E20.24193
G1 X21.014 Y158.74 E20.54227
G1 X20.7 Y158.389 E20.59879
G1 X19.164 Y156.395 E20.90083
G1 X18.908 Y156.007 E20.95661
G1 X17.686 Y153.827 E21.25651
G1 X17.486 Y153.401 E21.31298
G1 X16.583 Y151.029 E21.61755
G1 X16.464 Y150.643 E21.66602
G1 X16.057 Y148.963 E21.87345
G1 X15.988 Y148.574 E21.92086
G1 X15.698 Y146.042 E22.22669
G1 X15.679 Y145.573 E22.28301
G1 X15.76 Y143.102 E22.57969
G1 X15.799 Y142.695 E22.62876
G1 X16.109 Y140.784 E22.86107
G1 X16.185 Y140.44 E22.90335
G1 X16.667 Y138.703 E23.11966
G1 X16.799 Y138.323 E23.16794
G1 X17.773 Y135.998 E23.47043
G1 X17.984 Y135.58 E23.52662
G1 X20.858 Y130.819 E24.19396
G1 X23.527 Y126.005 E24.85449
G1 X25.908 Y121.064 E25.51266
G1 X28.025 Y115.962 E26.17551
G1 X28.938 Y113.459 E26.49523
G1 X30.602 Y108.227 E27.15406
G1 X31.968 Y102.911 E27.8127
G1 X32.615 Y99.894 E28.18298
G1 X32.664 Y99.696 E28.20745
G1 X33.036 Y98.377 E28.37191
G1 X33.138 Y98.074 E28.41027
G1 X34.014 Y95.848 E28.69733
G1 X34.146 Y95.557 E28.73568
G1 X34.774 Y94.335 E28.90055
G1 X34.89 Y94.129 E28.92892
G1 X35.613 Y92.946 E29.09529
G1 X35.812 Y92.656 E29.13749
G1 X37.487 Y90.492 E29.46588
G1 X37.798 Y90.146 E29.5217
G1 X39.757 Y88.259 E29.84811
G1 X40.114 Y87.962 E29.90383
G1 X42.341 Y86.367 E30.23254
G1 X42.638 Y86.179 E30.27472
G1 X43.86 Y85.493 E30.44289
G10
;MESH:cap_ext_1.25_inch.STL
G0 F1800 X54.71 Y85.551
G0 X56.129 Y85.655
G0 X57.535 Y85.862
G0 X58.923 Y86.171
G0 X60.283 Y86.581
G0 X61.611 Y87.088
G0 X62.899 Y87.692
G0 X64.138 Y88.387
G0 X65.324 Y89.172
G0 X66.449 Y90.041
G0 X67.507 Y90.99
G0 X68.495 Y92.013
G0 X69.404 Y93.106
G0 X70.232 Y94.261
G0 X70.971 Y95.475
G0 X71.622 Y96.74
G0 X72.178 Y98.048
G0 X72.637 Y99.394
G0 X72.996 Y100.769
G0 X73.255 Y102.167
G0 X73.38 Y103.31
G0 X74.559 Y136.85
;TYPE:SUPPORT
G11
G1 F1200 X76.249 Y135.946 E30.59622
G1 X78.086 Y135.389 E30.74978
G1 X80 Y135.201 E30.90364
G1 X81.913 Y135.389 E31.05742
G1 X83.75 Y135.946 E31.21098
G1 X85.44 Y136.85 E31.36431
G1 X86.929 Y138.07 E31.51831
G1 X88.149 Y139.559 E31.67231
G1 X89.053 Y141.249 E31.82563
G1 X89.61 Y143.086 E31.9792
G1 X89.799 Y145 E32.13307
G1 X89.61 Y146.913 E32.28685
G1 X89.053 Y148.75 E32.44042
G1 X88.149 Y150.44 E32.59375
G1 X86.929 Y151.929 E32.74774
G1 X85.44 Y153.149 E32.90174
G1 X83.75 Y154.053 E33.05507
G1 X81.913 Y154.61 E33.20864
G1 X80 Y154.799 E33.36242
G1 X78.086 Y154.61 E33.51629
G1 X76.249 Y154.053 E33.66985
G1 X74.559 Y153.149 E33.82318
G1 X73.07 Y151.929 E33.97718
G1 X71.85 Y150.44 E34.13118
G1 X70.946 Y148.75 E34.2845
G1 X70.389 Y146.913 E34.43807
G1 X70.201 Y145 E34.59185
G1 X70.389 Y143.086 E34.7457
G1 X70.946 Y141.249 E34.89927
G1 X71.85 Y139.559 E35.0526
G1 X73.07 Y138.07 E35.2066
G1 X74.559 Y136.85 E35.36059
G0 F1800 X74.781 Y137.186
G1 F1200 X76.404 Y136.317 E35.50787
G1 X78.166 Y135.783 E35.65517
G1 X80 Y135.603 E35.80259
G1 X81.833 Y135.783 E35.94994
G1 X83.595 Y136.317 E36.09723
G1 X85.218 Y137.186 E36.24451
G1 X86.645 Y138.354 E36.39203
G1 X87.813 Y139.781 E36.53956
G1 X88.682 Y141.404 E36.68684
G1 X89.216 Y143.166 E36.83413
G1 X89.397 Y145 E36.98156
G1 X89.216 Y146.833 E37.12891
G1 X88.682 Y148.595 E37.27621
G1 X87.813 Y150.218 E37.42349
G1 X86.645 Y151.645 E37.57101
G1 X85.218 Y152.813 E37.71853
G1 X83.595 Y153.682 E37.86582
G1 X81.833 Y154.216 E38.01311
G1 X80 Y154.397 E38.16046
G1 X78.166 Y154.216 E38.30789
G1 X76.404 Y153.682 E38.45518
G1 X74.781 Y152.813 E38.60246
G1 X73.354 Y151.645 E38.74999
G1 X72.186 Y150.218 E38.89751
G1 X71.317 Y148.595 E39.04479
G1 X70.783 Y146.833 E39.19208
G1 X70.603 Y145 E39.33943
G1 X70.783 Y143.166 E39.48685
G1 X71.317 Y141.404 E39.63415
G1 X72.186 Y139.781 E39.78143
G1 X73.354 Y138.354 E39.92895
G1 X74.781 Y137.186 E40.07648
G0 F1800 X75.003 Y137.521
G1 F1200 X76.559 Y136.688 E40.21767
G1 X78.246 Y136.177 E40.35869
G1 X80 Y136.005 E40.49968
G1 X81.753 Y136.177 E40.64059
G1 X83.44 Y136.688 E40.78161
G1 X84.996 Y137.521 E40.9228
G1 X86.361 Y138.638 E41.06391
G1 X87.478 Y140.003 E41.20501
G1 X88.311 Y141.559 E41.3462
G1 X88.822 Y143.246 E41.48722
G1 X88.995 Y145 E41.62822
G1 X88.822 Y146.753 E41.76914
G1 X88.311 Y148.44 E41.91016
G1 X87.478 Y149.996 E42.05135
G1 X86.361 Y151.361 E42.19246
G1 X84.996 Y152.478 E42.33356
G1 X83.44 Y153.311 E42.47475
G1 X81.753 Y153.822 E42.61577
G1 X80 Y153.995 E42.75669
G1 X78.246 Y153.822 E42.89769
G1 X76.559 Y153.311 E43.03871
G1 X75.003 Y152.478 E43.1799
G1 X73.638 Y151.361 E43.321
G1 X72.521 Y149.996 E43.46211
G1 X71.688 Y148.44 E43.6033
G1 X71.177 Y146.753 E43.74432
G1 X71.005 Y145 E43.88523
G1 X71.177 Y143.246 E44.02622
G1 X71.688 Y141.559 E44.16724
G1 X72.521 Y140.003 E44.30843
G1 X73.638 Y138.638 E44.44954
G1 X75.003 Y137.521 E44.59064
G0 F1800 X75.225 Y137.856
G1 F1200 X76.714 Y137.059 E44.72575
G1 X78.326 Y136.571 E44.86049
G1 X80 Y136.407 E44.99505
G1 X81.673 Y136.571 E45.12953
G1 X83.285 Y137.059 E45.26427
G1 X84.774 Y137.856 E45.39938
G1 X86.077 Y138.922 E45.53406
G1 X87.143 Y140.225 E45.66874
G1 X87.94 Y141.714 E45.80385
G1 X88.428 Y143.326 E45.93859
G1 X88.593 Y145 E46.07316
G1 X88.428 Y146.673 E46.20765
G1 X87.94 Y148.285 E46.34239
G1 X87.143 Y149.774 E46.4775
G1 X86.077 Y151.077 E46.61218
G1 X84.774 Y152.143 E46.74686
G1 X83.285 Y152.94 E46.88197
G1 X81.673 Y153.428 E47.01671
G1 X80 Y153.593 E47.1512
G1 X78.326 Y153.428 E47.28577
G1 X76.714 Y152.94 E47.42051
G1 X75.225 Y152.143 E47.55562
G1 X73.922 Y151.077 E47.6903
G1 X72.856 Y149.774 E47.82498
G1 X72.059 Y148.285 E47.96009
G1 X71.571 Y146.673 E48.09483
G1 X71.407 Y145 E48.22931
G1 X71.571 Y143.326 E48.36387
G1 X72.059 Y141.714 E48.49861
G1 X72.856 Y140.225 E48.63372
G1 X73.922 Y138.922 E48.7684
G1 X75.225 Y137.856 E48.90308
G0 F1800 X75.447 Y138.191
G1 F1200 X76.869 Y137.43 E49.03211
G1 X78.406 Y136.965 E49.16057
G1 X80 Y136.809 E49.2887
G1 X81.593 Y136.965 E49.41675
G1 X83.13 Y137.43 E49.54522
G1 X84.552 Y138.191 E49.67424
G1 X85.793 Y139.206 E49.8025
G1 X86.808 Y140.447 E49.93076
G1 X87.569 Y141.869 E50.05978
G1 X88.034 Y143.406 E50.18825
G1 X88.191 Y145 E50.31638
G1 X88.034 Y146.593 E50.44444
G1 X87.569 Y148.13 E50.57291
G1 X86.808 Y149.552 E50.70193
G1 X85.793 Y150.793 E50.83019
G1 X84.552 Y151.808 E50.95845
G1 X83.13 Y152.569 E51.08747
G1 X81.593 Y153.034 E51.21594
G1 X80 Y153.191 E51.34399
G1 X78.406 Y153.034 E51.47213
G1 X76.869 Y152.569 E51.6006
G1 X75.447 Y151.808 E51.72962
G1 X74.206 Y150.793 E51.85788
G1 X73.191 Y149.552 E51.98614
G1 X72.43 Y148.13 E52.11516
G1 X71.965 Y146.593 E52.24363
G1 X71.809 Y145 E52.37168
G1 X71.965 Y143.406 E52.4998
G1 X72.43 Y141.869 E52.62827
G1 X73.191 Y140.447 E52.75729
G1 X74.206 Y139.206 E52.88555
G1 X75.447 Y138.191 E53.01381
G0 F1800 X75.669 Y138.526
G1 F1200 X77.024 Y137.801 E53.13675
G1 X78.486 Y137.359 E53.25894
G1 X80 Y137.211 E53.38064
G1 X81.513 Y137.359 E53.50225
G1 X82.975 Y137.801 E53.62444
G1 X84.33 Y138.526 E53.74738
G1 X85.509 Y139.49 E53.86922
G1 X86.473 Y140.669 E53.99105
G1 X87.198 Y142.024 E54.11399
G1 X87.64 Y143.486 E54.23618
G1 X87.789 Y145 E54.35789
G1 X87.64 Y146.513 E54.47951
G1 X87.198 Y147.975 E54.6017
G1 X86.473 Y149.33 E54.72464
G1 X85.509 Y150.509 E54.84648
G1 X84.33 Y151.473 E54.96831
G1 X82.975 Y152.198 E55.09125
G1 X81.513 Y152.64 E55.21344
G1 X80 Y152.789 E55.33507
G1 X78.486 Y152.64 E55.45677
G1 X77.024 Y152.198 E55.57896
G1 X75.669 Y151.473 E55.7019
G1 X74.49 Y150.509 E55.82374
G1 X73.526 Y149.33 E55.94557
G1 X72.801 Y147.975 E56.06851
G1 X72.359 Y146.513 E56.1907
G1 X72.211 Y145 E56.31232
G1 X72.359 Y143.486 E56.43402
G1 X72.801 Y142.024 E56.55621
G1 X73.526 Y140.669 E56.67915
G1 X74.49 Y139.49 E56.80098
G1 X75.669 Y138.526 E56.92282
G0 F1800 X75.891 Y138.861
G1 F1200 X77.179 Y138.172 E57.03967
G1 X78.565 Y137.753 E57.15551
G1 X80 Y137.613 E57.27085
G1 X81.434 Y137.753 E57.38612
G1 X82.82 Y138.172 E57.50196
G1 X84.108 Y138.861 E57.61881
G1 X85.225 Y139.774 E57.73423
G1 X86.138 Y140.891 E57.84964
G1 X86.827 Y142.179 E57.96649
G1 X87.246 Y143.566 E58.08241
G1 X87.387 Y145 E58.19768
G1 X87.246 Y146.433 E58.31287
G1 X86.827 Y147.82 E58.42879
G1 X86.138 Y149.108 E58.54564
G1 X85.225 Y150.225 E58.66106
G1 X84.108 Y151.138 E58.77647
G1 X82.82 Y151.827 E58.89332
G1 X81.433 Y152.246 E59.00924
G1 X80 Y152.387 E59.12443
G1 X78.566 Y152.246 E59.2397
G1 X77.179 Y151.827 E59.35562
G1 X75.891 Y151.138 E59.47247
G1 X74.774 Y150.225 E59.58789
G1 X73.861 Y149.108 E59.7033
G1 X73.172 Y147.82 E59.82015
G1 X72.753 Y146.434 E59.93599
G1 X72.613 Y145 E60.05126
G1 X72.753 Y143.565 E60.1666
G1 X73.172 Y142.179 E60.28244
G1 X73.861 Y140.891 E60.39929
G1 X74.774 Y139.774 E60.51471
G1 X75.891 Y138.861 E60.63012
G0 F1800 X76.113 Y139.196
G1 F1200 X77.334 Y138.543 E60.74089
G1 X78.644 Y138.147 E60.85037
G1 X80 Y138.015 E60.95937
G1 X81.355 Y138.147 E61.06828
G1 X82.665 Y138.543 E61.17776
G1 X83.886 Y139.196 E61.28854
G1 X84.941 Y140.058 E61.39753
G1 X85.803 Y141.113 E61.50652
G1 X86.456 Y142.334 E61.61729
G1 X86.852 Y143.646 E61.72692
G1 X86.985 Y145 E61.83577
G1 X86.852 Y146.353 E61.94453
G1 X86.456 Y147.665 E62.05416
G1 X85.803 Y148.886 E62.16494
G1 X84.941 Y149.941 E62.27393
G1 X83.886 Y150.803 E62.38292
G1 X82.665 Y151.456 E62.49369
G1 X81.353 Y151.852 E62.60332
G1 X80 Y151.985 E62.71209
G1 X78.646 Y151.852 E62.82093
G1 X77.334 Y151.456 E62.93056
G1 X76.113 Y150.803 E63.04134
G1 X75.058 Y149.941 E63.15033
G1 X74.196 Y148.886 E63.25932
G1 X73.543 Y147.665 E63.37009
G1 X73.147 Y146.355 E63.47957
G1 X73.015 Y145 E63.58848
G1 X73.147 Y143.644 E63.69748
G1 X73.543 Y142.334 E63.80696
G1 X74.196 Y141.113 E63.91773
G1 X75.058 Y140.058 E64.02672
G1 X76.113 Y139.196 E64.13571
G0 F1800 X76.335 Y139.531
G1 F1200 X77.489 Y138.914 E64.2404
G1 X78.723 Y138.541 E64.34353
G1 X80 Y138.417 E64.44617
G1 X81.276 Y138.541 E64.54873
G1 X82.51 Y138.914 E64.65186
G1 X83.664 Y139.531 E64.75655
G1 X84.657 Y140.342 E64.85912
G1 X85.468 Y141.335 E64.96169
G1 X86.085 Y142.489 E65.06637
G1 X86.458 Y143.725 E65.16966
G1 X86.583 Y145 E65.27215
G1 X86.458 Y146.274 E65.37456
G1 X86.085 Y147.51 E65.47784
G1 X85.468 Y148.664 E65.58253
G1 X84.657 Y149.657 E65.6851
G1 X83.664 Y150.468 E65.78766
G1 X82.51 Y151.085 E65.89235
G1 X81.274 Y151.458 E65.99564
G1 X80 Y151.583 E66.09804
G1 X78.725 Y151.458 E66.20053
G1 X77.489 Y151.085 E66.30382
G1 X76.335 Y150.468 E66.40851
G1 X75.342 Y149.657 E66.51107
G1 X74.531 Y148.664 E66.61364
G1 X73.914 Y147.51 E66.71833
G1 X73.541 Y146.276 E66.82146
G1 X73.417 Y145 E66.92402
G1 X73.541 Y143.723 E67.02666
G1 X73.914 Y142.489 E67.12979
G1 X74.531 Y141.335 E67.23448
G1 X75.342 Y140.342 E67.33705
G1 X76.335 Y139.531 E67.43961
G0 F1800 X76.557 Y139.866
G1 F1200 X77.644 Y139.285 E67.53822
G1 X78.802 Y138.935 E67.635
G1 X80 Y138.819 E67.73128
G1 X81.197 Y138.935 E67.82749
G1 X82.355 Y139.285 E67.92427
G1 X83.442 Y139.866 E68.02287
G1 X84.373 Y140.626 E68.11902
G1 X85.133 Y141.557 E68.21516
G1 X85.714 Y142.644 E68.31377
G1 X86.064 Y143.804 E68.4107
G1 X86.181 Y145 E68.50684
G1 X86.064 Y146.195 E68.60289
G1 X85.714 Y147.355 E68.69982
G1 X85.133 Y148.442 E68.79843
G1 X84.373 Y149.373 E68.89457
G1 X83.442 Y150.133 E68.99072
G1 X82.355 Y150.714 E69.08932
G1 X81.195 Y151.064 E69.18625
G1 X80 Y151.181 E69.28231
G1 X78.804 Y151.064 E69.37845
G1 X77.644 Y150.714 E69.47538
