;FLAVOR:Marlin
;TIME:2342
;Filament used: 1.52045m, 0m
;Layer height: 0.12
;POSTPROCESSED
;Generated with Cura_SteamEngine 3.6.0
T0
M140 S60
M105
M190 S60
M104 S184
M105
M109 S184
M82 ;absolute extrusion mode
; Printer start settings begin
; Calibration section to overwrite Firmware values
; Identifier CALIBR, CALRES and CALMPE, surrounded by #, + or - can be used in post processing
; #CALIBR# M92 X160 Y160 Z3200 ; +CALIBR+ Steps per unit
; #CALRESO# M201 X1000 Y1000 Z50 E1500 E1500 ; +CALRESO+ Max Accelleration
; #CALRESO# M203 X800 Y800 Z2 E90 E90 ; +CALRESO+ Max Feed
; #CALRESO# M205 X3.0 Y3.0 Z0.3 E5.0 ; +CALRESO+ Default Jerk
; #CALMPE#
M951 L32 R139 G32 N75 H300 D10 C0 ; +CALMPE+ Parking kinematic values / needs MPE kinematic to be compiled and activated in firmware
; #CALMPE#
M851 Z-0.55 ; +CALMPE+ System Z Probe Offset
; #CALMPE#
M218 T1 X0.75 Y0.0 Z0.25; +CALMPE+ T1 Nozzle offset values
; #CALMPE#
M206 X-32.00 Y0.00 Z0.00; +CALMPE+ Home Offset
; #REM#  M951 args: L: Left parking,R: Right parking, I: Grab Offset, J: Normal speed, H: High speed, D: Distance trav., C: Compenstion
; #CALMPE#
M951 L32 R140 I32 J4500 H9000 D10 C0 ; MPE Setup
; #CALMPE# M217 Z5.00 Z-Lift
G28 ;Home
G92 E5
G1 F1000 E0
; #MPE# G29 ; -MPE- Auto Bed Level, uses this if FW values are set correct.
; #MPE# G29 X3 Y3 L0 R109 F32 B168 ; +MPE+ Auto Bed Leveling, needed if not poroper defined in Firmware
G92 E-5
G1 E0 F400
G0 Z15.0 F100 ;Move the platform down 15mm
G0 X0 Y0 F9000 ;Move to front
T1
G0 X0 Y0 F9000 ;Move to front
G92 E-30
G1 F200 E0
T0
G0 X0 Y0 F9000 ;Move to front
G92 E-30
G1 F200 E0
; Printer start settings end
G92 E0
G1 F1200 E-3
;LAYER_COUNT:59
;LAYER:0
M107
G0 F2400 X47.833 Y89.637 Z0.16
;TYPE:SKIRT
G1 F1200 E0
G1 X47.746 Y89.705 E0.00441
G1 X47.107 Y90.106 E0.03452
G1 X45.217 Y91.17 E0.12108
G1 X44.029 Y92.027 E0.17955
G1 X43.037 Y92.826 E0.23039
G1 X42.941 Y92.91 E0.23548
G1 X41.659 Y94.222 E0.30869
G1 X40.616 Y95.561 E0.37643
G1 X39.345 Y97.68 E0.47505
G1 X38.552 Y99.535 E0.55557
G1 X38.52 Y99.617 E0.55909
G1 X38.498 Y99.685 E0.56194
G1 X37.985 Y101.529 E0.63833
G1 X37.748 Y102.899 E0.69382
G1 X37.724 Y103.114 E0.70246
G1 X37.675 Y103.664 E0.7245
G1 X37.646 Y104.563 E0.7604
G1 X37.658 Y105.893 E0.81348
G1 X37.733 Y106.823 E0.85072
G1 X37.822 Y107.532 E0.87924
G1 X37.967 Y108.365 E0.91299
G1 X38.047 Y108.749 E0.92864
G1 X38.474 Y110.251 E0.99097
G1 X39.356 Y112.331 E1.08114
G1 X40.355 Y114.132 E1.16334
G1 X40.555 Y114.539 E1.18144
G1 X40.997 Y115.003 E1.20701
G1 X41.889 Y116.039 E1.26158
G1 X43.96 Y118.002 E1.37547
G1 X44.411 Y118.475 E1.40155
G1 X44.634 Y118.563 E1.41112
G1 X45.103 Y118.796 E1.43202
G1 X46.537 Y119.569 E1.49704
G1 X46.979 Y119.792 E1.5168
G1 X48.847 Y120.552 E1.59729
G1 X50.62 Y121.039 E1.67068
G1 X51.592 Y121.21 E1.71007
G1 X53.887 Y121.377 E1.80191
G1 X54.909 Y121.358 E1.84271
G1 X56.519 Y121.175 E1.90738
G1 X58.196 Y120.835 E1.97567
G1 X60.382 Y120.087 E2.06789
G1 X60.884 Y119.852 E2.09001
G1 X61.814 Y119.395 E2.13137
G1 X63.254 Y118.523 E2.19856
G1 X64.687 Y117.418 E2.27078
G1 X64.78 Y117.34 E2.27562
G1 X65.487 Y116.658 E2.31483
G1 X66.219 Y115.916 E2.35643
G1 X67.511 Y114.269 E2.43998
G1 X68.356 Y112.879 E2.5049
G1 X69.056 Y111.459 E2.56809
G1 X70.019 Y108.615 E2.68793
G1 X70.144 Y108.298 E2.70153
G1 X70.177 Y107.74 E2.72384
G1 X70.352 Y106.044 E2.79189
G1 X70.357 Y105.933 E2.79633
G1 X70.361 Y104.082 E2.87021
G1 X70.146 Y102.213 E2.94529
G1 X69.619 Y100.063 E3.03364
G1 X69.064 Y98.559 E3.09763
G1 X67.995 Y96.468 E3.19136
G1 X67.563 Y95.797 E3.22321
G1 X66.729 Y94.691 E3.2785
G1 X65.159 Y93.018 E3.37007
G1 X63.71 Y91.818 E3.44516
G1 X62.16 Y90.807 E3.51902
G1 X60.398 Y89.935 E3.59748
G1 X58.528 Y89.273 E3.67666
G1 X57.16 Y88.923 E3.73302
G1 X55.308 Y88.667 E3.80764
G1 X53.825 Y88.627 E3.86685
G1 X51.912 Y88.747 E3.94335
G1 X51.444 Y88.821 E3.96226
G1 X49.176 Y89.308 E4.05485
G1 X48.396 Y89.435 E4.08639
G1 X48.395 Y89.435 E4.08643
G1 X47.833 Y89.637 E4.11026
G0 F2400 X47.655 Y89.278
G1 F1200 X46.911 Y89.757 E4.14558
G1 X45.006 Y90.829 E4.23282
G1 X43.786 Y91.709 E4.29286
G1 X42.766 Y92.531 E4.34515
G1 X42.667 Y92.618 E4.35041
G1 X41.364 Y93.95 E4.42478
G1 X40.285 Y95.337 E4.49491
G1 X38.99 Y97.495 E4.59536
G1 X38.171 Y99.41 E4.67849
G1 X38.143 Y99.484 E4.68165
G1 X38.119 Y99.558 E4.68475
G1 X37.593 Y101.447 E4.76302
G1 X37.353 Y102.834 E4.8192
G1 X37.324 Y103.103 E4.83
G1 X37.275 Y103.65 E4.85192
G1 X37.246 Y104.559 E4.88821
G1 X37.258 Y105.915 E4.94234
G1 X37.335 Y106.861 E4.98022
G1 X37.426 Y107.585 E5.00934
G1 X37.574 Y108.437 E5.04386
G1 X37.662 Y108.856 E5.06094
G1 X38.095 Y110.381 E5.12422
G1 X38.996 Y112.507 E5.21638
G1 X40.006 Y114.327 E5.29945
G1 X40.233 Y114.792 E5.3201
G1 X40.694 Y115.264 E5.34644
G1 X41.597 Y116.313 E5.40168
G1 X43.685 Y118.292 E5.5165
G1 X44.174 Y118.807 E5.54485
G1 X44.313 Y118.858 E5.55076
G1 X44.913 Y119.148 E5.57735
G1 X46.343 Y119.919 E5.64219
G1 X46.807 Y120.153 E5.66294
G1 X48.717 Y120.931 E5.74525
G1 X50.542 Y121.431 E5.82077
G1 X51.543 Y121.608 E5.86134
G1 X53.877 Y121.778 E5.95475
G1 X54.93 Y121.757 E5.99678
G1 X56.587 Y121.57 E6.06334
G1 X58.305 Y121.221 E6.13331
G1 X60.526 Y120.461 E6.227
G1 X61.074 Y120.205 E6.25114
G1 X62.002 Y119.749 E6.29241
G1 X63.482 Y118.852 E6.36148
G1 X64.932 Y117.734 E6.43456
G1 X65.044 Y117.64 E6.44039
G1 X65.795 Y116.916 E6.48203
G1 X66.517 Y116.184 E6.52306
G1 X67.844 Y114.493 E6.60886
G1 X68.706 Y113.073 E6.67516
G1 X69.426 Y111.614 E6.74009
G1 X70.398 Y108.743 E6.86107
G1 X70.547 Y108.368 E6.87717
G1 X70.575 Y107.781 E6.90063
G1 X70.75 Y106.085 E6.96868
G1 X70.757 Y105.933 E6.97475
G1 X70.761 Y104.062 E7.04943
G1 X70.54 Y102.144 E7.12649
G1 X70.002 Y99.946 E7.2168
G1 X69.429 Y98.392 E7.28291
G1 X68.346 Y96.274 E7.37785
G1 X67.897 Y95.577 E7.41094
G1 X67.028 Y94.425 E7.46854
G1 X65.437 Y92.729 E7.56135
G1 X63.949 Y91.496 E7.63848
G1 X62.355 Y90.456 E7.71444
G1 X60.557 Y89.568 E7.79448
G1 X58.648 Y88.892 E7.87531
G1 X57.226 Y88.528 E7.93389
G1 X55.347 Y88.268 E8.0096
G1 X53.822 Y88.227 E8.07049
G1 X51.867 Y88.349 E8.14867
G1 X51.369 Y88.428 E8.1688
G1 X49.092 Y88.917 E8.26175
G1 X48.332 Y89.039 E8.29247
G1 X48.312 Y89.04 E8.29327
G1 X47.659 Y89.275 E8.32097
G1 X47.655 Y89.278 E8.32117
G0 F2400 X47.445 Y88.926
G1 F1200 X46.715 Y89.408 E8.35608
G1 X44.784 Y90.495 E8.44452
G1 X43.553 Y91.383 E8.50511
G1 X42.523 Y92.213 E8.5579
G1 X42.393 Y92.326 E8.56478
G1 X41.057 Y93.693 E8.64107
G1 X39.957 Y95.106 E8.71254
G1 X38.633 Y97.312 E8.81522
G1 X37.795 Y99.272 E8.9003
G1 X37.765 Y99.35 E8.90364
G1 X37.744 Y99.416 E8.9064
G1 X37.202 Y101.361 E8.98699
G1 X36.955 Y102.788 E9.04479
G1 X36.924 Y103.079 E9.05647
G1 X36.877 Y103.601 E9.07739
G1 X36.846 Y104.577 E9.11636
G1 X36.858 Y105.923 E9.17009
G1 X36.937 Y106.895 E9.20901
G1 X37.033 Y107.662 E9.23986
G1 X37.186 Y108.538 E9.27535
G1 X37.269 Y108.935 E9.29154
G1 X37.718 Y110.516 E9.35714
G1 X38.638 Y112.687 E9.45124
G1 X39.656 Y114.521 E9.53496
G1 X39.91 Y115.044 E9.55817
G1 X40.391 Y115.525 E9.58532
G1 X41.31 Y116.593 E9.64155
G1 X43.409 Y118.582 E9.75697
G1 X43.924 Y119.125 E9.78684
G1 X43.936 Y119.14 E9.7876
G1 X44.014 Y119.167 E9.7909
G1 X44.723 Y119.5 E9.82216
G1 X46.183 Y120.287 E9.88836
G1 X46.639 Y120.517 E9.90874
G1 X48.586 Y121.31 E9.99265
G1 X50.453 Y121.822 E10.06992
G1 X51.483 Y122.004 E10.11167
G1 X53.877 Y122.178 E10.20747
G1 X54.951 Y122.157 E10.25034
G1 X56.653 Y121.964 E10.31871
G1 X58.407 Y121.609 E10.39013
G1 X60.685 Y120.829 E10.48623
G1 X61.262 Y120.558 E10.51168
G1 X62.184 Y120.106 E10.55266
G1 X63.711 Y119.181 E10.62392
G1 X65.161 Y118.063 E10.69699
G1 X65.325 Y117.926 E10.70552
G1 X66.068 Y117.209 E10.74673
G1 X66.818 Y116.449 E10.78935
G1 X68.169 Y114.727 E10.87671
G1 X69.056 Y113.267 E10.94489
G1 X69.795 Y111.769 E11.01156
G1 X70.776 Y108.871 E11.13367
G1 X70.95 Y108.435 E11.15241
G1 X70.973 Y107.822 E11.17689
G1 X71.15 Y106.105 E11.24578
G1 X71.157 Y105.952 E11.25189
G1 X71.161 Y104.034 E11.32845
G1 X70.935 Y102.072 E11.40727
G1 X70.387 Y99.836 E11.49916
G1 X69.795 Y98.229 E11.56751
G1 X68.692 Y96.073 E11.66417
G1 X68.22 Y95.341 E11.69893
G1 X67.344 Y94.178 E11.75704
G1 X65.703 Y92.429 E11.85276
G1 X64.189 Y91.175 E11.93123
G1 X62.55 Y90.106 E12.00933
G1 X60.718 Y89.2 E12.0909
G1 X58.758 Y88.506 E12.17389
G1 X57.311 Y88.136 E12.2335
G1 X55.376 Y87.869 E12.31146
G1 X53.808 Y87.826 E12.37406
G1 X51.832 Y87.95 E12.45309
G1 X51.297 Y88.034 E12.4747
G1 X49.008 Y88.526 E12.56815
G1 X48.269 Y88.644 E12.59801
G1 X48.224 Y88.646 E12.59981
G1 X47.445 Y88.926 E12.63285
G0 F2400 X47.231 Y88.579
G1 F1200 X46.519 Y89.06 E12.66715
G1 X44.566 Y90.159 E12.75659
G1 X43.31 Y91.065 E12.8184
G1 X42.265 Y91.908 E12.87199
G1 X42.114 Y92.04 E12.87999
G1 X40.757 Y93.427 E12.95744
G1 X39.623 Y94.885 E13.03116
G1 X38.275 Y97.13 E13.13567
G1 X37.434 Y99.099 E13.22113
G1 X37.387 Y99.223 E13.22642
G1 X37.35 Y99.337 E13.2312
G1 X36.81 Y101.276 E13.31154
G1 X36.56 Y102.724 E13.37019
G1 X36.53 Y102.999 E13.38123
G1 X36.477 Y103.588 E13.40483
G1 X36.446 Y104.568 E13.44397
G1 X36.458 Y105.946 E13.49897
G1 X36.538 Y106.932 E13.53845
G1 X36.64 Y107.738 E13.57087
G1 X36.785 Y108.577 E13.60486
G1 X36.883 Y109.039 E13.62371
G1 X37.339 Y110.646 E13.69038
G1 X38.28 Y112.866 E13.78661
G1 X39.306 Y114.715 E13.87101
G1 X39.574 Y115.266 E13.89547
G1 X39.829 Y115.503 E13.90936
G1 X40.088 Y115.786 E13.92467
G1 X41.023 Y116.872 E13.98187
G1 X43.134 Y118.873 E14.09796
G1 X43.633 Y119.401 E14.12696
G1 X43.687 Y119.472 E14.13052
G1 X43.738 Y119.488 E14.13265
G1 X44.534 Y119.852 E14.16758
G1 X46.007 Y120.646 E14.23437
G1 X46.471 Y120.88 E14.25511
G1 X48.462 Y121.691 E14.34092
G1 X50.362 Y122.212 E14.41955
G1 X51.434 Y122.401 E14.463
G1 X53.867 Y122.578 E14.56036
G1 X54.982 Y122.557 E14.60487
G1 X56.71 Y122.361 E14.67428
G1 X58.516 Y121.995 E14.74783
G1 X60.828 Y121.204 E14.84535
G1 X61.43 Y120.922 E14.87189
G1 X62.376 Y120.457 E14.91396
G1 X63.938 Y119.511 E14.98684
G1 X65.422 Y118.367 E15.06163
G1 X65.584 Y118.231 E15.07007
G1 X66.367 Y117.476 E15.11348
G1 X67.114 Y116.718 E15.15596
G1 X68.502 Y114.949 E15.2457
G1 X69.407 Y113.46 E15.31525
G1 X70.165 Y111.924 E15.38361
G1 X71.155 Y108.999 E15.50686
G1 X71.354 Y108.505 E15.52812
G1 X71.371 Y107.863 E15.55375
G1 X71.547 Y106.151 E15.62244
G1 X71.557 Y105.952 E15.63039
G1 X71.561 Y104.016 E15.70766
G1 X71.33 Y102.005 E15.78845
G1 X70.766 Y99.705 E15.88297
G1 X70.166 Y98.076 E15.95226
G1 X69.041 Y95.877 E16.05084
G1 X68.546 Y95.108 E16.08734
G1 X67.647 Y93.916 E16.14693
G1 X65.981 Y92.14 E16.24412
G1 X64.428 Y90.853 E16.32463
G1 X62.751 Y89.759 E16.40454
G1 X60.871 Y88.83 E16.48824
G1 X58.878 Y88.125 E16.57261
G1 X57.385 Y87.742 E16.63413
G1 X55.415 Y87.47 E16.7135
G1 X53.794 Y87.427 E16.77822
G1 X51.775 Y87.553 E16.85896
G1 X51.243 Y87.637 E16.88046
G1 X48.924 Y88.135 E16.97513
G1 X48.206 Y88.248 E17.00414
G1 X48.142 Y88.251 E17.00669
G1 X47.231 Y88.579 E17.04534
G0 F2400 X47.066 Y88.212
G1 F1200 X47.055 Y88.217 E17.04582
G1 X46.682 Y88.493 E17.06434
G1 X46.323 Y88.711 E17.0811
G1 X44.349 Y89.822 E17.17151
G1 X43.078 Y90.739 E17.23406
G1 X41.995 Y91.612 E17.28958
G1 X41.847 Y91.741 E17.29742
G1 X40.455 Y93.165 E17.3769
G1 X39.291 Y94.661 E17.45255
G1 X37.918 Y96.947 E17.55898
G1 X37.062 Y98.95 E17.64592
G1 X37.011 Y99.083 E17.65161
G1 X36.97 Y99.211 E17.65697
G1 X36.419 Y101.192 E17.73904
G1 X36.166 Y102.654 E17.79826
G1 X36.125 Y103.028 E17.81327
G1 X36.078 Y103.557 E17.83447
G1 X36.046 Y104.548 E17.87404
G1 X36.058 Y105.969 E17.93076
G1 X36.14 Y106.968 E17.97077
G1 X36.242 Y107.785 E18.00363
G1 X36.395 Y108.666 E18.03932
G1 X36.492 Y109.127 E18.05812
G1 X36.962 Y110.783 E18.12683
G1 X37.918 Y113.038 E18.22458
G1 X38.956 Y114.909 E18.30998
G1 X39.245 Y115.507 E18.33649
G1 X39.474 Y115.712 E18.34875
G1 X39.785 Y116.047 E18.367
G1 X40.732 Y117.147 E18.42493
G1 X42.859 Y119.163 E18.5419
G1 X43.342 Y119.676 E18.57002
G1 X43.442 Y119.81 E18.57669
G1 X43.484 Y119.822 E18.57844
G1 X44.344 Y120.204 E18.61599
G1 X45.816 Y120.998 E18.68275
G1 X46.314 Y121.249 E18.705
G1 X48.331 Y122.07 E18.79192
G1 X50.263 Y122.6 E18.87188
G1 X51.393 Y122.799 E18.91768
G1 X53.856 Y122.978 E19.01624
G1 X55.003 Y122.956 E19.06203
G1 X56.777 Y122.755 E19.13328
G1 X58.617 Y122.382 E19.20821
G1 X60.983 Y121.573 E19.30801
G1 X61.598 Y121.285 E19.33512
G1 X62.576 Y120.804 E19.37862
G1 X64.16 Y119.845 E19.45252
G1 X65.67 Y118.68 E19.52864
G1 X65.857 Y118.523 E19.53839
G1 X66.647 Y117.762 E19.58217
G1 X67.416 Y116.983 E19.62586
G1 X68.829 Y115.181 E19.71725
G1 X69.761 Y113.647 E19.78889
G1 X70.535 Y112.079 E19.85868
G1 X71.534 Y109.127 E19.98307
G1 X71.746 Y108.601 E20.0057
G1 X71.742 Y108.266 E20.01908
G1 X71.769 Y107.904 E20.03356
G1 X71.947 Y106.174 E20.10298
G1 X71.957 Y105.973 E20.11101
G1 X71.961 Y103.987 E20.19027
G1 X71.725 Y101.934 E20.27275
G1 X71.153 Y99.598 E20.36874
G1 X70.532 Y97.914 E20.44038
G1 X69.383 Y95.668 E20.54107
G1 X68.876 Y94.881 E20.57844
G1 X67.955 Y93.659 E20.63951
G1 X66.259 Y91.851 E20.73845
G1 X64.663 Y90.529 E20.82116
G1 X62.949 Y89.411 E20.90284
G1 X61.021 Y88.458 E20.98868
G1 X59.002 Y87.743 E21.07417
G1 X57.469 Y87.351 E21.13732
G1 X55.443 Y87.071 E21.21895
G1 X53.791 Y87.026 E21.28491
G1 X51.731 Y87.155 E21.36729
G1 X51.168 Y87.244 E21.39004
G1 X48.84 Y87.744 E21.48507
G1 X48.144 Y87.852 E21.51318
G1 X48.058 Y87.856 E21.51662
G1 X47.066 Y88.212 E21.55869
G0 F2400 X46.527 Y88.115
G1 F1200 X46.126 Y88.363 E21.5775
G1 X44.135 Y89.484 E21.6687
G1 X42.836 Y90.421 E21.73263
G1 X41.737 Y91.306 E21.78894
G1 X41.568 Y91.454 E21.79791
G1 X40.151 Y92.902 E21.87877
G1 X38.962 Y94.432 E21.95611
G1 X37.56 Y96.767 E22.06481
G1 X36.689 Y98.804 E22.15323
G1 X36.634 Y98.95 E22.15946
G1 X36.595 Y99.068 E22.16442
G1 X36.028 Y101.104 E22.24877
G1 X35.768 Y102.61 E22.30977
G1 X35.731 Y102.945 E22.32322
G1 X35.678 Y103.543 E22.34718
G1 X35.646 Y104.545 E22.3872
G1 X35.658 Y105.977 E22.44435
G1 X35.744 Y107.029 E22.48648
G1 X35.847 Y107.847 E22.51939
G1 X36.001 Y108.733 E22.55528
G1 X36.106 Y109.235 E22.57575
G1 X36.583 Y110.913 E22.64537
G1 X37.557 Y113.21 E22.74495
G1 X38.607 Y115.103 E22.83135
G1 X38.901 Y115.717 E22.85852
G1 X38.911 Y115.745 E22.85971
G1 X39.135 Y115.94 E22.87156
G1 X39.482 Y116.308 E22.89175
G1 X40.44 Y117.421 E22.95036
G1 X42.584 Y119.453 E23.06826
G1 X43.05 Y119.95 E23.09545
G1 X43.197 Y120.149 E23.10533
G1 X43.255 Y120.165 E23.10773
G1 X44.154 Y120.556 E23.14685
G1 X45.617 Y121.345 E23.2132
G1 X46.146 Y121.612 E23.23685
G1 X48.198 Y122.447 E23.32527
G1 X50.185 Y122.992 E23.4075
G1 X51.344 Y123.197 E23.45448
G1 X53.846 Y123.379 E23.5546
G1 X55.034 Y123.356 E23.60203
G1 X56.832 Y123.152 E23.67425
G1 X58.728 Y122.768 E23.75146
G1 X61.127 Y121.947 E23.85266
G1 X61.787 Y121.638 E23.88175
G1 X62.768 Y121.156 E23.92537
G1 X64.385 Y120.177 E24.00082
G1 X65.923 Y118.99 E24.07836
G1 X66.124 Y118.822 E24.08881
G1 X66.886 Y118.087 E24.13107
G1 X67.725 Y117.237 E24.17874
G1 X69.158 Y115.41 E24.27141
G1 X70.114 Y113.837 E24.34488
G1 X70.906 Y112.232 E24.41631
G1 X71.913 Y109.256 E24.5417
G1 X72.148 Y108.677 E24.56664
G1 X72.139 Y108.361 E24.57926
G1 X72.167 Y107.945 E24.5959
G1 X72.345 Y106.216 E24.66528
G1 X72.357 Y105.973 E24.67499
G1 X72.361 Y103.968 E24.75501
G1 X72.119 Y101.865 E24.8395
G1 X71.535 Y99.48 E24.9375
G1 X70.898 Y97.751 E25.01104
G1 X69.729 Y95.467 E25.11345
G1 X69.21 Y94.661 E25.15171
G1 X68.262 Y93.403 E25.21458
G1 X66.528 Y91.555 E25.31573
G1 X64.901 Y90.207 E25.40005
G1 X63.15 Y89.065 E25.48349
G1 X61.173 Y88.088 E25.57151
G1 X59.121 Y87.361 E25.65839
G1 X57.535 Y86.955 E25.72374
G1 X55.482 Y86.672 E25.80645
G1 X53.787 Y86.626 E25.87413
G1 X51.685 Y86.757 E25.95818
G1 X51.096 Y86.851 E25.98199
G1 X48.756 Y87.353 E26.07751
G1 X48.083 Y87.456 E26.10468
G1 X47.978 Y87.46 E26.10888
G1 X46.914 Y87.842 E26.154
G1 X46.841 Y87.875 E26.1572
G1 X46.527 Y88.115 E26.17297
G0 F2400 X46.351 Y87.751
G1 F1200 X45.93 Y88.014 E26.19278
G1 X43.923 Y89.143 E26.28469
G1 X42.581 Y90.112 E26.35075
G1 X41.493 Y90.988 E26.40651
G1 X41.287 Y91.168 E26.41742
G1 X39.852 Y92.636 E26.49936
G1 X38.63 Y94.207 E26.5788
G1 X37.206 Y96.579 E26.68922
