;FLAVOR:Marlin
;TIME:6564
;Filament used: 3.85726m, 0m
;Layer height: 0.1
;POSTPROCESSED
;Generated with Cura_SteamEngine 3.6.0
T0
M140 S60
M105
M190 S60
M104 S198
M105
M109 S198
M82 ;absolute extrusion mode
; Printer start settings begin
; Calibration section to overwrite Firmware values
; Identifier CALIBR, CALRES and CALMPE, surrounded by #, + or - can be used in post processing
; #CALIBR# M92 X160 Y160 Z3200 ; +CALIBR+ Steps per unit
; #CALRESO# M201 X1000 Y1000 Z50 E1500 E1500 ; +CALRESO+ Max Accelleration
; #CALRESO# M203 X800 Y800 Z2 E90 E90 ; +CALRESO+ Max Feed
; #CALRESO# M205 X3.0 Y3.0 Z0.3 E5.0 ; +CALRESO+ Default Jerk
; #CALMPE#
M951 L32 R139 G32 N75 H300 D10 C0 ; +CALMPE+ Parking kinematic values / needs MPE kinematic to be compiled and activated in firmware
; #CALMPE#
M851 Z-0.55 ; +CALMPE+ System Z Probe Offset
; #CALMPE#
M218 T1 X0.75 Y0.0 Z0.25; +CALMPE+ T1 Nozzle offset values
; #CALMPE#
M206 X-32.00 Y0.00 Z0.00; +CALMPE+ Home Offset
; #REM#  M951 args: L: Left parking,R: Right parking, I: Grab Offset, J: Normal speed, H: High speed, D: Distance trav., C: Compenstion
; #CALMPE#
M951 L32 R140 I32 J4500 H9000 D10 C0 ; MPE Setup
; #CALMPE# M217 Z5.00 Z-Lift
G28 ;Home
G92 E5
G1 F1000 E0
; #MPE# G29 ; -MPE- Auto Bed Level, uses this if FW values are set correct.
; #MPE# G29 X3 Y3 L0 R109 F32 B168 ; +MPE+ Auto Bed Leveling, needed if not poroper defined in Firmware
G92 E-5
G1 E0 F400
G0 Z15.0 F100 ;Move the platform down 15mm
G0 X0 Y0 F9000 ;Move to front
T1
G0 X0 Y0 F9000 ;Move to front
G92 E-30
G1 F200 E0
T0
G0 X0 Y0 F9000 ;Move to front
G92 E-30
G1 F200 E0
; Printer start settings end
G92 E0
G1 F1200 E-3
;LAYER_COUNT:39
;LAYER:0
M107
G0 F2400 X34.594 Y51.024 Z0.16
;TYPE:SKIRT
G1 F1200 E0
G1 X34.927 Y50.802 E0.01597
G1 X37.287 Y49.357 E0.12642
G1 X37.649 Y49.155 E0.14297
G1 X40.079 Y47.931 E0.25156
G1 X40.48 Y47.751 E0.2691
G1 X42.999 Y46.749 E0.3773
G1 X43.417 Y46.604 E0.39496
G1 X45.883 Y45.868 E0.49768
G1 X46.339 Y45.755 E0.51643
G1 X48.973 Y45.232 E0.62361
G1 X49.421 Y45.164 E0.64169
G1 X51.9 Y44.902 E0.74119
G1 X52.28 Y44.876 E0.75639
G1 X53.859 Y44.83 E0.81944
G1 X54.24 Y44.834 E0.83464
G1 X56.808 Y44.955 E0.93725
G1 X57.279 Y44.999 E0.95613
G1 X59.839 Y45.364 E1.05934
G1 X60.294 Y45.451 E1.07783
G1 X62.833 Y46.057 E1.18201
G1 X63.276 Y46.184 E1.20041
G1 X65.815 Y47.044 E1.3074
G1 X66.224 Y47.203 E1.32491
G1 X68.639 Y48.265 E1.43021
G1 X69.021 Y48.453 E1.4472
G1 X71.433 Y49.769 E1.55687
G1 X71.785 Y49.98 E1.57325
G1 X74.145 Y51.532 E1.68598
G1 X74.461 Y51.758 E1.70149
G1 X76.684 Y53.481 E1.81374
G1 X76.972 Y53.722 E1.82873
G1 X79.157 Y55.695 E1.94623
G1 X79.412 Y55.942 E1.9604
G1 X81.466 Y58.08 E2.07873
G1 X81.692 Y58.332 E2.09224
G1 X83.672 Y60.694 E2.21526
G1 X83.875 Y60.954 E2.22842
G1 X85.751 Y63.518 E2.35522
G1 X85.924 Y63.77 E2.36742
G1 X87.639 Y66.443 E2.49418
G1 X87.792 Y66.697 E2.50601
G1 X89.398 Y69.56 E2.63703
G1 X89.53 Y69.812 E2.64839
G1 X90.985 Y72.792 E2.78075
G1 X91.098 Y73.04 E2.79162
G1 X92.436 Y76.206 E2.92881
G1 X92.533 Y76.455 E2.93947
G1 X93.711 Y79.719 E3.07797
G1 X93.792 Y79.962 E3.08819
G1 X94.809 Y83.308 E3.22777
G1 X94.876 Y83.549 E3.23776
G1 X95.741 Y87.009 E3.3801
G1 X95.794 Y87.247 E3.38983
G1 X96.495 Y90.773 E3.53332
G1 X96.536 Y91.011 E3.54296
G1 X97.07 Y94.594 E3.68754
G1 X97.1 Y94.828 E3.69696
G1 X97.467 Y98.455 E3.84246
G1 X97.485 Y98.689 E3.85182
G1 X97.682 Y102.341 E3.9978
G1 X97.689 Y102.575 E4.00714
G1 X97.715 Y106.239 E4.15338
G1 X97.711 Y106.472 E4.16268
G1 X97.566 Y110.129 E4.30876
G1 X97.551 Y110.361 E4.31803
G1 X97.237 Y113.998 E4.46374
G1 X97.212 Y114.233 E4.47317
G1 X96.729 Y117.83 E4.61802
G1 X96.691 Y118.067 E4.6276
G1 X96.041 Y121.613 E4.77149
G1 X95.991 Y121.851 E4.78119
G1 X95.177 Y125.328 E4.92372
G1 X95.115 Y125.566 E4.93354
G1 X94.143 Y128.955 E5.07425
G1 X94.067 Y129.199 E5.08445
G1 X92.942 Y132.479 E5.22285
G1 X92.85 Y132.725 E5.23333
G1 X91.565 Y135.915 E5.37059
G1 X91.453 Y136.172 E5.38178
G1 X89.973 Y139.325 E5.5208
G1 X89.851 Y139.567 E5.53162
G1 X88.344 Y142.371 E5.65867
G1 X88.197 Y142.626 E5.67042
G1 X86.502 Y145.378 E5.79942
G1 X86.333 Y145.634 E5.81166
G1 X84.506 Y148.229 E5.93833
G1 X84.315 Y148.484 E5.95104
G1 X82.387 Y150.882 E6.07385
G1 X82.17 Y151.134 E6.08712
G1 X80.123 Y153.359 E6.20779
G1 X79.872 Y153.613 E6.22205
G1 X77.747 Y155.615 E6.33857
G1 X77.478 Y155.851 E6.35285
G1 X75.225 Y157.688 E6.46888
G1 X74.912 Y157.923 E6.4845
G1 X72.602 Y159.523 E6.59665
G1 X72.254 Y159.743 E6.61308
G1 X69.844 Y161.134 E6.72414
G1 X69.476 Y161.327 E6.74073
G1 X67.071 Y162.46 E6.84684
G1 X66.669 Y162.629 E6.86424
G1 X64.17 Y163.55 E6.97054
G1 X63.74 Y163.686 E6.98854
G1 X61.246 Y164.357 E7.09162
G1 X60.799 Y164.456 E7.10989
G1 X58.214 Y164.903 E7.2146
G1 X57.743 Y164.961 E7.23354
G1 X55.176 Y165.157 E7.33629
G1 X54.703 Y165.171 E7.35518
G1 X52.157 Y165.124 E7.45681
G1 X51.688 Y165.093 E7.47557
G1 X49.075 Y164.798 E7.58053
G1 X48.612 Y164.724 E7.59924
G1 X46.094 Y164.197 E7.70192
G1 X45.652 Y164.083 E7.72013
G1 X43.141 Y163.313 E7.82496
G1 X42.72 Y163.163 E7.8428
G1 X40.247 Y162.155 E7.94938
G1 X39.858 Y161.977 E7.96646
G1 X37.437 Y160.739 E8.07499
G1 X37.075 Y160.534 E8.09159
G1 X34.72 Y159.071 E8.20224
G1 X34.389 Y158.847 E8.2182
G1 X32.106 Y157.162 E8.33145
G1 X31.812 Y156.927 E8.34647
G1 X29.618 Y155.037 E8.46205
G1 X29.349 Y154.788 E8.47668
G1 X27.205 Y152.648 E8.59758
G1 X26.97 Y152.397 E8.6113
G1 X24.997 Y150.137 E8.73104
G1 X24.79 Y149.883 E8.74412
G1 X22.897 Y147.403 E8.86864
G1 X22.714 Y147.148 E8.88117
G1 X20.941 Y144.496 E9.00849
G1 X20.782 Y144.242 E9.02045
G1 X19.135 Y141.427 E9.15062
G1 X18.995 Y141.17 E9.1623
G1 X17.473 Y138.179 E9.29625
G1 X17.355 Y137.931 E9.30721
G1 X15.998 Y134.859 E9.44125
G1 X15.897 Y134.612 E9.4519
G1 X14.674 Y131.388 E9.58952
G1 X14.588 Y131.143 E9.59989
G1 X13.519 Y127.812 E9.73951
G1 X13.448 Y127.57 E9.74958
G1 X12.536 Y124.144 E9.89108
G1 X12.479 Y123.905 E9.90089
G1 X11.722 Y120.371 E10.04514
G1 X11.677 Y120.133 E10.0548
G1 X11.097 Y116.596 E10.19786
G1 X11.064 Y116.361 E10.20733
G1 X10.646 Y112.744 E10.35265
G1 X10.625 Y112.511 E10.36199
G1 X10.376 Y108.867 E10.50777
G1 X10.365 Y108.634 E10.51708
G1 X10.286 Y104.973 E10.66323
G1 X10.287 Y104.739 E10.67257
G1 X10.379 Y101.077 E10.81878
G1 X10.39 Y100.844 E10.82808
G1 X10.652 Y97.201 E10.97386
G1 X10.674 Y96.966 E10.98328
G1 X11.106 Y93.353 E11.12851
G1 X11.14 Y93.119 E11.13795
G1 X11.738 Y89.557 E11.2821
G1 X11.784 Y89.32 E11.29174
G1 X12.547 Y85.821 E11.43467
G1 X12.606 Y85.58 E11.44458
G1 X13.531 Y82.162 E11.5859
G1 X13.602 Y81.922 E11.59589
G1 X14.683 Y78.598 E11.7354
G1 X14.773 Y78.344 E11.74616
G1 X16.046 Y75.044 E11.88733
G1 X16.15 Y74.795 E11.8981
G1 X17.554 Y71.669 E12.03487
G1 X17.67 Y71.428 E12.04554
G1 X19.129 Y68.596 E12.17269
G1 X19.27 Y68.341 E12.18432
G1 X20.927 Y65.539 E12.31425
G1 X21.087 Y65.287 E12.32616
G1 X22.869 Y62.647 E12.45329
G1 X23.054 Y62.39 E12.46593
G1 X24.956 Y59.925 E12.59019
G1 X25.167 Y59.669 E12.60343
G1 X27.2 Y57.367 E12.72601
G1 X27.44 Y57.114 E12.73993
G1 X29.559 Y55.028 E12.85861
G1 X29.826 Y54.784 E12.87304
G1 X32.007 Y52.927 E12.98737
G1 X32.304 Y52.692 E13.00249
G1 X34.594 Y51.024 E13.11556
G0 F2400 X34.83 Y51.348
G1 F1200 X35.136 Y51.143 E13.13026
G1 X37.496 Y49.698 E13.24071
G1 X37.829 Y49.513 E13.25591
G1 X40.259 Y48.289 E13.36451
G1 X40.628 Y48.123 E13.38066
G1 X43.147 Y47.121 E13.48886
G1 X43.531 Y46.987 E13.50509
G1 X45.997 Y46.251 E13.6078
G1 X46.417 Y46.147 E13.62507
G1 X49.051 Y45.624 E13.73226
G1 X49.464 Y45.561 E13.74893
G1 X51.943 Y45.299 E13.84842
G1 X52.292 Y45.276 E13.86238
G1 X53.871 Y45.23 E13.92543
G1 X54.222 Y45.233 E13.93944
G1 X56.79 Y45.354 E14.04205
G1 X57.222 Y45.395 E14.05937
G1 X59.782 Y45.76 E14.16258
G1 X60.201 Y45.84 E14.1796
G1 X62.74 Y46.446 E14.28379
G1 X63.148 Y46.563 E14.30073
G1 X65.687 Y47.423 E14.40772
G1 X66.063 Y47.569 E14.42382
G1 X68.478 Y48.631 E14.52911
G1 X68.829 Y48.804 E14.54473
G1 X71.241 Y50.12 E14.6544
G1 X71.566 Y50.315 E14.66952
G1 X73.926 Y51.867 E14.78226
G1 X74.216 Y52.074 E14.79648
G1 X76.439 Y53.797 E14.90873
G1 X76.704 Y54.019 E14.92253
G1 X78.889 Y55.992 E15.04003
G1 X79.123 Y56.219 E15.05304
G1 X81.177 Y58.357 E15.17137
G1 X81.385 Y58.589 E15.18381
G1 X83.365 Y60.951 E15.30682
G1 X83.552 Y61.19 E15.31894
G1 X85.428 Y63.754 E15.44574
G1 X85.588 Y63.986 E15.45699
G1 X87.303 Y66.659 E15.58374
G1 X87.443 Y66.893 E15.59463
G1 X89.049 Y69.756 E15.72565
G1 X89.171 Y69.988 E15.73611
G1 X90.626 Y72.968 E15.86847
G1 X90.729 Y73.195 E15.87841
G1 X92.067 Y76.361 E16.0156
G1 X92.157 Y76.59 E16.02542
G1 X93.335 Y79.854 E16.16392
G1 X93.409 Y80.078 E16.17333
G1 X94.426 Y83.424 E16.31291
G1 X94.488 Y83.646 E16.32211
G1 X95.353 Y87.106 E16.46446
G1 X95.402 Y87.325 E16.47341
G1 X96.103 Y90.851 E16.6169
G1 X96.141 Y91.07 E16.62577
G1 X96.675 Y94.653 E16.77035
G1 X96.702 Y94.868 E16.779
G1 X97.069 Y98.495 E16.9245
G1 X97.085 Y98.71 E16.93311
G1 X97.282 Y102.362 E17.07908
G1 X97.289 Y102.577 E17.08766
G1 X97.315 Y106.241 E17.23391
G1 X97.311 Y106.456 E17.24249
G1 X97.166 Y110.113 E17.38856
G1 X97.153 Y110.327 E17.39712
G1 X96.839 Y113.964 E17.54282
G1 X96.815 Y114.18 E17.55149
G1 X96.332 Y117.777 E17.69635
G1 X96.298 Y117.994 E17.70511
G1 X95.648 Y121.54 E17.849
G1 X95.602 Y121.76 E17.85797
G1 X94.788 Y125.237 E18.0005
G1 X94.731 Y125.456 E18.00953
G1 X93.759 Y128.845 E18.15024
G1 X93.688 Y129.069 E18.15962
G1 X92.563 Y132.349 E18.29802
G1 X92.479 Y132.576 E18.30768
G1 X91.194 Y135.766 E18.44494
G1 X91.091 Y136.002 E18.45522
G1 X89.611 Y139.155 E18.59424
G1 X89.499 Y139.378 E18.6042
G1 X87.992 Y142.182 E18.73125
G1 X87.857 Y142.416 E18.74203
G1 X86.162 Y145.168 E18.87103
G1 X86.006 Y145.404 E18.88232
G1 X84.179 Y147.999 E19.00899
G1 X84.003 Y148.233 E19.02068
G1 X82.075 Y150.631 E19.14348
G1 X81.875 Y150.863 E19.15571
G1 X79.828 Y153.088 E19.27638
G1 X79.597 Y153.322 E19.2895
G1 X77.472 Y155.324 E19.40603
G1 X77.225 Y155.541 E19.41915
G1 X74.972 Y157.378 E19.53517
G1 X74.684 Y157.594 E19.54954
G1 X72.374 Y159.194 E19.6617
G1 X72.054 Y159.397 E19.67682
G1 X69.644 Y160.788 E19.78788
G1 X69.305 Y160.965 E19.80314
G1 X66.9 Y162.098 E19.90925
G1 X66.531 Y162.253 E19.92523
G1 X64.032 Y163.174 E20.03152
G1 X63.636 Y163.3 E20.04811
G1 X61.142 Y163.971 E20.15119
G1 X60.731 Y164.062 E20.16799
G1 X58.146 Y164.509 E20.2727
G1 X57.712 Y164.563 E20.29015
G1 X55.145 Y164.759 E20.3929
G1 X54.71 Y164.771 E20.41027
G1 X52.164 Y164.724 E20.51191
G1 X51.733 Y164.696 E20.52914
G1 X49.12 Y164.401 E20.6341
G1 X48.694 Y164.332 E20.65132
G1 X46.176 Y163.805 E20.754
G1 X45.769 Y163.701 E20.77076
G1 X43.258 Y162.931 E20.87559
G1 X42.871 Y162.793 E20.89199
G1 X40.398 Y161.785 E20.99858
G1 X40.04 Y161.621 E21.01429
G1 X37.619 Y160.383 E21.12282
G1 X37.286 Y160.194 E21.1381
G1 X34.931 Y158.731 E21.24876
G1 X34.626 Y158.525 E21.26345
G1 X32.343 Y156.84 E21.3767
G1 X32.073 Y156.624 E21.3905
G1 X29.879 Y154.734 E21.50607
G1 X29.631 Y154.505 E21.51955
G1 X27.487 Y152.365 E21.64045
G1 X27.272 Y152.134 E21.65305
G1 X25.299 Y149.874 E21.77278
G1 X25.107 Y149.64 E21.78487
G1 X23.214 Y147.16 E21.90939
G1 X23.047 Y146.926 E21.92086
G1 X21.274 Y144.274 E22.04819
G1 X21.128 Y144.04 E22.05919
G1 X19.481 Y141.225 E22.18936
G1 X19.351 Y140.988 E22.20015
G1 X17.829 Y137.997 E22.3341
G1 X17.721 Y137.77 E22.34413
G1 X16.364 Y134.698 E22.47817
G1 X16.271 Y134.471 E22.48796
G1 X15.048 Y131.247 E22.62558
G1 X14.969 Y131.021 E22.63514
G1 X13.9 Y127.69 E22.77477
G1 X13.835 Y127.467 E22.78404
G1 X12.923 Y124.041 E22.92554
G1 X12.87 Y123.821 E22.93457
G1 X12.113 Y120.287 E23.07882
G1 X12.072 Y120.068 E23.08771
G1 X11.492 Y116.531 E23.23077
G1 X11.461 Y116.315 E23.23948
G1 X11.043 Y112.698 E23.3848
G1 X11.024 Y112.484 E23.39337
G1 X10.775 Y108.84 E23.53915
G1 X10.765 Y108.625 E23.54774
G1 X10.686 Y104.964 E23.6939
G1 X10.686 Y104.749 E23.70248
G1 X10.778 Y101.087 E23.84868
G1 X10.789 Y100.873 E23.85723
G1 X11.051 Y97.23 E24.00301
G1 X11.072 Y97.014 E24.01167
G1 X11.504 Y93.401 E24.1569
G1 X11.534 Y93.185 E24.1656
G1 X12.132 Y89.623 E24.30976
G1 X12.175 Y89.405 E24.31863
G1 X12.938 Y85.906 E24.46156
G1 X12.992 Y85.684 E24.47068
G1 X13.917 Y82.266 E24.61201
G1 X13.983 Y82.045 E24.62122
G1 X15.064 Y78.721 E24.76072
G1 X15.146 Y78.488 E24.77058
G1 X16.419 Y75.188 E24.91175
G1 X16.515 Y74.959 E24.92166
G1 X17.919 Y71.833 E25.05843
G1 X18.026 Y71.611 E25.06827
G1 X19.485 Y68.779 E25.19542
G1 X19.615 Y68.545 E25.2061
G1 X21.272 Y65.743 E25.33603
G1 X21.418 Y65.51 E25.347
G1 X23.2 Y62.87 E25.47413
G1 X23.371 Y62.634 E25.48576
G1 X25.273 Y60.169 E25.61003
G1 X25.467 Y59.934 E25.62219
G1 X27.5 Y57.632 E25.74477
G1 X27.721 Y57.399 E25.75759
G1 X29.84 Y55.313 E25.87626
G1 X30.085 Y55.089 E25.88951
G1 X32.266 Y53.232 E26.00384
G1 X32.54 Y53.016 E26.01777
G1 X34.83 Y51.348 E26.13084
G0 F2400 X35.065 Y51.671
G1 F1200 X35.345 Y51.484 E26.14428
G1 X37.705 Y50.039 E26.25472
G1 X38.009 Y49.87 E26.26861
G1 X40.439 Y48.646 E26.3772
G1 X40.776 Y48.494 E26.39196
G1 X43.295 Y47.492 E26.50016
G1 X43.646 Y47.37 E26.51499
G1 X46.112 Y46.634 E26.6177
G1 X46.495 Y46.539 E26.63345
G1 X49.129 Y46.016 E26.74063
G1 X49.506 Y45.959 E26.75585
G1 X51.985 Y45.697 E26.85534
G1 X52.304 Y45.676 E26.8681
G1 X53.883 Y45.63 E26.93115
G1 X54.203 Y45.633 E26.94392
G1 X56.771 Y45.754 E27.04653
G1 X57.166 Y45.791 E27.06237
G1 X59.726 Y46.156 E27.16558
G1 X60.108 Y46.229 E27.1811
G1 X62.647 Y46.835 E27.28528
G1 X63.019 Y46.942 E27.30073
G1 X65.558 Y47.802 E27.40772
G1 X65.902 Y47.935 E27.42244
G1 X68.317 Y48.997 E27.52774
G1 X68.638 Y49.155 E27.54202
G1 X71.05 Y50.471 E27.65168
G1 X71.346 Y50.649 E27.66547
G1 X73.706 Y52.201 E27.7782
G1 X73.971 Y52.39 E27.7912
G1 X76.194 Y54.113 E27.90345
G1 X76.436 Y54.316 E27.91606
G1 X78.621 Y56.289 E28.03356
G1 X78.835 Y56.496 E28.04544
G1 X80.889 Y58.634 E28.16377
G1 X81.079 Y58.846 E28.17513
G1 X83.059 Y61.208 E28.29815
G1 X83.23 Y61.426 E28.30921
G1 X85.106 Y63.99 E28.43601
G1 X85.251 Y64.202 E28.44626
G1 X86.966 Y66.875 E28.57302
G1 X87.094 Y67.088 E28.58293
G1 X88.7 Y69.951 E28.71395
G1 X88.811 Y70.163 E28.7235
G1 X90.266 Y73.143 E28.85586
G1 X90.361 Y73.351 E28.86499
G1 X91.699 Y76.517 E29.00217
G1 X91.781 Y76.726 E29.01113
G1 X92.959 Y79.99 E29.14963
G1 X93.026 Y80.195 E29.15824
G1 X94.043 Y83.541 E29.29782
G1 X94.1 Y83.743 E29.30619
G1 X94.965 Y87.203 E29.44854
G1 X95.009 Y87.403 E29.45671
G1 X95.71 Y90.929 E29.6002
G1 X95.745 Y91.129 E29.6083
G1 X96.279 Y94.712 E29.75289
G1 X96.304 Y94.908 E29.76077
G1 X96.671 Y98.535 E29.90627
G1 X96.686 Y98.732 E29.91416
G1 X96.883 Y102.384 E30.06013
G1 X96.889 Y102.58 E30.06796
G1 X96.915 Y106.244 E30.2142
G1 X96.912 Y106.44 E30.22202
G1 X96.767 Y110.097 E30.3681
G1 X96.754 Y110.292 E30.3759
G1 X96.44 Y113.929 E30.5216
G1 X96.419 Y114.127 E30.52954
G1 X95.936 Y117.724 E30.6744
G1 X95.904 Y117.922 E30.6824
G1 X95.254 Y121.468 E30.82629
G1 X95.212 Y121.668 E30.83444
G1 X94.398 Y125.145 E30.97697
G1 X94.346 Y125.346 E30.98526
G1 X93.374 Y128.735 E31.12597
G1 X93.31 Y128.94 E31.13454
G1 X92.185 Y132.22 E31.27294
G1 X92.108 Y132.426 E31.28172
G1 X90.823 Y135.616 E31.41898
G1 X90.729 Y135.832 E31.42838
G1 X89.249 Y138.985 E31.5674
G1 X89.147 Y139.188 E31.57647
G1 X87.64 Y141.992 E31.70352
G1 X87.516 Y142.207 E31.71343
G1 X85.821 Y144.959 E31.84243
G1 X85.679 Y145.174 E31.85271
G1 X83.852 Y147.769 E31.97938
G1 X83.691 Y147.983 E31.99007
G1 X81.763 Y150.381 E32.11287
G1 X81.581 Y150.593 E32.12403
G1 X79.534 Y152.818 E32.24469
G1 X79.323 Y153.031 E32.25666
G1 X77.198 Y155.033 E32.37319
G1 X76.972 Y155.231 E32.38518
G1 X74.719 Y157.068 E32.5012
G1 X74.456 Y157.266 E32.51434
G1 X72.146 Y158.866 E32.62649
G1 X71.855 Y159.051 E32.64026
G1 X69.445 Y160.442 E32.75132
G1 X69.135 Y160.603 E32.76526
G1 X66.73 Y161.736 E32.87137
G1 X66.392 Y161.878 E32.886
G1 X63.893 Y162.799 E32.9923
G1 X63.532 Y162.914 E33.00742
G1 X61.038 Y163.585 E33.1105
G1 X60.663 Y163.668 E33.12583
G1 X58.078 Y164.115 E33.23053
G1 X57.682 Y164.164 E33.24646
G1 X55.115 Y164.36 E33.34921
G1 X54.717 Y164.371 E33.3651
G1 X52.171 Y164.324 E33.46674
G1 X51.778 Y164.298 E33.48246
G1 X49.165 Y164.003 E33.58741
