;FLAVOR:Marlin
;TIME:5145
;Filament used: 7.17677m, 0m
;Layer height: 0.2
;POSTPROCESSED
;Generated with Cura_SteamEngine 3.6.0
T0
M140 S60
M105
M190 S60
M104 S198
M105
M109 S198
M82 ;absolute extrusion mode
; Printer start settings begin
; Calibration section to overwrite Firmware values
; Identifier CALIBR, CALRES and CALMPE, surrounded by #, + or - can be used in post processing
; #CALIBR# M92 X160 Y160 Z3200 ; +CALIBR+ Steps per unit
; #CALRESO# M201 X1000 Y1000 Z50 E1500 E1500 ; +CALRESO+ Max Accelleration
; #CALRESO# M203 X800 Y800 Z2 E90 E90 ; +CALRESO+ Max Feed
; #CALRESO# M205 X3.0 Y3.0 Z0.3 E5.0 ; +CALRESO+ Default Jerk
; #CALMPE#
M951 L32 R139 G32 N75 H300 D10 C0 ; +CALMPE+ Parking kinematic values / needs MPE kinematic to be compiled and activated in firmware
; #CALMPE#
M851 Z-0.55 ; +CALMPE+ System Z Probe Offset
; #CALMPE#
M218 T1 X0.75 Y0.0 Z0.25; +CALMPE+ T1 Nozzle offset values
; #CALMPE#
M206 X-32.00 Y0.00 Z0.00; +CALMPE+ Home Offset
; #REM#  M951 args: L: Left parking,R: Right parking, I: Grab Offset, J: Normal speed, H: High speed, D: Distance trav., C: Compenstion
; #CALMPE#
M951 L32 R140 I32 J4500 H9000 D10 C0 ; MPE Setup
; #CALMPE# M217 Z5.00 Z-Lift
G28 ;Home
G92 E5
G1 F1000 E0
; #MPE# G29 ; -MPE- Auto Bed Level, uses this if FW values are set correct.
; #MPE# G29 X3 Y3 L0 R109 F32 B168 ; +MPE+ Auto Bed Leveling, needed if not poroper defined in Firmware
G92 E-5
G1 E0 F400
G0 Z15.0 F100 ;Move the platform down 15mm
G0 X0 Y0 F9000 ;Move to front
T1
G0 X0 Y0 F9000 ;Move to front
G92 E-30
G1 F200 E0
T0
G0 X0 Y0 F9000 ;Move to front
G92 E-30
G1 F200 E0
; Printer start settings end
G92 E0
G1 F1200 E-3
;LAYER_COUNT:221
;LAYER:0
M107
G0 F1800 X24.262 Y47.87 Z0.2
;TYPE:SKIRT
G1 F1200 E0
G1 X25.607 Y47.3 E0.07288
G1 X26.087 Y47.14 E0.09812
G1 X26.365 Y47.084 E0.11227
G1 X27.827 Y46.857 E0.18608
G1 X28.317 Y46.819 E0.2106
G1 X55.413 Y46.809 E1.56243
G1 X55.758 Y46.828 E1.57967
G1 X57.173 Y46.981 E1.65067
G1 X57.91 Y47.15 E1.6884
G1 X59.273 Y47.639 E1.76064
G1 X59.734 Y47.847 E1.78587
G1 X59.971 Y47.991 E1.79971
G1 X61.185 Y48.803 E1.87257
G1 X61.75 Y49.284 E1.90959
G1 X62.636 Y50.237 E1.97451
G1 X63.065 Y50.819 E2.01058
G1 X63.771 Y52.045 E2.08117
G1 X63.988 Y52.502 E2.10641
G1 X64.073 Y52.756 E2.11977
G1 X64.488 Y54.197 E2.19458
G1 X64.609 Y54.926 E2.23145
G1 X64.696 Y56.7 E2.32006
G1 X64.7 Y56.86 E2.32805
G1 X64.673 Y91.117 E4.03714
G1 X64.751 Y96.688 E4.3151
G1 X65.137 Y102.146 E4.58808
G1 X65.831 Y107.577 E4.86124
G1 X66.833 Y112.972 E5.135
G1 X67.434 Y115.59 E5.26901
G1 X68.897 Y120.906 E5.54409
G1 X70.642 Y126.082 E5.8166
G1 X72.703 Y131.215 E6.09256
G1 X74.28 Y134.798 E6.28786
G1 X74.446 Y135.276 E6.31311
G1 X74.501 Y135.524 E6.32578
G1 X74.622 Y136.201 E6.36009
G1 X74.672 Y136.762 E6.38819
G1 X74.693 Y170.914 E8.09204
G1 X74.685 Y171.142 E8.10342
G1 X74.622 Y172.033 E8.14798
G1 X74.507 Y172.686 E8.18106
G1 X74.264 Y173.537 E8.22522
G1 X74.087 Y174.01 E8.25041
G1 X73.956 Y174.262 E8.26458
G1 X73.436 Y175.16 E8.31635
G1 X73.029 Y175.715 E8.35069
G1 X72.572 Y176.215 E8.38449
G1 X72.112 Y176.63 E8.41539
G1 X71.392 Y177.162 E8.46006
G1 X70.849 Y177.485 E8.49158
G1 X70.25 Y177.766 E8.52459
G1 X69.67 Y177.973 E8.55531
G1 X68.805 Y178.19 E8.5998
G1 X68.306 Y178.274 E8.62505
G1 X68.027 Y178.286 E8.63898
G1 X40.061 Y178.293 E10.03421
G1 X39.481 Y178.24 E10.06327
G1 X38.883 Y178.13 E10.0936
G1 X38.368 Y177.99 E10.12023
G1 X37.747 Y177.764 E10.1532
G1 X37.134 Y177.464 E10.18725
G1 X36.238 Y176.899 E10.24009
G1 X35.833 Y176.596 E10.26533
G1 X35.635 Y176.406 E10.27902
G1 X35.013 Y175.757 E10.32387
G1 X34.619 Y175.255 E10.3557
G1 X34.267 Y174.699 E10.38853
G1 X33.999 Y174.173 E10.41799
G1 X33.685 Y173.386 E10.46026
G1 X33.523 Y172.849 E10.48824
G1 X33.41 Y172.303 E10.51606
G1 X33.344 Y171.662 E10.54821
G1 X33.26 Y139.895 E12.13308
G1 X32.95 Y134.428 E12.40627
G1 X32.332 Y128.976 E12.68001
G1 X31.401 Y123.552 E12.95457
G1 X30.841 Y120.949 E13.08741
G1 X30.185 Y118.273 E13.22487
G1 X28.648 Y112.982 E13.49975
G1 X26.832 Y107.837 E13.77195
G1 X24.717 Y102.78 E14.04542
G1 X22.315 Y97.838 E14.31956
G1 X20.183 Y93.873 E14.54416
G1 X19.927 Y93.244 E14.57804
G1 X19.512 Y91.803 E14.65285
G1 X19.391 Y91.074 E14.68972
G1 X19.304 Y89.3 E14.77833
G1 X19.3 Y89.138 E14.78642
G1 X19.351 Y55.326 E16.47331
G1 X19.435 Y54.601 E16.50972
G1 X19.759 Y53.218 E16.58058
G1 X19.913 Y52.736 E16.60583
G1 X20.024 Y52.495 E16.61907
G1 X20.683 Y51.202 E16.69147
G1 X20.947 Y50.771 E16.71669
G1 X21.114 Y50.562 E16.73003
G1 X22.054 Y49.475 E16.80173
G1 X22.595 Y48.977 E16.83841
G1 X23.632 Y48.225 E16.90232
G1 X24.262 Y47.87 E16.9384
G1 F1200 E13.9384
;MESH:deckel.stl
G0 F1800 X23.066 Y52.147
G0 X24.077 Y52.939
G0 X23.356 Y54.73
G0 X23.259 Y54.707
;TYPE:WALL-INNER
G1 F1200 E16.9384
G1 X23.456 Y54.076 E16.97138
G1 X23.721 Y53.488 E17.00355
G1 X24.061 Y52.928 E17.03624
G1 X24.464 Y52.415 E17.06879
G1 X24.928 Y51.952 E17.10149
G1 X25.443 Y51.55 E17.13408
G1 X25.992 Y51.219 E17.16607
G1 X26.596 Y50.949 E17.19907
G1 X27.212 Y50.757 E17.23126
G1 X27.856 Y50.64 E17.26392
G1 X28.558 Y50.6 E17.299
G1 X55.484 Y50.6 E18.64234
G1 X56.141 Y50.639 E18.67518
G1 X56.79 Y50.757 E18.70809
G1 X57.41 Y50.951 E18.7405
G1 X58.008 Y51.218 E18.77317
G1 X58.563 Y51.554 E18.80554
G1 X59.079 Y51.957 E18.8382
G1 X59.538 Y52.416 E18.87059
G1 X59.939 Y52.927 E18.903
G1 X60.281 Y53.493 E18.93599
G1 X60.545 Y54.08 E18.9681
G1 X60.742 Y54.709 E19.00098
G1 X60.858 Y55.345 E19.03324
G1 X60.9 Y56.021 E19.06703
G1 X60.9 Y89.984 E20.76145
G1 X60.858 Y90.657 E20.79509
G1 X60.741 Y91.293 E20.82735
G1 X60.544 Y91.924 E20.86033
G1 X60.281 Y92.509 E20.89233
G1 X59.939 Y93.072 E20.9252
G1 X59.536 Y93.585 E20.95774
G1 X59.072 Y94.048 E20.99044
G1 X58.557 Y94.45 E21.02304
G1 X58.008 Y94.781 E21.05502
G1 X57.404 Y95.051 E21.08803
G1 X56.788 Y95.243 E21.12022
G1 X56.144 Y95.36 E21.15287
G1 X55.444 Y95.4 E21.18785
G1 X28.516 Y95.4 E22.5313
G1 X27.859 Y95.361 E22.56413
G1 X27.21 Y95.243 E22.59704
G1 X26.59 Y95.049 E22.62945
G1 X25.992 Y94.782 E22.66213
G1 X25.437 Y94.446 E22.6945
G1 X24.919 Y94.041 E22.7273
G1 X24.462 Y93.584 E22.75954
G1 X24.061 Y93.073 E22.79195
G1 X23.719 Y92.507 E22.82494
G1 X23.455 Y91.92 E22.85705
G1 X23.258 Y91.291 E22.88994
G1 X23.142 Y90.655 E22.92219
G1 X23.1 Y89.979 E22.95598
G1 X23.1 Y56.012 E24.6506
G1 X23.142 Y55.343 E24.68404
G1 X23.259 Y54.707 E24.71631
G0 F1800 X23.356 Y54.73
G0 X59.464 Y52.482
G0 X59.838 Y52.15
;TYPE:WALL-OUTER
G1 F1200 X60.271 Y52.701 E24.75127
G1 X60.634 Y53.303 E24.78634
G1 X60.92 Y53.937 E24.82104
G1 X61.13 Y54.609 E24.85617
G1 X61.256 Y55.299 E24.89116
G1 X61.3 Y56.012 E24.9268
G1 X61.3 Y89.993 E26.62212
G1 X61.256 Y90.704 E26.65766
G1 X61.129 Y91.394 E26.69266
G1 X60.919 Y92.067 E26.72783
G1 X60.635 Y92.697 E26.76231
G1 X60.269 Y93.3 E26.7975
G1 X59.836 Y93.851 E26.83246
G1 X59.341 Y94.345 E26.86735
G1 X58.783 Y94.78 E26.90265
G1 X58.194 Y95.136 E26.93699
G1 X57.543 Y95.427 E26.97256
G1 X56.882 Y95.633 E27.0071
G1 X56.197 Y95.757 E27.04183
G1 X55.45 Y95.8 E27.07916
G1 X28.509 Y95.8 E28.42326
G1 X27.806 Y95.758 E28.45839
G1 X27.116 Y95.633 E28.49338
G1 X26.451 Y95.425 E28.52814
G1 X25.806 Y95.137 E28.56338
G1 X25.21 Y94.776 E28.59814
G1 X24.65 Y94.338 E28.63361
G1 X24.162 Y93.85 E28.66804
G1 X23.729 Y93.299 E28.70301
G1 X23.366 Y92.697 E28.73808
G1 X23.08 Y92.063 E28.77278
G1 X22.87 Y91.391 E28.8079
G1 X22.744 Y90.701 E28.8429
G1 X22.7 Y89.988 E28.87853
G1 X22.7 Y56.007 E30.57385
G1 X22.744 Y55.296 E30.60939
G1 X22.871 Y54.606 E30.6444
G1 X23.082 Y53.93 E30.67973
G1 X23.365 Y53.303 E30.71405
G1 X23.731 Y52.7 E30.74924
G1 X24.164 Y52.149 E30.7842
G1 X24.659 Y51.655 E30.81909
G1 X25.217 Y51.22 E30.85439
G1 X25.806 Y50.864 E30.88872
G1 X26.457 Y50.573 E30.9243
G1 X27.118 Y50.367 E30.95884
G1 X27.803 Y50.243 E30.99357
G1 X28.552 Y50.2 E31.031
G1 X55.491 Y50.2 E32.37499
G1 X56.194 Y50.242 E32.41013
G1 X56.884 Y50.367 E32.44511
G1 X57.549 Y50.575 E32.47987
G1 X58.194 Y50.863 E32.51512
G1 X58.79 Y51.224 E32.54988
G1 X59.348 Y51.66 E32.58521
G1 X59.838 Y52.15 E32.61978
G0 F1800 X59.961 Y52.307
G0 X59.568 Y52.614
G0 X59.246 Y52.674
;TYPE:SKIN
G1 F1200 X59.613 Y53.141 E32.64941
G1 X59.937 Y53.677 E32.68066
G1 X60.178 Y54.215 E32.71007
G1 X60.362 Y54.8 E32.74067
G1 X60.47 Y55.388 E32.77049
G1 X60.51 Y56.045 E32.80333
G1 X60.51 Y89.96 E34.49536
G1 X60.47 Y90.612 E34.52795
G1 X60.361 Y91.202 E34.55788
G1 X60.177 Y91.791 E34.58867
G1 X59.938 Y92.323 E34.61776
G1 X59.616 Y92.853 E34.6487
G1 X59.248 Y93.321 E34.67841
G1 X58.815 Y93.753 E34.70892
G1 X58.334 Y94.129 E34.73938
G1 X57.834 Y94.431 E34.76852
G1 X57.259 Y94.687 E34.79992
G1 X56.698 Y94.863 E34.82926
G1 X56.101 Y94.972 E34.85953
G1 X55.422 Y95.01 E34.89346
G1 X28.539 Y95.01 E36.23466
G1 X27.903 Y94.973 E36.26644
G1 X27.301 Y94.863 E36.29698
G1 X26.735 Y94.686 E36.32656
G1 X26.167 Y94.433 E36.35758
G1 X25.659 Y94.124 E36.38725
G1 X25.169 Y93.741 E36.41828
G1 X24.754 Y93.326 E36.44756
G1 X24.386 Y92.858 E36.47726
G1 X24.063 Y92.323 E36.50844
G1 X23.822 Y91.785 E36.53785
G1 X23.638 Y91.2 E36.56844
G1 X23.53 Y90.612 E36.59827
G1 X23.49 Y89.955 E36.63111
G1 X23.49 Y56.037 E38.32328
G1 X23.53 Y55.388 E38.35572
G1 X23.64 Y54.797 E38.38572
G1 X23.825 Y54.204 E38.41671
G1 X24.064 Y53.674 E38.44571
G1 X24.384 Y53.147 E38.47647
G1 X24.752 Y52.679 E38.50617
G1 X25.186 Y52.246 E38.53676
G1 X25.669 Y51.869 E38.56733
G1 X26.166 Y51.569 E38.59629
G1 X26.743 Y51.312 E38.6278
G1 X27.302 Y51.137 E38.65703
G1 X27.899 Y51.028 E38.6873
G1 X28.58 Y50.99 E38.72133
G1 X55.461 Y50.99 E40.06243
G1 X56.097 Y51.027 E40.09422
G1 X56.699 Y51.137 E40.12475
G1 X57.265 Y51.314 E40.15433
G1 X57.833 Y51.567 E40.18535
G1 X58.338 Y51.874 E40.21484
G1 X58.828 Y52.256 E40.24584
G1 X59.246 Y52.674 E40.27533
G0 F1800 X59.45 Y53.228
G1 F1200 X58.29 Y52.067 E40.35721
G1 X58.22 Y51.997
G0 F1800 X57.112 Y51.455
G1 F1200 X60.041 Y54.384 E40.56386
G0 F1800 X60.243 Y55.152
G1 F1200 X56.347 Y51.256 E40.83875
G0 F1800 X55.71 Y51.185
G1 F1200 X60.314 Y55.788 E41.16355
G0 F1800 X60.33 Y56.37
G1 F1200 X55.129 Y51.169 E41.53051
G0 F1800 X54.563 Y51.169
G1 F1200 X60.33 Y56.936 E41.9374
G0 F1800 X60.33 Y57.501
G1 F1200 X53.998 Y51.169 E42.38416
G0 F1800 X53.432 Y51.169
G1 F1200 X60.33 Y58.067 E42.87085
G0 F1800 X60.33 Y58.633
G1 F1200 X52.866 Y51.169 E43.39748
G0 F1800 X52.301 Y51.169
G1 F1200 X60.33 Y59.198 E43.96396
G0 F1800 X60.33 Y59.764
G1 F1200 X51.735 Y51.169 E44.57039
G0 F1800 X51.169 Y51.169
G1 F1200 X60.33 Y60.33 E45.21675
G0 F1800 X60.33 Y60.896
G1 F1200 X50.604 Y51.169 E45.903
G0 F1800 X50.038 Y51.169
G1 F1200 X60.33 Y61.461 E46.62916
G0 F1800 X60.33 Y62.027
G1 F1200 X49.472 Y51.169 E47.39525
G0 F1800 X48.907 Y51.169
G1 F1200 X60.33 Y62.593 E48.20124
G0 F1800 X60.33 Y63.158
G1 F1200 X48.341 Y51.169 E49.04713
G0 F1800 X47.775 Y51.169
G1 F1200 X60.33 Y63.724 E49.93295
G0 F1800 X60.33 Y64.29
G1 F1200 X47.209 Y51.169 E50.85871
G0 F1800 X46.644 Y51.169
G1 F1200 X60.33 Y64.855 E51.82433
G0 F1800 X60.33 Y65.421
G1 F1200 X46.078 Y51.169 E52.82989
G0 F1800 X45.512 Y51.169
G1 F1200 X60.33 Y65.987 E53.87538
G0 F1800 X60.33 Y66.552
G1 F1200 X44.947 Y51.169 E54.96073
G0 F1800 X44.381 Y51.169
G1 F1200 X60.33 Y67.118 E56.08602
G0 F1800 X60.33 Y67.684
G1 F1200 X43.815 Y51.169 E57.25124
G0 F1800 X43.25 Y51.169
G1 F1200 X60.33 Y68.249 E58.45633
G0 F1800 X60.33 Y68.815
G1 F1200 X42.684 Y51.169 E59.70135
G0 F1800 X42.118 Y51.169
G1 F1200 X60.33 Y69.381 E60.9863
G0 F1800 X60.33 Y69.947
G1 F1200 X41.553 Y51.169 E62.31116
G0 F1800 X40.987 Y51.169
G1 F1200 X60.33 Y70.512 E63.67591
G0 F1800 X60.33 Y71.078
G1 F1200 X40.421 Y51.169 E65.0806
G0 F1800 X39.856 Y51.169
G1 F1200 X60.33 Y71.644 E66.52518
G0 F1800 X60.33 Y72.209
G1 F1200 X39.29 Y51.169 E68.00967
G0 F1800 X38.724 Y51.169
G1 F1200 X60.33 Y72.775 E69.53409
G0 F1800 X60.33 Y73.341
G1 F1200 X38.159 Y51.169 E71.09841
G0 F1800 X37.593 Y51.169
G1 F1200 X60.33 Y73.906 E72.70263
G0 F1800 X60.33 Y74.472
G1 F1200 X37.027 Y51.169 E74.34678
G0 F1800 X36.461 Y51.169
G1 F1200 X60.33 Y75.038 E76.03087
G0 F1800 X60.33 Y75.603
G1 F1200 X35.896 Y51.169 E77.75482
G0 F1800 X35.33 Y51.169
G1 F1200 X60.33 Y76.169 E79.5187
G0 F1800 X60.33 Y76.735
G1 F1200 X34.764 Y51.169 E81.32252
G0 F1800 X34.199 Y51.169
G1 F1200 X60.33 Y77.3 E83.1662
G0 F1800 X60.33 Y77.866
G1 F1200 X33.633 Y51.169 E85.04982
G0 F1800 X33.067 Y51.169
G1 F1200 X60.33 Y78.432 E86.97337
G0 F1800 X60.33 Y78.997
G1 F1200 X32.502 Y51.169 E88.93679
G0 F1800 X31.936 Y51.169
G1 F1200 X60.33 Y79.563 E90.94014
G0 F1800 X60.33 Y80.129
G1 F1200 X31.37 Y51.169 E92.98342
G0 F1800 X30.805 Y51.169
G1 F1200 X60.33 Y80.695 E95.06661
G0 F1800 X60.33 Y81.26
G1 F1200 X30.239 Y51.169 E97.18969
G0 F1800 X29.673 Y51.169
G1 F1200 X60.33 Y81.826 E99.35271
G0 F1800 X60.33 Y82.392
G1 F1200 X29.108 Y51.169 E101.55562
G0 F1800 X28.544 Y51.171
G1 F1200 X60.33 Y82.957 E103.7983
G0 F1800 X60.33 Y83.523
G1 F1200 X28.009 Y51.202 E106.07872
G0 F1800 X27.521 Y51.28
G1 F1200 X60.33 Y84.089 E108.39357
G0 F1800 X60.33 Y84.654
G1 F1200 X27.072 Y51.397 E110.74007
G0 F1800 X26.657 Y51.547
G1 F1200 X60.33 Y85.22 E113.11588
G0 F1800 X60.33 Y85.786
G1 F1200 X26.265 Y51.721 E115.51935
G0 F1800 X25.911 Y51.932
G1 F1200 X60.33 Y86.351 E117.94779
G0 F1800 X60.33 Y86.917
G1 F1200 X25.58 Y52.167 E120.39959
G0 F1800 X25.267 Y52.419
G1 F1200 X60.33 Y87.483 E122.87351
G0 F1800 X60.33 Y88.048
G1 F1200 X24.984 Y52.702 E125.36736
G0 F1800 X24.722 Y53.006
G1 F1200 X60.33 Y88.614 E127.8797
G0 F1800 X60.33 Y89.18
G1 F1200 X24.482 Y53.332 E130.40897
G0 F1800 X24.267 Y53.683
G1 F1200 X60.33 Y89.745 E132.95338
G0 F1800 X60.309 Y90.291
G1 F1200 X24.084 Y54.065 E135.50928
G0 F1800 X23.928 Y54.475
G1 F1200 X60.252 Y90.799 E138.07213
G0 F1800 X60.152 Y91.265
G1 F1200 X23.801 Y54.913 E140.63693
G0 F1800 X23.712 Y55.391
G1 F1200 X60.018 Y91.696 E143.19848
G0 F1800 X59.845 Y92.09
G1 F1200 X23.677 Y55.921 E145.75036
G0 F1800 X23.67 Y56.48
G1 F1200 X59.646 Y92.456 E148.28866
G0 F1800 X59.426 Y92.802
G1 F1200 X23.67 Y57.045 E150.81148
G0 F1800 X23.67 Y57.611
G1 F1200 X59.177 Y93.118 E153.31669
G0 F1800 X58.902 Y93.409
G1 F1200 X23.67 Y58.177 E155.8025
G0 F1800 X23.67 Y58.742
G1 F1200 X58.609 Y93.682 E158.26767
G0 F1800 X58.292 Y93.93
G1 F1200 X23.67 Y59.308 E160.71043
G0 F1800 X23.67 Y59.874
G1 F1200 X57.947 Y94.151 E163.12886
G0 F1800 X57.577 Y94.347
G1 F1200 X23.67 Y60.439 E165.52122
G0 F1800 X23.67 Y61.005
G1 F1200 X57.184 Y94.519 E167.88581
G0 F1800 X56.753 Y94.654
G1 F1200 X23.67 Y61.571 E170.22
G0 F1800 X23.67 Y62.137
G1 F1200 X56.287 Y94.753 E172.52127
G0 F1800 X55.776 Y94.808
G1 F1200 X23.67 Y62.702 E174.78652
G0 F1800 X23.67 Y63.268
G1 F1200 X55.231 Y94.829 E177.01332
G0 F1800 X54.665 Y94.829
G1 F1200 X23.67 Y63.834 E179.20018
G0 F1800 X23.67 Y64.399
G1 F1200 X54.1 Y94.829 E181.34718
G0 F1800 X53.534 Y94.829
G1 F1200 X23.67 Y64.965 E183.45425
G0 F1800 X23.67 Y65.531
G1 F1200 X52.968 Y94.829 E185.52138
G0 F1800 X52.402 Y94.829
G1 F1200 X23.67 Y66.096 E187.54862
G0 F1800 X23.67 Y66.662
G1 F1200 X51.837 Y94.829 E189.53595
G0 F1800 X51.271 Y94.829
G1 F1200 X23.67 Y67.228 E191.48335
G0 F1800 X23.67 Y67.793
G1 F1200 X50.705 Y94.829 E193.39085
G0 F1800 X50.14 Y94.829
G1 F1200 X23.67 Y68.359 E195.25845
G0 F1800 X23.67 Y68.925
G1 F1200 X49.574 Y94.829 E197.08612
G0 F1800 X49.008 Y94.829
G1 F1200 X23.67 Y69.49 E198.87389
G0 F1800 X23.67 Y70.056
G1 F1200 X48.443 Y94.829 E200.62176
G0 F1800 X47.877 Y94.829
G1 F1200 X23.67 Y70.622 E202.32969
G0 F1800 X23.67 Y71.187
G1 F1200 X47.311 Y94.829 E203.99773
G0 F1800 X46.746 Y94.829
G1 F1200 X23.67 Y71.753 E205.62586
G0 F1800 X23.67 Y72.319
G1 F1200 X46.18 Y94.829 E207.21406
G0 F1800 X45.614 Y94.829
G1 F1200 X23.67 Y72.885 E208.76233
G0 F1800 X23.67 Y73.45
G1 F1200 X45.049 Y94.829 E210.27074
G0 F1800 X44.483 Y94.829
G1 F1200 X23.67 Y74.016 E211.73921
G0 F1800 X23.67 Y74.582
G1 F1200 X43.917 Y94.829 E213.16774
G0 F1800 X43.352 Y94.829
G1 F1200 X23.67 Y75.147 E214.55641
G0 F1800 X23.67 Y75.713
G1 F1200 X42.786 Y94.829 E215.90515
G0 F1800 X42.22 Y94.829
G1 F1200 X23.67 Y76.279 E217.21395
G0 F1800 X23.67 Y76.844
G1 F1200 X41.654 Y94.829 E218.48286
G0 F1800 X41.089 Y94.829
