;FLAVOR:Marlin
;TIME:7928
;Filament used: 6.04507m, 0m
;Layer height: 0.1
;POSTPROCESSED
;Generated with Cura_SteamEngine 3.6.0
T0
M140 S60
M105
M190 S60
M104 S198
M105
M109 S198
M82 ;absolute extrusion mode
; Printer start settings begin
; Calibration section to overwrite Firmware values
; Identifier CALIBR, CALRES and CALMPE, surrounded by #, + or - can be used in post processing
; #CALIBR# M92 X160 Y160 Z3200 ; +CALIBR+ Steps per unit
; #CALRESO# M201 X1000 Y1000 Z50 E1500 E1500 ; +CALRESO+ Max Accelleration
; #CALRESO# M203 X800 Y800 Z2 E90 E90 ; +CALRESO+ Max Feed
; #CALRESO# M205 X3.0 Y3.0 Z0.3 E5.0 ; +CALRESO+ Default Jerk
; #CALMPE#
M951 L32 R139 G32 N75 H300 D10 C0 ; +CALMPE+ Parking kinematic values / needs MPE kinematic to be compiled and activated in firmware
; #CALMPE#
M851 Z-0.55 ; +CALMPE+ System Z Probe Offset
; #CALMPE#
M218 T1 X0.75 Y0.0 Z0.25; +CALMPE+ T1 Nozzle offset values
; #CALMPE#
M206 X-32.00 Y0.00 Z0.00; +CALMPE+ Home Offset
; #REM#  M951 args: L: Left parking,R: Right parking, I: Grab Offset, J: Normal speed, H: High speed, D: Distance trav., C: Compenstion
; #CALMPE#
M951 L32 R140 I32 J4500 H9000 D10 C0 ; MPE Setup
; #CALMPE# M217 Z5.00 Z-Lift
G28 ;Home
G92 E5
G1 F1000 E0
; #MPE# G29 ; -MPE- Auto Bed Level, uses this if FW values are set correct.
; #MPE# G29 X3 Y3 L0 R109 F32 B168 ; +MPE+ Auto Bed Leveling, needed if not poroper defined in Firmware
G92 E-5
G1 E0 F400
G0 Z15.0 F100 ;Move the platform down 15mm
G0 X0 Y0 F9000 ;Move to front
T1
G0 X0 Y0 F9000 ;Move to front
G92 E-30
G1 F200 E0
T0
G0 X0 Y0 F9000 ;Move to front
G92 E-30
G1 F200 E0
; Printer start settings end
G92 E0
G1 F1200 E-3
;LAYER_COUNT:231
;LAYER:0
M107
G0 F2400 X40.653 Y78.877 Z0.16
;TYPE:SKIRT
G1 F1200 E0
G1 X43.369 Y77.661 E0.11877
G1 X43.924 Y77.45 E0.14247
G1 X46.616 Y76.611 E0.25501
G1 X47.189 Y76.469 E0.27857
G1 X50.116 Y75.924 E0.3974
G1 X50.723 Y75.849 E0.42181
G1 X53.692 Y75.666 E0.54054
G1 X54.309 Y75.667 E0.56516
G1 X57.277 Y75.851 E0.68385
G1 X57.883 Y75.925 E0.70822
G1 X60.81 Y76.47 E0.82705
G1 X61.38 Y76.611 E0.85048
G1 X64.072 Y77.448 E0.963
G1 X64.631 Y77.66 E0.98686
G1 X67.346 Y78.876 E1.10559
G1 X67.894 Y79.163 E1.13028
G1 X70.438 Y80.705 E1.24902
G1 X70.938 Y81.051 E1.27328
G1 X73.278 Y82.892 E1.39212
G1 X73.722 Y83.286 E1.41581
G1 X75.713 Y85.277 E1.52819
G1 X76.105 Y85.719 E1.55177
G1 X77.948 Y88.059 E1.67065
G1 X78.297 Y88.563 E1.69512
G1 X79.837 Y91.106 E1.81378
G1 X80.123 Y91.653 E1.83842
G1 X81.339 Y94.369 E1.95719
G1 X81.55 Y94.924 E1.98088
G1 X82.389 Y97.616 E2.09342
G1 X82.531 Y98.189 E2.11699
G1 X83.076 Y101.116 E2.23582
G1 X83.151 Y101.726 E2.26035
G1 X83.333 Y104.707 E2.37955
G1 X83.332 Y105.321 E2.40405
G1 X83.149 Y108.277 E2.52226
G1 X83.075 Y108.883 E2.54663
G1 X82.53 Y111.81 E2.66546
G1 X82.389 Y112.38 E2.68889
G1 X81.552 Y115.072 E2.80141
G1 X81.34 Y115.631 E2.82527
G1 X80.124 Y118.346 E2.944
G1 X79.837 Y118.894 E2.96869
G1 X78.295 Y121.438 E3.08743
G1 X77.949 Y121.937 E3.11166
G1 X76.11 Y124.275 E3.23038
G1 X75.716 Y124.72 E3.25411
G1 X73.723 Y126.713 E3.3666
G1 X73.281 Y127.105 E3.39018
G1 X70.941 Y128.948 E3.50906
G1 X70.437 Y129.297 E3.53353
G1 X67.894 Y130.837 E3.65219
G1 X67.347 Y131.123 E3.67682
G1 X64.631 Y132.339 E3.79559
G1 X64.076 Y132.55 E3.81929
G1 X61.384 Y133.389 E3.93183
G1 X60.811 Y133.531 E3.95539
G1 X57.884 Y134.076 E4.07422
G1 X57.277 Y134.151 E4.09864
G1 X54.308 Y134.334 E4.21736
G1 X53.691 Y134.333 E4.24199
G1 X50.723 Y134.149 E4.36067
G1 X50.117 Y134.075 E4.38504
G1 X47.19 Y133.53 E4.50387
G1 X46.62 Y133.389 E4.52731
G1 X43.928 Y132.552 E4.63982
G1 X43.369 Y132.34 E4.66368
G1 X40.652 Y131.123 E4.78251
G1 X40.104 Y130.836 E4.8072
G1 X37.562 Y129.295 E4.92584
G1 X37.062 Y128.949 E4.95011
G1 X34.722 Y127.108 E5.06894
G1 X34.278 Y126.714 E5.09263
G1 X32.285 Y124.721 E5.20513
G1 X31.893 Y124.278 E5.22874
G1 X30.052 Y121.94 E5.34751
G1 X29.703 Y121.437 E5.37194
G1 X28.162 Y118.892 E5.49069
G1 X27.875 Y118.345 E5.51534
G1 X26.66 Y115.631 E5.63403
G1 X26.45 Y115.076 E5.65771
G1 X25.611 Y112.384 E5.77025
G1 X25.469 Y111.811 E5.79381
G1 X24.924 Y108.884 E5.91264
G1 X24.849 Y108.277 E5.93705
G1 X24.666 Y105.309 E6.05574
G1 X24.667 Y104.692 E6.08036
G1 X24.851 Y101.723 E6.19909
G1 X24.925 Y101.117 E6.22346
G1 X25.47 Y98.19 E6.34229
G1 X25.612 Y97.62 E6.36573
G1 X26.449 Y94.929 E6.47821
G1 X26.66 Y94.371 E6.50202
G1 X27.876 Y91.655 E6.62079
G1 X28.163 Y91.106 E6.64552
G1 X29.705 Y88.562 E6.76425
G1 X30.051 Y88.063 E6.78849
G1 X31.89 Y85.725 E6.90721
G1 X32.284 Y85.28 E6.93093
G1 X34.277 Y83.287 E7.04342
G1 X34.719 Y82.895 E7.067
G1 X37.059 Y81.052 E7.18589
G1 X37.563 Y80.703 E7.21035
G1 X40.106 Y79.163 E7.32901
G1 X40.653 Y78.877 E7.35365
G0 F2400 X40.816 Y79.242
G1 F1200 X43.532 Y78.026 E7.47242
G1 X44.043 Y77.832 E7.49423
G1 X46.735 Y76.993 E7.60677
G1 X47.262 Y76.863 E7.62844
G1 X50.189 Y76.318 E7.74727
G1 X50.748 Y76.249 E7.76975
G1 X53.717 Y76.066 E7.88847
G1 X54.285 Y76.066 E7.91114
G1 X57.253 Y76.25 E8.02983
G1 X57.81 Y76.319 E8.05223
G1 X60.737 Y76.864 E8.17106
G1 X61.261 Y76.993 E8.1926
G1 X63.953 Y77.83 E8.30512
G1 X64.467 Y78.025 E8.32706
G1 X67.182 Y79.241 E8.44579
G1 X67.686 Y79.505 E8.4685
G1 X70.23 Y81.047 E8.58723
G1 X70.69 Y81.366 E8.60957
G1 X73.03 Y83.207 E8.72841
G1 X73.439 Y83.569 E8.75021
G1 X75.43 Y85.56 E8.86259
G1 X75.791 Y85.967 E8.8843
G1 X77.634 Y88.307 E9.00319
G1 X77.955 Y88.77 E9.02567
G1 X79.495 Y91.313 E9.14433
G1 X79.758 Y91.816 E9.16698
G1 X80.974 Y94.532 E9.28575
G1 X81.168 Y95.043 E9.30757
G1 X82.007 Y97.735 E9.42011
G1 X82.137 Y98.262 E9.44177
G1 X82.682 Y101.189 E9.56061
G1 X82.751 Y101.751 E9.5832
G1 X82.933 Y104.732 E9.7024
G1 X82.933 Y105.296 E9.72491
G1 X82.75 Y108.252 E9.84312
G1 X82.681 Y108.81 E9.86556
G1 X82.136 Y111.737 E9.98439
G1 X82.007 Y112.261 E10.00593
G1 X81.17 Y114.953 E10.11845
G1 X80.975 Y115.467 E10.14039
G1 X79.759 Y118.182 E10.25912
G1 X79.495 Y118.686 E10.28183
G1 X77.953 Y121.23 E10.40056
G1 X77.635 Y121.69 E10.42288
G1 X75.796 Y124.028 E10.54161
G1 X75.433 Y124.437 E10.56343
G1 X73.44 Y126.43 E10.67593
G1 X73.033 Y126.791 E10.69764
G1 X70.693 Y128.634 E10.81652
G1 X70.23 Y128.955 E10.83901
G1 X67.687 Y130.495 E10.95767
G1 X67.184 Y130.758 E10.98032
G1 X64.468 Y131.974 E11.09909
G1 X63.957 Y132.168 E11.12091
G1 X61.265 Y133.007 E11.23345
G1 X60.738 Y133.137 E11.25511
G1 X57.811 Y133.682 E11.37394
G1 X57.252 Y133.751 E11.39642
G1 X54.283 Y133.934 E11.51515
G1 X53.715 Y133.934 E11.53782
G1 X50.747 Y133.75 E11.6565
G1 X50.19 Y133.681 E11.6789
G1 X47.263 Y133.136 E11.79773
G1 X46.739 Y133.007 E11.81927
G1 X44.047 Y132.17 E11.93179
G1 X43.533 Y131.975 E11.95373
G1 X40.816 Y130.758 E12.07255
G1 X40.311 Y130.494 E12.0953
G1 X37.769 Y128.953 E12.21394
G1 X37.31 Y128.634 E12.23625
G1 X34.97 Y126.793 E12.35509
G1 X34.561 Y126.431 E12.37689
G1 X32.568 Y124.438 E12.48938
G1 X32.207 Y124.031 E12.51109
G1 X30.366 Y121.693 E12.62986
G1 X30.045 Y121.23 E12.65235
G1 X28.504 Y118.685 E12.7711
G1 X28.241 Y118.182 E12.79375
G1 X27.026 Y115.468 E12.91243
G1 X26.832 Y114.957 E12.93425
G1 X25.993 Y112.265 E13.04679
G1 X25.863 Y111.738 E13.06845
G1 X25.318 Y108.811 E13.18728
G1 X25.249 Y108.252 E13.20976
G1 X25.066 Y105.284 E13.32845
G1 X25.066 Y104.716 E13.35112
G1 X25.25 Y101.747 E13.46984
G1 X25.319 Y101.19 E13.49224
G1 X25.864 Y98.263 E13.61108
G1 X25.994 Y97.739 E13.63262
G1 X26.831 Y95.048 E13.7451
G1 X27.025 Y94.534 E13.76703
G1 X28.241 Y91.818 E13.8858
G1 X28.505 Y91.314 E13.90851
G1 X30.047 Y88.77 E14.02724
G1 X30.365 Y88.31 E14.04956
G1 X32.204 Y85.972 E14.16828
G1 X32.567 Y85.563 E14.19011
G1 X34.56 Y83.57 E14.3026
G1 X34.967 Y83.209 E14.32432
G1 X37.307 Y81.366 E14.4432
G1 X37.77 Y81.045 E14.46569
G1 X40.313 Y79.505 E14.58434
G1 X40.816 Y79.242 E14.607
G0 F2400 X40.98 Y79.607
G1 F1200 X43.696 Y78.391 E14.72577
G1 X44.162 Y78.214 E14.74566
G1 X46.854 Y77.375 E14.8582
G1 X47.335 Y77.256 E14.87798
G1 X50.262 Y76.711 E14.99681
G1 X50.773 Y76.648 E15.01736
G1 X53.742 Y76.465 E15.13608
G1 X54.26 Y76.465 E15.15676
G1 X57.228 Y76.649 E15.27545
G1 X57.737 Y76.712 E15.29592
G1 X60.664 Y77.257 E15.41475
G1 X61.142 Y77.375 E15.4344
G1 X63.834 Y78.212 E15.54691
G1 X64.304 Y78.39 E15.56697
G1 X67.019 Y79.606 E15.68571
G1 X67.479 Y79.847 E15.70643
G1 X70.023 Y81.389 E15.82517
G1 X70.443 Y81.68 E15.84556
G1 X72.783 Y83.521 E15.96439
G1 X73.156 Y83.852 E15.9843
G1 X75.147 Y85.843 E16.09668
G1 X75.477 Y86.214 E16.1165
G1 X77.32 Y88.554 E16.23538
G1 X77.613 Y88.977 E16.25592
G1 X79.153 Y91.52 E16.37457
G1 X79.393 Y91.98 E16.39528
G1 X80.609 Y94.696 E16.51405
G1 X80.786 Y95.162 E16.53395
G1 X81.625 Y97.854 E16.64649
G1 X81.744 Y98.335 E16.66627
G1 X82.289 Y101.262 E16.7851
G1 X82.352 Y101.775 E16.80572
G1 X82.534 Y104.756 E16.92492
G1 X82.534 Y105.272 E16.94552
G1 X82.351 Y108.228 E17.06373
G1 X82.288 Y108.737 E17.0842
G1 X81.743 Y111.664 E17.20303
G1 X81.625 Y112.142 E17.22268
G1 X80.788 Y114.834 E17.33519
G1 X80.61 Y115.304 E17.35525
G1 X79.394 Y118.019 E17.47399
G1 X79.153 Y118.479 E17.49471
G1 X77.611 Y121.023 E17.61345
G1 X77.32 Y121.443 E17.63384
G1 X75.481 Y123.781 E17.75256
G1 X75.15 Y124.154 E17.77247
G1 X73.157 Y126.147 E17.88496
G1 X72.786 Y126.477 E17.90478
G1 X70.446 Y128.32 E18.02366
G1 X70.023 Y128.613 E18.0442
G1 X67.48 Y130.153 E18.16285
G1 X67.02 Y130.393 E18.18356
G1 X64.304 Y131.609 E18.30233
G1 X63.838 Y131.786 E18.32223
G1 X61.146 Y132.625 E18.43477
G1 X60.665 Y132.744 E18.45455
G1 X57.738 Y133.289 E18.57338
G1 X57.227 Y133.352 E18.59393
G1 X54.258 Y133.535 E18.71265
G1 X53.74 Y133.535 E18.73332
G1 X50.772 Y133.351 E18.85201
G1 X50.263 Y133.288 E18.87248
G1 X47.336 Y132.743 E18.99131
G1 X46.858 Y132.625 E19.01096
G1 X44.166 Y131.788 E19.12348
G1 X43.696 Y131.61 E19.14354
G1 X40.979 Y130.393 E19.26236
G1 X40.519 Y130.152 E19.28309
G1 X37.977 Y128.611 E19.40173
G1 X37.557 Y128.32 E19.42213
G1 X35.217 Y126.479 E19.54096
G1 X34.844 Y126.148 E19.56086
G1 X32.851 Y124.155 E19.67336
G1 X32.521 Y123.783 E19.6932
G1 X30.68 Y121.445 E19.81198
G1 X30.387 Y121.022 E19.83251
G1 X28.846 Y118.477 E19.95126
G1 X28.606 Y118.018 E19.97193
G1 X27.391 Y115.304 E20.09061
G1 X27.214 Y114.838 E20.11051
G1 X26.375 Y112.146 E20.22305
G1 X26.256 Y111.665 E20.24283
G1 X25.711 Y108.738 E20.36166
G1 X25.648 Y108.227 E20.38221
G1 X25.465 Y105.259 E20.50089
G1 X25.465 Y104.741 E20.52157
G1 X25.649 Y101.772 E20.64029
G1 X25.712 Y101.263 E20.66076
G1 X26.257 Y98.336 E20.77959
G1 X26.376 Y97.858 E20.79925
G1 X27.213 Y95.167 E20.91173
G1 X27.39 Y94.698 E20.93174
G1 X28.606 Y91.982 E21.05051
G1 X28.847 Y91.521 E21.07127
G1 X30.389 Y88.977 E21.19
G1 X30.68 Y88.557 E21.2104
G1 X32.519 Y86.219 E21.32912
G1 X32.85 Y85.846 E21.34902
G1 X34.843 Y83.853 E21.46152
G1 X35.214 Y83.523 E21.48134
G1 X37.554 Y81.68 E21.60022
G1 X37.977 Y81.387 E21.62076
G1 X40.52 Y79.847 E21.73941
G1 X40.98 Y79.607 E21.76012
G0 F2400 X41.143 Y79.972
G1 F1200 X43.859 Y78.756 E21.87889
G1 X44.281 Y78.596 E21.8969
G1 X46.973 Y77.757 E22.00945
G1 X47.408 Y77.649 E22.02733
G1 X50.335 Y77.104 E22.14617
G1 X50.797 Y77.047 E22.16474
G1 X53.766 Y76.864 E22.28347
G1 X54.235 Y76.864 E22.30219
G1 X57.203 Y77.048 E22.42087
G1 X57.664 Y77.105 E22.43941
G1 X60.591 Y77.65 E22.55824
G1 X61.023 Y77.757 E22.57601
G1 X63.715 Y78.594 E22.68852
G1 X64.14 Y78.755 E22.70666
G1 X66.855 Y79.971 E22.8254
G1 X67.272 Y80.189 E22.84418
G1 X69.816 Y81.731 E22.96291
G1 X70.196 Y81.994 E22.98135
G1 X72.536 Y83.835 E23.10019
G1 X72.873 Y84.135 E23.1182
G1 X74.864 Y86.126 E23.23058
G1 X75.162 Y86.462 E23.2485
G1 X77.005 Y88.802 E23.36739
G1 X77.27 Y89.185 E23.38597
G1 X78.81 Y91.728 E23.50463
G1 X79.028 Y92.143 E23.52334
G1 X80.244 Y94.859 E23.64211
G1 X80.404 Y95.281 E23.66012
G1 X81.243 Y97.973 E23.77267
G1 X81.351 Y98.408 E23.79055
G1 X81.896 Y101.335 E23.90939
G1 X81.953 Y101.799 E23.92804
G1 X82.135 Y104.78 E24.04724
G1 X82.135 Y105.247 E24.06588
G1 X81.952 Y108.203 E24.18409
G1 X81.895 Y108.664 E24.20263
G1 X81.35 Y111.591 E24.32146
G1 X81.243 Y112.023 E24.33922
G1 X80.406 Y114.715 E24.45174
G1 X80.245 Y115.14 E24.46988
G1 X79.029 Y117.855 E24.58861
G1 X78.811 Y118.272 E24.60739
G1 X77.269 Y120.816 E24.72612
G1 X77.006 Y121.195 E24.74454
G1 X75.167 Y123.533 E24.86326
G1 X74.867 Y123.871 E24.8813
G1 X72.874 Y125.864 E24.99379
G1 X72.538 Y126.162 E25.01172
G1 X70.198 Y128.005 E25.1306
G1 X69.815 Y128.27 E25.14919
G1 X67.272 Y129.81 E25.26784
G1 X66.857 Y130.028 E25.28655
G1 X64.141 Y131.244 E25.40532
G1 X63.719 Y131.404 E25.42334
G1 X61.027 Y132.243 E25.53588
G1 X60.592 Y132.351 E25.55377
G1 X57.665 Y132.896 E25.6726
G1 X57.203 Y132.953 E25.69118
G1 X54.234 Y133.136 E25.8099
G1 X53.765 Y133.136 E25.82862
G1 X50.797 Y132.952 E25.94731
G1 X50.336 Y132.895 E25.96585
G1 X47.409 Y132.35 E26.08468
G1 X46.977 Y132.243 E26.10244
G1 X44.285 Y131.406 E26.21496
G1 X43.86 Y131.245 E26.2331
G1 X41.143 Y130.028 E26.35192
G1 X40.726 Y129.81 E26.3707
G1 X38.184 Y128.269 E26.48934
G1 X37.804 Y128.006 E26.50779
G1 X35.464 Y126.165 E26.62662
G1 X35.127 Y125.865 E26.64463
G1 X33.134 Y123.872 E26.75712
G1 X32.835 Y123.536 E26.77507
G1 X30.994 Y121.198 E26.89385
G1 X30.729 Y120.815 E26.91244
G1 X29.188 Y118.27 E27.03118
G1 X28.971 Y117.855 E27.04987
G1 X27.756 Y115.141 E27.16855
G1 X27.596 Y114.719 E27.18657
G1 X26.757 Y112.027 E27.29911
G1 X26.649 Y111.592 E27.317
G1 X26.104 Y108.665 E27.43583
G1 X26.047 Y108.203 E27.45441
G1 X25.864 Y105.235 E27.57309
G1 X25.864 Y104.766 E27.59181
G1 X26.048 Y101.797 E27.71054
G1 X26.105 Y101.336 E27.72908
G1 X26.65 Y98.409 E27.84791
G1 X26.757 Y97.976 E27.86571
G1 X27.594 Y95.285 E27.97819
G1 X27.755 Y94.861 E27.99629
G1 X28.971 Y92.145 E28.11506
G1 X29.189 Y91.728 E28.13384
G1 X30.731 Y89.184 E28.25257
G1 X30.994 Y88.805 E28.27098
G1 X32.833 Y86.467 E28.38971
G1 X33.133 Y86.129 E28.40774
G1 X35.126 Y84.136 E28.52024
G1 X35.462 Y83.838 E28.53816
G1 X37.802 Y81.995 E28.65705
G1 X38.185 Y81.73 E28.67563
G1 X40.728 Y80.19 E28.79429
G1 X41.143 Y79.972 E28.813
G0 F2400 X41.307 Y80.337
G1 F1200 X44.023 Y79.121 E28.93177
G1 X44.4 Y78.978 E28.94786
G1 X47.092 Y78.139 E29.0604
G1 X47.482 Y78.042 E29.07644
G1 X50.409 Y77.497 E29.19528
G1 X50.822 Y77.446 E29.21188
G1 X53.791 Y77.263 E29.33061
G1 X54.21 Y77.264 E29.34733
G1 X57.178 Y77.448 E29.46602
G1 X57.59 Y77.498 E29.48258
G1 X60.517 Y78.043 E29.60141
G1 X60.904 Y78.139 E29.61733
G1 X63.596 Y78.976 E29.72985
G1 X63.977 Y79.12 E29.7461
G1 X66.692 Y80.336 E29.86484
G1 X67.064 Y80.531 E29.8816
G1 X69.608 Y82.073 E30.00033
G1 X69.948 Y82.309 E30.01685
G1 X72.288 Y84.15 E30.13568
G1 X72.59 Y84.418 E30.1518
G1 X74.581 Y86.409 E30.26418
G1 X74.848 Y86.709 E30.28021
G1 X76.691 Y89.049 E30.39909
G1 X76.928 Y89.392 E30.41573
G1 X78.468 Y91.935 E30.53439
G1 X78.663 Y92.307 E30.55115
G1 X79.879 Y95.023 E30.66992
G1 X80.022 Y95.4 E30.68602
G1 X80.861 Y98.092 E30.79856
G1 X80.958 Y98.482 E30.8146
G1 X81.503 Y101.409 E30.93343
G1 X81.554 Y101.824 E30.95012
G1 X81.736 Y104.805 E31.06932
G1 X81.736 Y105.222 E31.08596
G1 X81.553 Y108.178 E31.20417
G1 X81.502 Y108.59 E31.22073
G1 X80.957 Y111.517 E31.33957
G1 X80.861 Y111.904 E31.35548
G1 X80.024 Y114.596 E31.468
G1 X79.88 Y114.977 E31.48425
G1 X78.664 Y117.692 E31.60299
G1 X78.469 Y118.064 E31.61975
G1 X76.927 Y120.608 E31.73848
G1 X76.691 Y120.948 E31.755
G1 X74.852 Y123.286 E31.87372
G1 X74.584 Y123.588 E31.88984
G1 X72.591 Y125.581 E32.00233
G1 X72.291 Y125.848 E32.01836
G1 X69.951 Y127.691 E32.13725
G1 X69.608 Y127.928 E32.15389
G1 X67.065 Y129.468 E32.27254
G1 X66.693 Y129.663 E32.28931
G1 X63.977 Y130.879 E32.40808
G1 X63.6 Y131.022 E32.42417
G1 X60.908 Y131.861 E32.53671
G1 X60.518 Y131.958 E32.55275
G1 X57.591 Y132.503 E32.67158
G1 X57.178 Y132.554 E32.68819
G1 X54.209 Y132.737 E32.80691
G1 X53.79 Y132.736 E32.82364
G1 X50.822 Y132.552 E32.94232
G1 X50.41 Y132.502 E32.95889
G1 X47.483 Y131.957 E33.07772
G1 X47.096 Y131.861 E33.09363
G1 X44.404 Y131.024 E33.20615
G1 X44.023 Y130.88 E33.22241
G1 X41.306 Y129.663 E33.34123
G1 X40.933 Y129.467 E33.35805
G1 X38.391 Y127.926 E33.47669
G1 X38.052 Y127.691 E33.49315
G1 X35.712 Y125.85 E33.61199
G1 X35.41 Y125.582 E33.6281
G1 X33.417 Y123.589 E33.7406
