;FLAVOR:Marlin
;TIME:1709
;Filament used: 1.02832m, 0m
;Layer height: 0.1
;POSTPROCESSED
;Generated with Cura_SteamEngine 3.6.0
T0
M140 S60
M105
M190 S60
M104 S198
M105
M109 S198
M82 ;absolute extrusion mode
; Printer start settings begin
; Calibration section to overwrite Firmware values
; Identifier CALIBR, CALRES and CALMPE, surrounded by #, + or - can be used in post processing
; #CALIBR# M92 X160 Y160 Z3200 ; +CALIBR+ Steps per unit
; #CALRESO# M201 X1000 Y1000 Z50 E1500 E1500 ; +CALRESO+ Max Accelleration
; #CALRESO# M203 X800 Y800 Z2 E90 E90 ; +CALRESO+ Max Feed
; #CALRESO# M205 X3.0 Y3.0 Z0.3 E5.0 ; +CALRESO+ Default Jerk
; #CALMPE#
M951 L32 R139 G32 N75 H300 D10 C0 ; +CALMPE+ Parking kinematic values / needs MPE kinematic to be compiled and activated in firmware
; #CALMPE#
M851 Z-0.55 ; +CALMPE+ System Z Probe Offset
; #CALMPE#
M218 T1 X0.75 Y0.0 Z0.25; +CALMPE+ T1 Nozzle offset values
; #CALMPE#
M206 X-32.00 Y0.00 Z0.00; +CALMPE+ Home Offset
; #REM#  M951 args: L: Left parking,R: Right parking, I: Grab Offset, J: Normal speed, H: High speed, D: Distance trav., C: Compenstion
; #CALMPE#
M951 L32 R140 I32 J4500 H9000 D10 C0 ; MPE Setup
; #CALMPE# M217 Z5.00 Z-Lift
G28 ;Home
G92 E5
G1 F1000 E0
; #MPE# G29 ; -MPE- Auto Bed Level, uses this if FW values are set correct.
; #MPE# G29 X3 Y3 L0 R109 F32 B168 ; +MPE+ Auto Bed Leveling, needed if not poroper defined in Firmware
G92 E-5
G1 E0 F400
G0 Z15.0 F100 ;Move the platform down 15mm
G0 X0 Y0 F9000 ;Move to front
T1
G0 X0 Y0 F9000 ;Move to front
G92 E-30
G1 F200 E0
T0
G0 X0 Y0 F9000 ;Move to front
G92 E-30
G1 F200 E0
; Printer start settings end
G92 E0
G1 F1200 E-3
;LAYER_COUNT:175
;LAYER:0
M107
G0 F2400 X47.238 Y91.616 Z0.16
;TYPE:SKIRT
G1 F1200 E0
G1 X47.747 Y91.37 E0.02256
G1 X48.783 Y90.941 E0.06732
G1 X49.314 Y90.756 E0.08976
G1 X50.392 Y90.446 E0.13453
G1 X50.937 Y90.322 E0.15684
G1 X52.044 Y90.134 E0.20165
G1 X52.6 Y90.071 E0.22399
G1 X53.719 Y90.008 E0.26872
G1 X54.281 Y90.008 E0.29115
G1 X55.4 Y90.071 E0.33588
G1 X55.956 Y90.134 E0.35821
G1 X57.063 Y90.322 E0.40303
G1 X57.608 Y90.446 E0.42534
G1 X58.686 Y90.756 E0.47011
G1 X59.216 Y90.941 E0.49251
G1 X60.25 Y91.369 E0.53718
G1 X60.759 Y91.614 E0.55972
G1 X61.74 Y92.157 E0.60447
G1 X62.212 Y92.454 E0.62673
G1 X63.127 Y93.103 E0.67151
G1 X63.565 Y93.453 E0.69388
G1 X64.401 Y94.2 E0.73863
G1 X64.798 Y94.596 E0.76101
G1 X65.546 Y95.433 E0.80581
G1 X65.895 Y95.87 E0.82813
G1 X66.544 Y96.784 E0.87287
G1 X66.842 Y97.258 E0.89522
G1 X67.385 Y98.239 E0.93997
G1 X67.63 Y98.747 E0.96248
G1 X68.059 Y99.783 E1.00724
G1 X68.244 Y100.314 E1.02968
G1 X68.554 Y101.392 E1.07445
G1 X68.679 Y101.941 E1.09692
G1 X68.864 Y103.036 E1.14124
G1 X68.925 Y103.576 E1.16293
G1 X68.991 Y104.701 E1.20791
G1 X68.992 Y105.268 E1.23054
G1 X68.931 Y106.38 E1.27499
G1 X68.867 Y106.951 E1.29792
G1 X68.672 Y108.088 E1.34397
G1 X68.548 Y108.628 E1.36608
G1 X68.24 Y109.696 E1.41044
G1 X68.051 Y110.236 E1.43328
G1 X67.616 Y111.279 E1.47838
G1 X67.375 Y111.777 E1.50046
G1 X66.836 Y112.75 E1.54486
G1 X66.54 Y113.22 E1.56703
G1 X65.891 Y114.135 E1.6118
G1 X65.535 Y114.58 E1.63455
G1 X64.787 Y115.414 E1.67926
G1 X64.395 Y115.806 E1.70138
G1 X63.557 Y116.554 E1.74622
G1 X63.116 Y116.905 E1.76871
G1 X62.202 Y117.552 E1.81341
G1 X61.732 Y117.847 E1.83556
G1 X60.748 Y118.391 E1.88043
G1 X60.24 Y118.636 E1.90294
G1 X59.205 Y119.064 E1.94764
G1 X58.659 Y119.253 E1.9707
G1 X57.567 Y119.563 E2.01601
G1 X57.03 Y119.684 E2.03798
G1 X55.923 Y119.87 E2.08278
G1 X55.36 Y119.932 E2.10539
G1 X54.229 Y119.992 E2.15059
G1 X53.671 Y119.99 E2.17286
G1 X52.579 Y119.926 E2.21652
G1 X52.037 Y119.865 E2.23829
G1 X50.939 Y119.679 E2.28274
G1 X50.392 Y119.554 E2.30513
G1 X49.314 Y119.244 E2.3499
G1 X48.783 Y119.059 E2.37235
G1 X47.747 Y118.63 E2.4171
G1 X47.236 Y118.383 E2.43975
G1 X46.258 Y117.841 E2.48438
G1 X45.791 Y117.547 E2.50641
G1 X44.874 Y116.897 E2.55127
G1 X44.433 Y116.546 E2.57376
G1 X43.596 Y115.798 E2.61857
G1 X43.2 Y115.401 E2.64095
G1 X42.453 Y114.565 E2.68569
G1 X42.103 Y114.127 E2.70807
G1 X41.454 Y113.212 E2.75284
G1 X41.157 Y112.74 E2.7751
G1 X40.614 Y111.759 E2.81985
G1 X40.369 Y111.251 E2.84236
G1 X39.94 Y110.215 E2.88712
G1 X39.754 Y109.683 E2.90961
G1 X39.444 Y108.604 E2.95442
G1 X39.32 Y108.058 E2.97676
G1 X39.133 Y106.954 E3.02145
G1 X39.071 Y106.4 E3.0437
G1 X39.008 Y105.282 E3.0884
G1 X39.008 Y104.72 E3.11083
G1 X39.071 Y103.6 E3.1556
G1 X39.133 Y103.046 E3.17785
G1 X39.32 Y101.942 E3.22254
G1 X39.444 Y101.396 E3.24489
G1 X39.754 Y100.317 E3.28969
G1 X39.94 Y99.785 E3.31219
G1 X40.369 Y98.749 E3.35694
G1 X40.614 Y98.241 E3.37945
G1 X41.157 Y97.26 E3.4242
G1 X41.454 Y96.788 E3.44646
G1 X42.103 Y95.873 E3.49123
G1 X42.453 Y95.435 E3.51361
G1 X43.2 Y94.599 E3.55836
G1 X43.596 Y94.202 E3.58074
G1 X44.433 Y93.454 E3.62554
G1 X44.871 Y93.104 E3.64792
G1 X45.787 Y92.454 E3.69275
G1 X46.259 Y92.158 E3.71498
G1 X47.238 Y91.616 E3.75965
G0 F2400 X47.432 Y91.966
G1 F1200 X47.9 Y91.74 E3.78039
G1 X48.936 Y91.311 E3.82514
G1 X49.425 Y91.14 E3.84582
G1 X50.503 Y90.83 E3.89059
G1 X51.004 Y90.716 E3.91109
G1 X52.111 Y90.528 E3.95591
G1 X52.622 Y90.47 E3.97644
G1 X53.741 Y90.407 E4.02117
G1 X54.259 Y90.407 E4.04184
G1 X55.378 Y90.47 E4.08658
G1 X55.889 Y90.528 E4.1071
G1 X56.996 Y90.716 E4.15192
G1 X57.497 Y90.83 E4.17242
G1 X58.575 Y91.14 E4.21719
G1 X59.063 Y91.311 E4.23783
G1 X60.097 Y91.739 E4.2825
G1 X60.566 Y91.964 E4.30326
G1 X61.547 Y92.507 E4.34801
G1 X61.98 Y92.78 E4.36844
G1 X62.895 Y93.429 E4.41321
G1 X63.299 Y93.751 E4.43383
G1 X64.135 Y94.498 E4.47858
G1 X64.5 Y94.863 E4.49918
G1 X65.248 Y95.7 E4.54398
G1 X65.569 Y96.102 E4.56452
G1 X66.218 Y97.016 E4.60926
G1 X66.492 Y97.451 E4.62978
G1 X67.035 Y98.432 E4.67453
G1 X67.26 Y98.9 E4.69525
G1 X67.689 Y99.936 E4.74001
G1 X67.86 Y100.425 E4.76068
G1 X68.17 Y101.503 E4.80545
G1 X68.285 Y102.008 E4.82612
G1 X68.47 Y103.103 E4.87045
G1 X68.526 Y103.6 E4.89041
G1 X68.592 Y104.725 E4.93539
G1 X68.593 Y105.246 E4.95618
G1 X68.532 Y106.358 E5.00063
G1 X68.473 Y106.884 E5.02175
G1 X68.278 Y108.021 E5.0678
G1 X68.164 Y108.518 E5.08815
G1 X67.856 Y109.586 E5.13251
G1 X67.682 Y110.082 E5.15349
G1 X67.247 Y111.125 E5.1986
G1 X67.025 Y111.583 E5.21891
G1 X66.486 Y112.556 E5.2633
G1 X66.214 Y112.988 E5.28368
G1 X65.565 Y113.903 E5.32845
G1 X65.237 Y114.313 E5.34941
G1 X64.489 Y115.147 E5.39412
G1 X64.128 Y115.508 E5.4145
G1 X63.29 Y116.256 E5.45933
G1 X62.885 Y116.579 E5.48001
G1 X61.971 Y117.226 E5.5247
G1 X61.539 Y117.497 E5.54506
G1 X60.555 Y118.041 E5.58993
G1 X60.087 Y118.266 E5.61066
G1 X59.052 Y118.694 E5.65536
G1 X58.55 Y118.868 E5.67656
G1 X57.458 Y119.178 E5.72187
G1 X56.964 Y119.289 E5.74208
G1 X55.857 Y119.475 E5.78688
G1 X55.339 Y119.533 E5.80768
G1 X54.208 Y119.593 E5.85289
G1 X53.695 Y119.591 E5.87336
G1 X52.603 Y119.527 E5.91702
G1 X52.104 Y119.47 E5.93707
G1 X51.006 Y119.284 E5.98152
G1 X50.503 Y119.17 E6.0021
G1 X49.425 Y118.86 E6.04687
G1 X48.936 Y118.689 E6.06755
G1 X47.9 Y118.26 E6.1123
G1 X47.43 Y118.033 E6.13313
G1 X46.452 Y117.491 E6.17776
G1 X46.022 Y117.221 E6.19802
G1 X45.105 Y116.571 E6.24289
G1 X44.7 Y116.248 E6.26356
G1 X43.863 Y115.5 E6.30836
G1 X43.498 Y115.135 E6.32897
G1 X42.751 Y114.299 E6.37371
G1 X42.429 Y113.895 E6.39433
G1 X41.78 Y112.98 E6.4391
G1 X41.507 Y112.547 E6.45954
G1 X40.964 Y111.566 E6.50429
G1 X40.739 Y111.098 E6.52501
G1 X40.31 Y110.062 E6.56977
G1 X40.139 Y109.572 E6.59048
G1 X39.829 Y108.493 E6.63529
G1 X39.715 Y107.991 E6.65583
G1 X39.528 Y106.887 E6.70052
G1 X39.47 Y106.378 E6.72097
G1 X39.407 Y105.26 E6.76566
G1 X39.407 Y104.743 E6.7863
G1 X39.47 Y103.623 E6.83107
G1 X39.528 Y103.113 E6.85156
G1 X39.715 Y102.009 E6.89625
G1 X39.829 Y101.507 E6.91679
G1 X40.139 Y100.428 E6.9616
G1 X40.31 Y99.938 E6.98231
G1 X40.739 Y98.902 E7.02707
G1 X40.964 Y98.434 E7.04779
G1 X41.507 Y97.453 E7.09255
G1 X41.78 Y97.02 E7.11298
G1 X42.429 Y96.105 E7.15775
G1 X42.751 Y95.701 E7.17837
G1 X43.498 Y94.865 E7.22311
G1 X43.863 Y94.5 E7.24372
G1 X44.7 Y93.752 E7.28852
G1 X45.103 Y93.431 E7.30908
G1 X46.019 Y92.781 E7.35391
G1 X46.453 Y92.508 E7.37438
G1 X47.432 Y91.966 E7.41904
G0 F2400 X47.626 Y92.316
G1 F1200 X48.053 Y92.11 E7.43796
G1 X49.089 Y91.681 E7.48271
G1 X49.535 Y91.525 E7.50157
G1 X50.613 Y91.215 E7.54634
G1 X51.071 Y91.11 E7.5651
G1 X52.178 Y90.922 E7.60991
G1 X52.645 Y90.87 E7.62866
G1 X53.764 Y90.807 E7.6734
G1 X54.236 Y90.807 E7.69224
G1 X55.355 Y90.87 E7.73697
G1 X55.822 Y90.922 E7.75572
G1 X56.929 Y91.11 E7.80054
G1 X57.387 Y91.215 E7.81929
G1 X58.465 Y91.525 E7.86406
G1 X58.91 Y91.68 E7.88287
G1 X59.944 Y92.108 E7.92753
G1 X60.372 Y92.314 E7.94649
G1 X61.353 Y92.857 E7.99124
G1 X61.749 Y93.106 E8.00991
G1 X62.664 Y93.755 E8.05469
G1 X63.032 Y94.049 E8.07349
G1 X63.868 Y94.796 E8.11823
G1 X64.202 Y95.129 E8.13706
G1 X64.95 Y95.966 E8.18186
G1 X65.243 Y96.333 E8.2006
G1 X65.892 Y97.247 E8.24534
G1 X66.142 Y97.645 E8.2641
G1 X66.685 Y98.626 E8.30885
G1 X66.89 Y99.053 E8.32776
G1 X67.319 Y100.089 E8.37251
G1 X67.475 Y100.535 E8.39137
G1 X67.785 Y101.613 E8.43614
G1 X67.89 Y102.074 E8.45501
G1 X68.075 Y103.169 E8.49933
G1 X68.127 Y103.623 E8.51757
G1 X68.193 Y104.748 E8.56255
G1 X68.194 Y105.224 E8.58155
G1 X68.133 Y106.336 E8.626
G1 X68.079 Y106.816 E8.64528
G1 X67.884 Y107.953 E8.69132
G1 X67.78 Y108.407 E8.70991
G1 X67.472 Y109.475 E8.75427
G1 X67.312 Y109.928 E8.77345
G1 X66.877 Y110.971 E8.81855
G1 X66.675 Y111.389 E8.83708
G1 X66.136 Y112.362 E8.88147
G1 X65.888 Y112.757 E8.90009
G1 X65.239 Y113.672 E8.94486
G1 X64.94 Y114.046 E8.96397
G1 X64.192 Y114.88 E9.00869
G1 X63.862 Y115.209 E9.02729
G1 X63.024 Y115.957 E9.07212
G1 X62.654 Y116.252 E9.09101
G1 X61.74 Y116.899 E9.1357
G1 X61.345 Y117.147 E9.15431
G1 X60.361 Y117.691 E9.19919
G1 X59.934 Y117.896 E9.2181
G1 X58.899 Y118.324 E9.2628
G1 X58.441 Y118.483 E9.28215
G1 X57.349 Y118.793 E9.32745
G1 X56.898 Y118.895 E9.34591
G1 X55.791 Y119.081 E9.39071
G1 X55.317 Y119.133 E9.40974
G1 X54.186 Y119.193 E9.45495
G1 X53.718 Y119.192 E9.47363
G1 X52.626 Y119.128 E9.51728
G1 X52.171 Y119.076 E9.53556
G1 X51.073 Y118.89 E9.58001
G1 X50.613 Y118.785 E9.59884
G1 X49.535 Y118.475 E9.64361
G1 X49.089 Y118.319 E9.66247
G1 X48.053 Y117.89 E9.70722
G1 X47.624 Y117.684 E9.72622
G1 X46.646 Y117.142 E9.77085
G1 X46.253 Y116.894 E9.78939
G1 X45.336 Y116.244 E9.83425
G1 X44.966 Y115.95 E9.85312
G1 X44.129 Y115.202 E9.89792
G1 X43.796 Y114.868 E9.91674
G1 X43.049 Y114.032 E9.96149
G1 X42.755 Y113.664 E9.98029
G1 X42.106 Y112.749 E10.02506
G1 X41.857 Y112.353 E10.04373
G1 X41.314 Y111.372 E10.08848
G1 X41.109 Y110.945 E10.10739
G1 X40.68 Y109.909 E10.15214
G1 X40.523 Y109.462 E10.17105
G1 X40.213 Y108.383 E10.21586
G1 X40.109 Y107.924 E10.23464
G1 X39.922 Y106.82 E10.27933
G1 X39.87 Y106.355 E10.29801
G1 X39.807 Y105.237 E10.3427
G1 X39.807 Y104.765 E10.36154
G1 X39.87 Y103.645 E10.40631
G1 X39.922 Y103.18 E10.42499
G1 X40.109 Y102.076 E10.46968
G1 X40.213 Y101.617 E10.48846
G1 X40.523 Y100.538 E10.53327
G1 X40.68 Y100.091 E10.55218
G1 X41.109 Y99.055 E10.59693
G1 X41.314 Y98.628 E10.61584
G1 X41.857 Y97.647 E10.66059
G1 X42.106 Y97.251 E10.67926
G1 X42.755 Y96.336 E10.72403
G1 X43.049 Y95.968 E10.74283
G1 X43.796 Y95.132 E10.78758
G1 X44.129 Y94.798 E10.8064
G1 X44.966 Y94.05 E10.8512
G1 X45.334 Y93.757 E10.86998
G1 X46.25 Y93.107 E10.91481
G1 X46.647 Y92.858 E10.93351
G1 X47.626 Y92.316 E10.97817
G0 F2400 X47.819 Y92.665
G1 F1200 X48.206 Y92.479 E10.99531
G1 X49.242 Y92.05 E11.04007
G1 X49.646 Y91.909 E11.05714
G1 X50.724 Y91.599 E11.10191
G1 X51.138 Y91.505 E11.11886
G1 X52.245 Y91.317 E11.16367
G1 X52.667 Y91.269 E11.18062
G1 X53.786 Y91.206 E11.22536
G1 X54.214 Y91.206 E11.24244
G1 X55.333 Y91.269 E11.28717
G1 X55.755 Y91.317 E11.30412
G1 X56.862 Y91.505 E11.34894
G1 X57.276 Y91.599 E11.36588
G1 X58.354 Y91.909 E11.41065
G1 X58.757 Y92.05 E11.42769
G1 X59.791 Y92.478 E11.47236
G1 X60.178 Y92.664 E11.48949
G1 X61.159 Y93.207 E11.53425
G1 X61.517 Y93.433 E11.55114
G1 X62.432 Y94.082 E11.59592
G1 X62.766 Y94.347 E11.61293
G1 X63.602 Y95.094 E11.65768
G1 X63.903 Y95.396 E11.6747
G1 X64.651 Y96.233 E11.7195
G1 X64.916 Y96.565 E11.73645
G1 X65.565 Y97.479 E11.7812
G1 X65.792 Y97.839 E11.79818
G1 X66.335 Y98.82 E11.84293
G1 X66.521 Y99.206 E11.86003
G1 X66.95 Y100.242 E11.90479
G1 X67.091 Y100.646 E11.92187
G1 X67.401 Y101.724 E11.96664
G1 X67.496 Y102.141 E11.98371
G1 X67.681 Y103.236 E12.02803
G1 X67.727 Y103.646 E12.0445
G1 X67.793 Y104.771 E12.08947
G1 X67.794 Y105.202 E12.10668
G1 X67.733 Y106.314 E12.15113
G1 X67.684 Y106.748 E12.16856
G1 X67.489 Y107.885 E12.2146
G1 X67.395 Y108.296 E12.23143
G1 X67.087 Y109.364 E12.27579
G1 X66.943 Y109.774 E12.29313
G1 X66.508 Y110.817 E12.33824
G1 X66.325 Y111.195 E12.355
G1 X65.786 Y112.168 E12.3994
G1 X65.561 Y112.525 E12.41624
G1 X64.912 Y113.44 E12.46101
G1 X64.642 Y113.779 E12.47831
G1 X63.894 Y114.613 E12.52302
G1 X63.595 Y114.911 E12.53987
G1 X62.757 Y115.659 E12.5847
G1 X62.423 Y115.926 E12.60177
G1 X61.509 Y116.573 E12.64646
G1 X61.152 Y116.797 E12.66328
G1 X60.168 Y117.341 E12.70816
G1 X59.781 Y117.527 E12.7253
G1 X58.746 Y117.955 E12.77
G1 X58.332 Y118.099 E12.78749
G1 X57.24 Y118.409 E12.8328
G1 X56.832 Y118.5 E12.84948
G1 X55.725 Y118.686 E12.89429
G1 X55.296 Y118.734 E12.91152
G1 X54.165 Y118.794 E12.95672
G1 X53.742 Y118.792 E12.9736
G1 X52.65 Y118.728 E13.01726
G1 X52.237 Y118.682 E13.03385
G1 X51.139 Y118.496 E13.0783
G1 X50.724 Y118.401 E13.09529
G1 X49.646 Y118.091 E13.14006
G1 X49.242 Y117.95 E13.15714
G1 X48.206 Y117.521 E13.20189
G1 X47.818 Y117.334 E13.21908
G1 X46.84 Y116.792 E13.26371
G1 X46.485 Y116.568 E13.28046
G1 X45.568 Y115.918 E13.32532
G1 X45.233 Y115.651 E13.34242
G1 X44.396 Y114.903 E13.38722
G1 X44.094 Y114.602 E13.40424
G1 X43.347 Y113.766 E13.44899
G1 X43.082 Y113.432 E13.466
G1 X42.433 Y112.517 E13.51078
G1 X42.207 Y112.159 E13.52767
G1 X41.664 Y111.178 E13.57243
G1 X41.478 Y110.792 E13.58953
G1 X41.049 Y109.756 E13.63428
G1 X40.908 Y109.351 E13.6514
G1 X40.598 Y108.272 E13.69621
G1 X40.503 Y107.858 E13.71316
G1 X40.316 Y106.754 E13.75785
G1 X40.269 Y106.333 E13.77476
G1 X40.206 Y105.215 E13.81945
G1 X40.206 Y104.788 E13.83649
G1 X40.269 Y103.668 E13.88126
G1 X40.316 Y103.246 E13.89821
G1 X40.503 Y102.142 E13.9429
G1 X40.598 Y101.728 E13.95985
G1 X40.908 Y100.649 E14.00466
G1 X41.049 Y100.244 E14.02178
G1 X41.478 Y99.208 E14.06653
G1 X41.664 Y98.822 E14.08363
G1 X42.207 Y97.841 E14.12838
G1 X42.433 Y97.483 E14.14528
G1 X43.082 Y96.568 E14.19006
G1 X43.347 Y96.234 E14.20707
G1 X44.094 Y95.398 E14.25182
G1 X44.396 Y95.097 E14.26884
G1 X45.233 Y94.349 E14.31364
G1 X45.566 Y94.083 E14.33065
G1 X46.482 Y93.433 E14.37548
G1 X46.84 Y93.207 E14.39238
G1 X47.819 Y92.665 E14.43704
G0 F2400 X48.013 Y93.015
G1 F1200 X48.359 Y92.849 E14.45236
G1 X49.395 Y92.42 E14.49711
G1 X49.756 Y92.293 E14.51238
G1 X50.834 Y91.983 E14.55715
G1 X51.205 Y91.899 E14.57233
G1 X52.312 Y91.711 E14.61715
G1 X52.69 Y91.668 E14.63233
G1 X53.809 Y91.605 E14.67707
G1 X54.191 Y91.605 E14.69231
G1 X55.31 Y91.668 E14.73705
G1 X55.688 Y91.711 E14.75223
G1 X56.795 Y91.899 E14.79704
G1 X57.166 Y91.983 E14.81223
G1 X58.244 Y92.293 E14.857
G1 X58.604 Y92.419 E14.87222
G1 X59.638 Y92.847 E14.91688
G1 X59.985 Y93.014 E14.93225
G1 X60.966 Y93.557 E14.97701
G1 X61.286 Y93.759 E14.99211
G1 X62.201 Y94.408 E15.03688
G1 X62.499 Y94.646 E15.0521
G1 X63.335 Y95.393 E15.09685
G1 X63.605 Y95.662 E15.11206
G1 X64.353 Y96.499 E15.15686
G1 X64.59 Y96.797 E15.17206
G1 X65.239 Y97.711 E15.2168
G1 X65.442 Y98.032 E15.23196
G1 X65.985 Y99.013 E15.27671
G1 X66.151 Y99.359 E15.29203
G1 X66.58 Y100.395 E15.33678
G1 X66.707 Y100.756 E15.35206
G1 X67.017 Y101.834 E15.39683
G1 X67.101 Y102.208 E15.41213
G1 X67.286 Y103.303 E15.45645
G1 X67.328 Y103.67 E15.47119
G1 X67.394 Y104.795 E15.51617
G1 X67.395 Y105.18 E15.53154
G1 X67.334 Y106.292 E15.57599
G1 X67.29 Y106.681 E15.59161
G1 X67.095 Y107.818 E15.63765
G1 X67.011 Y108.185 E15.65268
G1 X66.703 Y109.253 E15.69704
G1 X66.574 Y109.62 E15.71257
G1 X66.139 Y110.663 E15.75767
G1 X65.975 Y111.002 E15.7727
G1 X65.436 Y111.975 E15.8171
