;FLAVOR:Marlin
;TIME:3348
;Filament used: 1.99156m, 0m
;Layer height: 0.12
;POSTPROCESSED
;Generated with Cura_SteamEngine 3.6.0
T0
M140 S60
M105
M190 S60
M104 S184
M105
M109 S184
M82 ;absolute extrusion mode
; Printer start settings begin
; Calibration section to overwrite Firmware values
; Identifier CALIBR, CALRES and CALMPE, surrounded by #, + or - can be used in post processing
; #CALIBR# M92 X160 Y160 Z3200 ; +CALIBR+ Steps per unit
; #CALRESO# M201 X1000 Y1000 Z50 E1500 E1500 ; +CALRESO+ Max Accelleration
; #CALRESO# M203 X800 Y800 Z2 E90 E90 ; +CALRESO+ Max Feed
; #CALRESO# M205 X3.0 Y3.0 Z0.3 E5.0 ; +CALRESO+ Default Jerk
; #CALMPE#
M951 L32 R139 G32 N75 H300 D10 C0 ; +CALMPE+ Parking kinematic values / needs MPE kinematic to be compiled and activated in firmware
; #CALMPE#
M851 Z-0.55 ; +CALMPE+ System Z Probe Offset
; #CALMPE#
M218 T1 X0.75 Y0.0 Z0.25; +CALMPE+ T1 Nozzle offset values
; #CALMPE#
M206 X-32.00 Y0.00 Z0.00; +CALMPE+ Home Offset
; #REM#  M951 args: L: Left parking,R: Right parking, I: Grab Offset, J: Normal speed, H: High speed, D: Distance trav., C: Compenstion
; #CALMPE#
M951 L32 R140 I32 J4500 H9000 D10 C0 ; MPE Setup
; #CALMPE# M217 Z5.00 Z-Lift
G28 ;Home
G92 E5
G1 F1000 E0
; #MPE# G29 ; -MPE- Auto Bed Level, uses this if FW values are set correct.
; #MPE# G29 X3 Y3 L0 R109 F32 B168 ; +MPE+ Auto Bed Leveling, needed if not poroper defined in Firmware
G92 E-5
G1 E0 F400
G0 Z15.0 F100 ;Move the platform down 15mm
G0 X0 Y0 F9000 ;Move to front
T1
G0 X0 Y0 F9000 ;Move to front
G92 E-30
G1 F200 E0
T0
G0 X0 Y0 F9000 ;Move to front
G92 E-30
G1 F200 E0
; Printer start settings end
G92 E0
G1 F1200 E-3
;LAYER_COUNT:84
;LAYER:0
M107
G0 F2400 X38.986 Y75.858 Z0.16
;TYPE:SKIRT
G1 F1200 E0
G1 X41.471 Y74.707 E0.1093
G1 X42.268 Y74.39 E0.14354
G1 X44.849 Y73.524 E0.2522
G1 X45.651 Y73.302 E0.28541
G1 X48.283 Y72.722 E0.39298
G1 X49.126 Y72.584 E0.42707
G1 X51.825 Y72.293 E0.53542
G1 X52.664 Y72.248 E0.56895
G1 X55.364 Y72.249 E0.67672
G1 X56.206 Y72.295 E0.71037
G1 X58.904 Y72.589 E0.81869
G1 X59.743 Y72.727 E0.85263
G1 X62.375 Y73.309 E0.96022
G1 X63.178 Y73.532 E0.99348
G1 X65.758 Y74.4 E1.10212
G1 X66.552 Y74.717 E1.13625
G1 X68.998 Y75.851 E1.24385
G1 X69.739 Y76.244 E1.27733
G1 X72.057 Y77.639 E1.38531
G1 X72.76 Y78.116 E1.41921
G1 X74.91 Y79.753 E1.52707
G1 X75.55 Y80.297 E1.56059
G1 X77.529 Y82.172 E1.6694
G1 X78.111 Y82.786 E1.70317
G1 X79.846 Y84.83 E1.81017
G1 X80.355 Y85.501 E1.84379
G1 X81.883 Y87.755 E1.95247
G1 X82.326 Y88.493 E1.98683
G1 X83.607 Y90.922 E2.09643
G1 X83.952 Y91.669 E2.12927
G1 X84.926 Y94.109 E2.23413
G1 X85.196 Y94.908 E2.26779
G1 X85.929 Y97.539 E2.3768
G1 X86.113 Y98.372 E2.41085
G1 X86.546 Y101.017 E2.51782
G1 X86.636 Y101.847 E2.55114
G1 X86.787 Y104.585 E2.66059
G1 X86.788 Y105.437 E2.69459
G1 X86.642 Y108.133 E2.80235
G1 X86.551 Y108.969 E2.83592
G1 X86.116 Y111.631 E2.94357
G1 X85.933 Y112.461 E2.97749
G1 X85.206 Y115.078 E3.0859
G1 X84.938 Y115.875 E3.11946
G1 X83.938 Y118.387 E3.22737
G1 X83.583 Y119.155 E3.26114
G1 X82.314 Y121.549 E3.36928
G1 X81.878 Y122.273 E3.40301
G1 X80.354 Y124.521 E3.51141
G1 X79.847 Y125.189 E3.54488
G1 X78.11 Y127.237 E3.65206
G1 X77.527 Y127.853 E3.68591
G1 X75.551 Y129.726 E3.79458
G1 X74.906 Y130.274 E3.82836
G1 X72.752 Y131.912 E3.93637
G1 X72.05 Y132.388 E3.97022
G1 X69.74 Y133.777 E4.0778
G1 X68.998 Y134.17 E4.11131
G1 X66.536 Y135.31 E4.2196
G1 X65.748 Y135.624 E4.25345
G1 X63.176 Y136.49 E4.36177
G1 X62.366 Y136.715 E4.39532
G1 X59.734 Y137.295 E4.50289
G1 X58.9 Y137.432 E4.53663
G1 X56.202 Y137.726 E4.64495
G1 X55.366 Y137.772 E4.67836
G1 X52.667 Y137.775 E4.78609
G1 X51.813 Y137.729 E4.82022
G1 X49.106 Y137.434 E4.9289
G1 X48.267 Y137.296 E4.96284
G1 X45.616 Y136.71 E5.0712
G1 X44.81 Y136.486 E5.10459
G1 X42.251 Y135.624 E5.21236
G1 X41.463 Y135.31 E5.24622
G1 X38.978 Y134.159 E5.35552
G1 X38.235 Y133.765 E5.38909
G1 X35.999 Y132.42 E5.49323
G1 X35.309 Y131.953 E5.52649
G1 X33.117 Y130.292 E5.63625
G1 X32.468 Y129.741 E5.67023
G1 X30.506 Y127.885 E5.77803
G1 X29.924 Y127.272 E5.81176
G1 X28.169 Y125.208 E5.9199
G1 X27.658 Y124.537 E5.95356
G1 X26.137 Y122.297 E6.06163
G1 X25.7 Y121.572 E6.09541
G1 X24.43 Y119.179 E6.20354
G1 X24.078 Y118.418 E6.237
G1 X23.073 Y115.905 E6.34503
G1 X22.801 Y115.101 E6.3789
G1 X22.073 Y112.486 E6.48724
G1 X21.89 Y111.655 E6.5212
G1 X21.454 Y108.993 E6.62887
G1 X21.363 Y108.162 E6.66223
G1 X21.214 Y105.463 E6.77012
G1 X21.213 Y104.62 E6.80376
G1 X21.357 Y101.906 E6.91224
G1 X21.446 Y101.071 E6.94575
G1 X21.877 Y98.412 E7.05327
G1 X22.062 Y97.57 E7.08767
G1 X22.788 Y94.959 E7.19584
G1 X23.054 Y94.17 E7.22907
G1 X24.052 Y91.657 E7.33699
G1 X24.408 Y90.885 E7.37092
G1 X25.681 Y88.482 E7.47945
G1 X26.118 Y87.755 E7.51331
G1 X27.658 Y85.484 E7.62282
G1 X28.168 Y84.813 E7.65646
G1 X29.902 Y82.771 E7.76338
G1 X30.484 Y82.157 E7.79715
G1 X32.451 Y80.294 E7.90528
G1 X33.094 Y79.748 E7.93895
G1 X35.244 Y78.113 E8.04675
G1 X35.938 Y77.642 E8.08023
G1 X38.237 Y76.256 E8.18737
G1 X38.986 Y75.858 E8.22122
G0 F2400 X39.154 Y76.221
G1 F1200 X41.639 Y75.07 E8.33053
G1 X42.395 Y74.769 E8.36301
G1 X44.976 Y73.903 E8.47166
G1 X45.738 Y73.692 E8.50322
G1 X48.37 Y73.112 E8.61079
G1 X49.169 Y72.982 E8.6431
G1 X51.868 Y72.691 E8.75145
G1 X52.664 Y72.648 E8.78326
G1 X55.364 Y72.649 E8.89103
G1 X56.163 Y72.693 E8.92296
G1 X58.861 Y72.987 E9.03128
G1 X59.657 Y73.118 E9.06348
G1 X62.289 Y73.7 E9.17107
G1 X63.051 Y73.911 E9.20263
G1 X65.631 Y74.779 E9.31127
G1 X66.384 Y75.079 E9.34362
G1 X68.83 Y76.213 E9.45123
G1 X69.533 Y76.587 E9.48301
G1 X71.851 Y77.982 E9.59099
G1 X72.518 Y78.434 E9.62315
G1 X74.668 Y80.071 E9.731
G1 X75.275 Y80.587 E9.7628
G1 X77.254 Y82.462 E9.87161
G1 X77.806 Y83.045 E9.90365
G1 X79.541 Y85.089 E10.01066
G1 X80.024 Y85.726 E10.04256
G1 X81.552 Y87.98 E10.15125
G1 X81.973 Y88.68 E10.18385
G1 X83.254 Y91.109 E10.29345
G1 X83.581 Y91.818 E10.32462
G1 X84.555 Y94.258 E10.42947
G1 X84.811 Y95.015 E10.46137
G1 X85.544 Y97.646 E10.57038
G1 X85.718 Y98.436 E10.60266
G1 X86.151 Y101.081 E10.70963
G1 X86.237 Y101.87 E10.74131
G1 X86.388 Y104.608 E10.85076
G1 X86.388 Y105.415 E10.88297
G1 X86.242 Y108.111 E10.99073
G1 X86.156 Y108.904 E11.02256
G1 X85.721 Y111.566 E11.13022
G1 X85.548 Y112.354 E11.16242
G1 X84.821 Y114.971 E11.27082
G1 X84.566 Y115.727 E11.30267
G1 X83.566 Y118.239 E11.41058
G1 X83.229 Y118.968 E11.44263
G1 X81.96 Y121.362 E11.55078
G1 X81.547 Y122.048 E11.58274
G1 X80.023 Y124.296 E11.69113
G1 X79.542 Y124.931 E11.72293
G1 X77.805 Y126.979 E11.83011
G1 X77.252 Y127.563 E11.86221
G1 X75.276 Y129.436 E11.97088
G1 X74.664 Y129.955 E12.0029
G1 X72.51 Y131.593 E12.11091
G1 X71.844 Y132.045 E12.14303
G1 X69.534 Y133.434 E12.25061
G1 X68.83 Y133.807 E12.28241
G1 X66.368 Y134.947 E12.3907
G1 X65.62 Y135.245 E12.42283
G1 X63.048 Y136.111 E12.53115
G1 X62.279 Y136.325 E12.56301
G1 X59.647 Y136.905 E12.67058
G1 X58.857 Y137.034 E12.70253
G1 X56.159 Y137.328 E12.81085
G1 X55.365 Y137.372 E12.84259
G1 X52.666 Y137.375 E12.95031
G1 X51.856 Y137.331 E12.98269
G1 X49.149 Y137.036 E13.09137
G1 X48.354 Y136.906 E13.12352
G1 X45.703 Y136.32 E13.23188
G1 X44.938 Y136.107 E13.26358
G1 X42.379 Y135.245 E13.37135
G1 X41.631 Y134.947 E13.40349
G1 X39.146 Y133.796 E13.51279
G1 X38.442 Y133.422 E13.54461
G1 X36.206 Y132.077 E13.64875
G1 X35.551 Y131.634 E13.68031
G1 X33.359 Y129.973 E13.79008
G1 X32.743 Y129.451 E13.82231
G1 X30.781 Y127.595 E13.9301
G1 X30.228 Y127.013 E13.96214
G1 X28.473 Y124.949 E14.07028
G1 X27.989 Y124.312 E14.10221
G1 X26.468 Y122.072 E14.21027
G1 X26.053 Y121.384 E14.24234
G1 X24.783 Y118.991 E14.35047
G1 X24.449 Y118.27 E14.38218
G1 X23.444 Y115.757 E14.4902
G1 X23.186 Y114.994 E14.52235
G1 X22.458 Y112.379 E14.63069
G1 X22.284 Y111.59 E14.66294
G1 X21.848 Y108.928 E14.7706
G1 X21.762 Y108.14 E14.80224
G1 X21.613 Y105.441 E14.91012
G1 X21.612 Y104.641 E14.94205
G1 X21.756 Y101.927 E15.05053
G1 X21.841 Y101.135 E15.08232
G1 X22.272 Y98.476 E15.18983
G1 X22.447 Y97.678 E15.22244
G1 X23.173 Y95.067 E15.3306
G1 X23.425 Y94.318 E15.36214
G1 X24.423 Y91.805 E15.47006
G1 X24.762 Y91.072 E15.50229
G1 X26.035 Y88.669 E15.61083
G1 X26.449 Y87.98 E15.64291
G1 X27.989 Y85.709 E15.75243
G1 X28.473 Y85.072 E15.78436
G1 X30.207 Y83.03 E15.89128
G1 X30.759 Y82.447 E15.92332
G1 X32.726 Y80.584 E16.03145
G1 X33.336 Y80.067 E16.06337
G1 X35.486 Y78.432 E16.17117
G1 X36.144 Y77.985 E16.20292
G1 X38.443 Y76.599 E16.31007
G1 X39.154 Y76.221 E16.3422
G0 F2400 X39.322 Y76.584
G1 F1200 X41.807 Y75.433 E16.45151
G1 X42.522 Y75.149 E16.48221
G1 X45.103 Y74.283 E16.59087
G1 X45.824 Y74.083 E16.62073
G1 X48.456 Y73.503 E16.7283
G1 X49.212 Y73.379 E16.75888
G1 X51.911 Y73.088 E16.86723
G1 X52.664 Y73.048 E16.89732
G1 X55.364 Y73.049 E17.00509
G1 X56.119 Y73.09 E17.03526
G1 X58.817 Y73.384 E17.14359
G1 X59.57 Y73.508 E17.17404
G1 X62.202 Y74.09 E17.28163
G1 X62.923 Y74.29 E17.31149
G1 X65.503 Y75.158 E17.42014
G1 X66.215 Y75.442 E17.45073
G1 X68.661 Y76.576 E17.55834
G1 X69.326 Y76.929 E17.58839
G1 X71.644 Y78.324 E17.69637
G1 X72.276 Y78.753 E17.72685
G1 X74.426 Y80.39 E17.83471
G1 X74.999 Y80.878 E17.86475
G1 X76.978 Y82.753 E17.97355
G1 X77.501 Y83.304 E18.00388
G1 X79.236 Y85.348 E18.11088
G1 X79.693 Y85.95 E18.14105
G1 X81.221 Y88.204 E18.24973
G1 X81.619 Y88.867 E18.2806
G1 X82.9 Y91.296 E18.3902
G1 X83.209 Y91.966 E18.41965
G1 X84.183 Y94.406 E18.52451
G1 X84.425 Y95.122 E18.55467
G1 X85.158 Y97.753 E18.66368
G1 X85.323 Y98.501 E18.69425
G1 X85.756 Y101.146 E18.80122
G1 X85.837 Y101.892 E18.83117
G1 X85.988 Y104.63 E18.94062
G1 X85.989 Y105.394 E18.97111
G1 X85.843 Y108.09 E19.07887
G1 X85.761 Y108.84 E19.10899
G1 X85.326 Y111.502 E19.21664
G1 X85.163 Y112.247 E19.24708
G1 X84.436 Y114.864 E19.35548
G1 X84.195 Y115.579 E19.3856
G1 X83.195 Y118.091 E19.49351
G1 X82.876 Y118.78 E19.52381
G1 X81.607 Y121.174 E19.63196
G1 X81.216 Y121.824 E19.66223
G1 X79.692 Y124.072 E19.77063
G1 X79.236 Y124.672 E19.80071
G1 X77.499 Y126.72 E19.90789
G1 X76.977 Y127.272 E19.93821
G1 X75.001 Y129.145 E20.04688
G1 X74.422 Y129.637 E20.0772
G1 X72.268 Y131.275 E20.18521
G1 X71.638 Y131.702 E20.21558
G1 X69.328 Y133.091 E20.32317
G1 X68.662 Y133.444 E20.35325
G1 X66.2 Y134.584 E20.46154
G1 X65.493 Y134.866 E20.49192
G1 X62.921 Y135.732 E20.60023
G1 X62.193 Y135.934 E20.63039
G1 X59.561 Y136.514 E20.73796
G1 X58.813 Y136.637 E20.76821
G1 X56.115 Y136.931 E20.87653
G1 X55.365 Y136.972 E20.90651
G1 X52.666 Y136.975 E21.01423
G1 X51.9 Y136.934 E21.04485
G1 X49.193 Y136.639 E21.15353
G1 X48.44 Y136.515 E21.18399
G1 X45.789 Y135.929 E21.29235
G1 X45.065 Y135.728 E21.32234
G1 X42.506 Y134.866 E21.43012
G1 X41.799 Y134.584 E21.4605
G1 X39.314 Y133.433 E21.5698
G1 X38.648 Y133.079 E21.5999
G1 X36.412 Y131.734 E21.70405
G1 X35.792 Y131.315 E21.73391
G1 X33.6 Y129.654 E21.84368
G1 X33.018 Y129.16 E21.87415
G1 X31.056 Y127.304 E21.98194
G1 X30.533 Y126.753 E22.01226
G1 X28.778 Y124.689 E22.1204
G1 X28.32 Y124.087 E22.15059
G1 X26.799 Y121.847 E22.25865
G1 X26.407 Y121.197 E22.28895
G1 X25.137 Y118.804 E22.39708
G1 X24.82 Y118.121 E22.42713
G1 X23.815 Y115.608 E22.53515
G1 X23.571 Y114.886 E22.56557
G1 X22.843 Y112.271 E22.67391
G1 X22.679 Y111.525 E22.70439
G1 X22.243 Y108.863 E22.81206
G1 X22.162 Y108.118 E22.84197
G1 X22.013 Y105.419 E22.94985
G1 X22.012 Y104.662 E22.98007
G1 X22.156 Y101.948 E23.08854
G1 X22.236 Y101.199 E23.1186
G1 X22.667 Y98.54 E23.22612
G1 X22.833 Y97.785 E23.25697
G1 X23.559 Y95.174 E23.36513
G1 X23.797 Y94.465 E23.39498
G1 X24.795 Y91.952 E23.5029
G1 X25.115 Y91.259 E23.53337
G1 X26.388 Y88.856 E23.6419
G1 X26.78 Y88.204 E23.67227
G1 X28.32 Y85.933 E23.78178
G1 X28.778 Y85.331 E23.81197
G1 X30.512 Y83.289 E23.91889
G1 X31.034 Y82.738 E23.94919
G1 X33.001 Y80.875 E24.05732
G1 X33.578 Y80.385 E24.08753
G1 X35.728 Y78.75 E24.19534
G1 X36.351 Y78.327 E24.22539
G1 X38.65 Y76.941 E24.33253
G1 X39.322 Y76.584 E24.36291
G0 F2400 X39.49 Y76.947
G1 F1200 X41.975 Y75.796 E24.47221
G1 X42.65 Y75.528 E24.5012
G1 X45.231 Y74.662 E24.60985
G1 X45.91 Y74.474 E24.63797
G1 X48.542 Y73.894 E24.74554
G1 X49.255 Y73.777 E24.77438
G1 X51.954 Y73.486 E24.88273
G1 X52.663 Y73.448 E24.91107
G1 X55.363 Y73.449 E25.01883
G1 X56.076 Y73.488 E25.04733
G1 X58.774 Y73.782 E25.15565
G1 X59.484 Y73.899 E25.18437
G1 X62.116 Y74.481 E25.29196
G1 X62.796 Y74.67 E25.32012
G1 X65.376 Y75.538 E25.42877
G1 X66.047 Y75.805 E25.45759
G1 X68.493 Y76.939 E25.5652
G1 X69.12 Y77.272 E25.59353
G1 X71.438 Y78.667 E25.70151
G1 X72.033 Y79.071 E25.73022
G1 X74.183 Y80.708 E25.83807
G1 X74.724 Y81.168 E25.86641
G1 X76.703 Y83.043 E25.97522
G1 X77.196 Y83.563 E26.00382
G1 X78.931 Y85.607 E26.11083
G1 X79.362 Y86.175 E26.13929
G1 X80.89 Y88.429 E26.24797
G1 X81.265 Y89.053 E26.27703
G1 X82.546 Y91.482 E26.38663
G1 X82.838 Y92.114 E26.41442
G1 X83.812 Y94.554 E26.51927
G1 X84.04 Y95.23 E26.54775
G1 X84.773 Y97.861 E26.65676
G1 X84.928 Y98.566 E26.68557
G1 X85.361 Y101.211 E26.79254
G1 X85.438 Y101.914 E26.82077
G1 X85.589 Y104.652 E26.93021
G1 X85.589 Y105.372 E26.95895
G1 X85.443 Y108.068 E27.06671
G1 X85.367 Y108.775 E27.09509
G1 X84.932 Y111.437 E27.20274
G1 X84.777 Y112.14 E27.23148
G1 X84.05 Y114.757 E27.33988
G1 X83.823 Y115.431 E27.36827
G1 X82.823 Y117.943 E27.47618
G1 X82.522 Y118.593 E27.50477
G1 X81.253 Y120.987 E27.61291
G1 X80.885 Y121.6 E27.64145
G1 X79.361 Y123.848 E27.74985
G1 X78.931 Y124.413 E27.77818
G1 X77.194 Y126.461 E27.88536
G1 X76.701 Y126.982 E27.91399
G1 X74.725 Y128.855 E28.02266
G1 X74.18 Y129.319 E28.05123
G1 X72.026 Y130.957 E28.15923
G1 X71.432 Y131.359 E28.18786
G1 X69.122 Y132.748 E28.29544
G1 X68.494 Y133.081 E28.32381
G1 X66.032 Y134.221 E28.4321
G1 X65.365 Y134.487 E28.46076
G1 X62.793 Y135.353 E28.56907
G1 X62.107 Y135.543 E28.59748
G1 X59.475 Y136.123 E28.70505
G1 X58.77 Y136.239 E28.73357
G1 X56.072 Y136.533 E28.84189
G1 X55.364 Y136.572 E28.87019
G1 X52.665 Y136.575 E28.97791
G1 X51.943 Y136.536 E29.00677
G1 X49.236 Y136.241 E29.11545
G1 X48.526 Y136.124 E29.14417
G1 X45.875 Y135.538 E29.25254
G1 X45.193 Y135.349 E29.28078
G1 X42.634 Y134.487 E29.38856
G1 X41.967 Y134.221 E29.41722
G1 X39.482 Y133.07 E29.52652
G1 X38.854 Y132.737 E29.55489
G1 X36.618 Y131.392 E29.65904
G1 X36.034 Y130.996 E29.6872
G1 X33.842 Y129.335 E29.79697
G1 X33.292 Y128.87 E29.82571
G1 X31.33 Y127.014 E29.9335
G1 X30.838 Y126.494 E29.96208
G1 X29.083 Y124.43 E30.07021
G1 X28.651 Y123.863 E30.09866
G1 X27.13 Y121.623 E30.20673
G1 X26.76 Y121.009 E30.23534
G1 X25.49 Y118.616 E30.34346
G1 X25.192 Y117.973 E30.37175
G1 X24.187 Y115.46 E30.47977
G1 X23.957 Y114.779 E30.50846
G1 X23.229 Y112.164 E30.6168
G1 X23.074 Y111.461 E30.64553
G1 X22.638 Y108.799 E30.75319
G1 X22.561 Y108.096 E30.78142
G1 X22.412 Y105.397 E30.88931
G1 X22.411 Y104.683 E30.9178
G1 X22.555 Y101.969 E31.02628
G1 X22.631 Y101.263 E31.05462
G1 X23.062 Y98.604 E31.16213
G1 X23.218 Y97.892 E31.19122
G1 X23.944 Y95.281 E31.29939
G1 X24.169 Y94.613 E31.32752
G1 X25.167 Y92.1 E31.43544
G1 X25.469 Y91.446 E31.46419
G1 X26.742 Y89.043 E31.57273
G1 X27.112 Y88.429 E31.60134
G1 X28.652 Y86.158 E31.71085
G1 X29.083 Y85.59 E31.73931
G1 X30.817 Y83.548 E31.84623
G1 X31.309 Y83.028 E31.8748
G1 X33.276 Y81.165 E31.98293
G1 X33.82 Y80.704 E32.01139
G1 X35.97 Y79.069 E32.1192
G1 X36.557 Y78.67 E32.14753
G1 X38.856 Y77.284 E32.25467
G1 X39.49 Y76.947 E32.28333
G0 F2400 X39.658 Y77.31
G1 F1200 X42.143 Y76.159 E32.39263
G1 X42.777 Y75.907 E32.41986
G1 X45.358 Y75.041 E32.52852
G1 X45.996 Y74.864 E32.55494
G1 X48.628 Y74.284 E32.66251
G1 X49.297 Y74.175 E32.68957
G1 X51.996 Y73.884 E32.79791
G1 X52.663 Y73.848 E32.82457
G1 X55.363 Y73.849 E32.93234
G1 X56.033 Y73.885 E32.95912
G1 X58.731 Y74.179 E33.06744
G1 X59.398 Y74.289 E33.09442
G1 X62.03 Y74.871 E33.202
G1 X62.668 Y75.049 E33.22844
G1 X65.248 Y75.917 E33.33709
G1 X65.879 Y76.168 E33.36419
G1 X68.325 Y77.302 E33.4718
G1 X68.914 Y77.615 E33.49842
G1 X71.232 Y79.01 E33.6064
G1 X71.791 Y79.389 E33.63335
G1 X73.941 Y81.026 E33.7412
G1 X74.449 Y81.458 E33.76782
G1 X76.428 Y83.333 E33.87663
G1 X76.891 Y83.822 E33.90351
G1 X78.626 Y85.866 E34.01051
