;FLAVOR:Marlin
;TIME:2126
;Filament used: 1.36892m, 0m
;Layer height: 0.1
;POSTPROCESSED
;Generated with Cura_SteamEngine 3.6.0
T0
M140 S60
M105
M190 S60
M104 S184
M105
M109 S184
M82 ;absolute extrusion mode
; Printer start settings begin
; Calibration section to overwrite Firmware values
; Identifier CALIBR, CALRES and CALMPE, surrounded by #, + or - can be used in post processing
; #CALIBR# M92 X160 Y160 Z3200 ; +CALIBR+ Steps per unit
; #CALRESO# M201 X1000 Y1000 Z50 E1500 E1500 ; +CALRESO+ Max Accelleration
; #CALRESO# M203 X800 Y800 Z2 E90 E90 ; +CALRESO+ Max Feed
; #CALRESO# M205 X3.0 Y3.0 Z0.3 E5.0 ; +CALRESO+ Default Jerk
; #CALMPE#
M951 L32 R139 G32 N75 H300 D10 C0 ; +CALMPE+ Parking kinematic values / needs MPE kinematic to be compiled and activated in firmware
; #CALMPE#
M851 Z-0.55 ; +CALMPE+ System Z Probe Offset
; #CALMPE#
M218 T1 X0.75 Y0.0 Z0.25; +CALMPE+ T1 Nozzle offset values
; #CALMPE#
M206 X-32.00 Y0.00 Z0.00; +CALMPE+ Home Offset
; #REM#  M951 args: L: Left parking,R: Right parking, I: Grab Offset, J: Normal speed, H: High speed, D: Distance trav., C: Compenstion
; #CALMPE#
M951 L32 R140 I32 J4500 H9000 D10 C0 ; MPE Setup
; #CALMPE# M217 Z5.00 Z-Lift
G28 ;Home
G92 E5
G1 F1000 E0
; #MPE# G29 ; -MPE- Auto Bed Level, uses this if FW values are set correct.
; #MPE# G29 X3 Y3 L0 R109 F32 B168 ; +MPE+ Auto Bed Leveling, needed if not poroper defined in Firmware
G92 E-5
G1 E0 F400
G0 Z15.0 F100 ;Move the platform down 15mm
G0 X0 Y0 F9000 ;Move to front
T1
G0 X0 Y0 F9000 ;Move to front
G92 E-30
G1 F200 E0
T0
G0 X0 Y0 F9000 ;Move to front
G92 E-30
G1 F200 E0
; Printer start settings end
G92 E0
G1 F1200 E-3
;LAYER_COUNT:70
;LAYER:0
M107
G0 F2400 X36.746 Y74.518 Z0.16
;TYPE:SKIRT
G1 F1200 E0
G1 X39.356 Y73.192 E0.11684
G1 X40.111 Y72.857 E0.14981
G1 X42.848 Y71.814 E0.26671
G1 X43.64 Y71.56 E0.29991
G1 X46.469 Y70.815 E0.41667
G1 X47.283 Y70.646 E0.44985
G1 X50.179 Y70.206 E0.56676
G1 X51.004 Y70.126 E0.59985
G1 X53.927 Y69.996 E0.71662
G1 X54.759 Y70.003 E0.74983
G1 X57.68 Y70.185 E0.86664
G1 X58.502 Y70.28 E0.89967
G1 X61.39 Y70.771 E1.01659
G1 X62.203 Y70.955 E1.04986
G1 X65.018 Y71.75 E1.16661
G1 X65.803 Y72.017 E1.1997
G1 X68.519 Y73.107 E1.3165
G1 X69.272 Y73.457 E1.34965
G1 X71.858 Y74.83 E1.4665
G1 X72.569 Y75.257 E1.49961
G1 X74.996 Y76.898 E1.61654
G1 X75.656 Y77.398 E1.64958
G1 X77.892 Y79.284 E1.76634
G1 X78.501 Y79.856 E1.79968
G1 X80.523 Y81.971 E1.91647
G1 X81.064 Y82.601 E1.94961
G1 X82.852 Y84.922 E2.06655
G1 X83.32 Y85.6 E2.09943
G1 X84.851 Y88.093 E2.21619
G1 X85.249 Y88.828 E2.24955
G1 X86.505 Y91.472 E2.36638
G1 X86.821 Y92.238 E2.39946
G1 X87.79 Y95.002 E2.51636
G1 X88.022 Y95.798 E2.54945
G1 X88.691 Y98.644 E2.66613
G1 X88.838 Y99.462 E2.6993
G1 X89.201 Y102.368 E2.81619
G1 X89.26 Y103.196 E2.84932
G1 X89.312 Y106.123 E2.96616
G1 X89.282 Y106.952 E2.99927
G1 X89.023 Y109.868 E3.11611
G1 X88.905 Y110.693 E3.14938
G1 X88.336 Y113.566 E3.26627
G1 X88.134 Y114.366 E3.2992
G1 X87.266 Y117.159 E3.41594
G1 X86.976 Y117.94 E3.44919
G1 X85.814 Y120.627 E3.56603
G1 X85.444 Y121.371 E3.59919
G1 X84.003 Y123.919 E3.71603
G1 X83.557 Y124.618 E3.74912
G1 X81.853 Y126.999 E3.86598
G1 X81.333 Y127.649 E3.8992
G1 X79.386 Y129.834 E4.01601
G1 X78.804 Y130.422 E4.04903
G1 X76.636 Y132.389 E4.16587
G1 X75.989 Y132.915 E4.19915
G1 X73.621 Y134.641 E4.3161
G1 X72.928 Y135.092 E4.3491
G1 X70.395 Y136.555 E4.46585
G1 X69.654 Y136.932 E4.49903
G1 X66.978 Y138.118 E4.61586
G1 X66.198 Y138.415 E4.64917
G1 X63.411 Y139.308 E4.76598
G1 X62.615 Y139.517 E4.79882
G1 X59.746 Y140.112 E4.91577
G1 X58.922 Y140.238 E4.94904
G1 X56.009 Y140.523 E5.06586
G1 X55.18 Y140.56 E5.09898
G1 X52.255 Y140.534 E5.21573
G1 X51.426 Y140.482 E5.24888
G1 X48.518 Y140.145 E5.36572
G1 X47.698 Y140.006 E5.39891
G1 X44.841 Y139.361 E5.51581
G1 X44.046 Y139.136 E5.54879
G1 X41.275 Y138.193 E5.66561
G1 X40.503 Y137.883 E5.69882
G1 X37.848 Y136.65 E5.81565
G1 X37.111 Y136.259 E5.84895
G1 X34.605 Y134.751 E5.96569
G1 X33.92 Y134.288 E5.99868
G1 X31.585 Y132.521 E6.11556
G1 X30.95 Y131.984 E6.14875
G1 X28.816 Y129.978 E6.26564
G1 X28.244 Y129.381 E6.29864
G1 X26.335 Y127.161 E6.4155
G1 X25.827 Y126.502 E6.44871
G1 X24.167 Y124.094 E6.56544
G1 X23.731 Y123.382 E6.59877
G1 X22.336 Y120.807 E6.71565
G1 X21.983 Y120.065 E6.74845
G1 X20.867 Y117.358 E6.86531
G1 X20.589 Y116.567 E6.89878
G1 X19.771 Y113.759 E7.01551
G1 X19.583 Y112.956 E7.04842
G1 X19.065 Y110.072 E7.16537
G1 X18.962 Y109.245 E7.19864
G1 X18.755 Y106.328 E7.31535
G1 X18.74 Y105.499 E7.34844
G1 X18.844 Y102.574 E7.46526
G1 X18.917 Y101.749 E7.49832
G1 X19.331 Y98.849 E7.61524
G1 X19.493 Y98.031 E7.64852
G1 X20.213 Y95.196 E7.76526
G1 X20.459 Y94.406 E7.79829
G1 X21.476 Y91.661 E7.91512
G1 X21.807 Y90.897 E7.94835
G1 X23.111 Y88.276 E8.06519
G1 X23.517 Y87.557 E8.09815
G1 X25.091 Y85.088 E8.21502
G1 X25.576 Y84.41 E8.24829
G1 X27.403 Y82.125 E8.36505
G1 X27.956 Y81.505 E8.39821
G1 X30.018 Y79.425 E8.51511
G1 X30.634 Y78.866 E8.54831
G1 X32.905 Y77.018 E8.66517
G1 X33.572 Y76.532 E8.69811
G1 X36.023 Y74.936 E8.81484
G1 X36.746 Y74.518 E8.84817
G0 F2400 X36.927 Y74.875
G1 F1200 X39.537 Y73.549 E8.96502
G1 X40.254 Y73.231 E8.99632
G1 X42.991 Y72.188 E9.11323
G1 X43.742 Y71.947 E9.14471
G1 X46.571 Y71.202 E9.26147
G1 X47.343 Y71.042 E9.29293
G1 X50.239 Y70.602 E9.40985
G1 X51.022 Y70.525 E9.44125
G1 X53.945 Y70.395 E9.55803
G1 X54.734 Y70.402 E9.58952
G1 X57.655 Y70.584 E9.70633
G1 X58.435 Y70.675 E9.73767
G1 X61.323 Y71.166 E9.85459
G1 X62.094 Y71.34 E9.88614
G1 X64.909 Y72.135 E10.00288
G1 X65.654 Y72.388 E10.03429
G1 X68.37 Y73.478 E10.15109
G1 X69.084 Y73.81 E10.18252
G1 X71.67 Y75.183 E10.29938
G1 X72.345 Y75.589 E10.33082
G1 X74.772 Y77.23 E10.44775
G1 X75.398 Y77.703 E10.47906
G1 X77.634 Y79.589 E10.59581
G1 X78.212 Y80.132 E10.62747
G1 X80.234 Y82.247 E10.74425
G1 X80.747 Y82.845 E10.7757
G1 X82.535 Y85.166 E10.89263
G1 X82.979 Y85.809 E10.92382
G1 X84.51 Y88.302 E11.04059
G1 X84.888 Y89 E11.07227
G1 X86.144 Y91.644 E11.1891
G1 X86.443 Y92.371 E11.22047
G1 X87.412 Y95.135 E11.33737
G1 X87.633 Y95.89 E11.36877
G1 X88.302 Y98.736 E11.48546
G1 X88.441 Y99.512 E11.51692
G1 X88.804 Y102.418 E11.63381
G1 X88.86 Y103.204 E11.66526
G1 X88.912 Y106.131 E11.7821
G1 X88.884 Y106.917 E11.81349
G1 X88.625 Y109.833 E11.93033
G1 X88.513 Y110.616 E11.9619
G1 X87.944 Y113.489 E12.0788
G1 X87.752 Y114.247 E12.11001
G1 X86.884 Y117.04 E12.22674
G1 X86.609 Y117.781 E12.25828
G1 X85.447 Y120.468 E12.37513
G1 X85.096 Y121.174 E12.4066
G1 X83.655 Y123.722 E12.52343
G1 X83.232 Y124.386 E12.55485
G1 X81.528 Y126.767 E12.67171
G1 X81.035 Y127.383 E12.7032
G1 X79.088 Y129.568 E12.82001
G1 X78.535 Y130.125 E12.85134
G1 X76.367 Y132.092 E12.96817
G1 X75.754 Y132.592 E12.99974
G1 X73.386 Y134.318 E13.1167
G1 X72.728 Y134.746 E13.14803
G1 X70.195 Y136.209 E13.26478
G1 X69.492 Y136.566 E13.29624
G1 X66.816 Y137.752 E13.41307
G1 X66.076 Y138.034 E13.44468
G1 X63.289 Y138.927 E13.56148
G1 X62.534 Y139.126 E13.59264
G1 X59.665 Y139.721 E13.70959
G1 X58.883 Y139.84 E13.74116
G1 X55.97 Y140.125 E13.85798
G1 X55.183 Y140.16 E13.88942
G1 X52.258 Y140.134 E14.00617
G1 X51.472 Y140.085 E14.0376
G1 X48.564 Y139.748 E14.15444
G1 X47.786 Y139.615 E14.18594
G1 X44.929 Y138.97 E14.30284
G1 X44.175 Y138.757 E14.33411
G1 X41.404 Y137.814 E14.45094
G1 X40.671 Y137.521 E14.48245
G1 X38.016 Y136.288 E14.59928
G1 X37.318 Y135.917 E14.63083
G1 X34.812 Y134.409 E14.74756
G1 X34.162 Y133.969 E14.77889
G1 X31.827 Y132.202 E14.89576
G1 X31.224 Y131.693 E14.92726
G1 X29.09 Y129.687 E15.04416
G1 X28.547 Y129.12 E15.07549
G1 X26.638 Y126.9 E15.19235
G1 X26.156 Y126.275 E15.22385
G1 X24.496 Y123.867 E15.34058
G1 X24.082 Y123.192 E15.37219
G1 X22.687 Y120.617 E15.48907
G1 X22.353 Y119.912 E15.52021
G1 X21.237 Y117.205 E15.63707
G1 X20.973 Y116.455 E15.66881
G1 X20.155 Y113.647 E15.78554
G1 X19.977 Y112.885 E15.81677
G1 X19.459 Y110.001 E15.93372
G1 X19.361 Y109.217 E15.96525
G1 X19.154 Y106.3 E16.08197
G1 X19.14 Y105.513 E16.11339
G1 X19.244 Y102.588 E16.2302
G1 X19.313 Y101.805 E16.26158
G1 X19.727 Y98.905 E16.37849
G1 X19.881 Y98.129 E16.41007
G1 X20.601 Y95.294 E16.52681
G1 X20.834 Y94.545 E16.55812
G1 X21.851 Y91.8 E16.67496
G1 X22.165 Y91.075 E16.70649
G1 X23.469 Y88.454 E16.82333
G1 X23.854 Y87.772 E16.85459
G1 X25.428 Y85.303 E16.97145
G1 X25.888 Y84.66 E17.00301
G1 X27.715 Y82.375 E17.11978
G1 X28.24 Y81.786 E17.15127
G1 X30.302 Y79.706 E17.26817
G1 X30.886 Y79.176 E17.29964
G1 X33.157 Y77.328 E17.4165
G1 X33.79 Y76.867 E17.44775
G1 X36.241 Y75.271 E17.56449
G1 X36.927 Y74.875 E17.5961
G0 F2400 X37.108 Y75.231
G1 F1200 X39.718 Y73.905 E17.71295
G1 X40.396 Y73.605 E17.74254
G1 X43.133 Y72.562 E17.85944
G1 X43.843 Y72.334 E17.8892
G1 X46.672 Y71.589 E18.00597
G1 X47.404 Y71.437 E18.0358
G1 X50.3 Y70.997 E18.15272
G1 X51.04 Y70.925 E18.18239
G1 X53.963 Y70.795 E18.29917
G1 X54.709 Y70.802 E18.32895
G1 X57.63 Y70.984 E18.44576
G1 X58.368 Y71.069 E18.47541
G1 X61.256 Y71.56 E18.59233
G1 X61.985 Y71.724 E18.62215
G1 X64.8 Y72.519 E18.7389
G1 X65.505 Y72.76 E18.76863
G1 X68.221 Y73.85 E18.88544
G1 X68.897 Y74.163 E18.91517
G1 X71.483 Y75.536 E19.03203
G1 X72.121 Y75.92 E19.06175
G1 X74.548 Y77.561 E19.17868
G1 X75.14 Y78.009 E19.20831
G1 X77.376 Y79.895 E19.32506
G1 X77.923 Y80.409 E19.35502
G1 X79.945 Y82.524 E19.4718
G1 X80.43 Y83.089 E19.50152
G1 X82.218 Y85.41 E19.61846
G1 X82.638 Y86.019 E19.64799
G1 X84.169 Y88.512 E19.76475
G1 X84.527 Y89.171 E19.79469
G1 X85.783 Y91.815 E19.91151
G1 X86.066 Y92.503 E19.94121
G1 X87.035 Y95.267 E20.05811
G1 X87.243 Y95.981 E20.08779
G1 X87.912 Y98.827 E20.20447
G1 X88.044 Y99.561 E20.23424
G1 X88.407 Y102.467 E20.35113
G1 X88.46 Y103.211 E20.3809
G1 X88.512 Y106.138 E20.49774
G1 X88.486 Y106.881 E20.52741
G1 X88.227 Y109.797 E20.64425
G1 X88.121 Y110.538 E20.67413
G1 X87.552 Y113.411 E20.79102
G1 X87.37 Y114.128 E20.82055
G1 X86.502 Y116.921 E20.93728
G1 X86.242 Y117.622 E20.96712
G1 X85.08 Y120.309 E21.08397
G1 X84.748 Y120.977 E21.11374
G1 X83.307 Y123.525 E21.23057
G1 X82.906 Y124.153 E21.26031
G1 X81.202 Y126.534 E21.37717
G1 X80.736 Y127.117 E21.40696
G1 X78.789 Y129.302 E21.52377
G1 X78.267 Y129.829 E21.55337
G1 X76.099 Y131.796 E21.67021
G1 X75.518 Y132.269 E21.70011
G1 X73.15 Y133.995 E21.81706
G1 X72.528 Y134.4 E21.84669
G1 X69.995 Y135.863 E21.96344
G1 X69.33 Y136.201 E21.99321
G1 X66.654 Y137.387 E22.11003
G1 X65.954 Y137.653 E22.13992
G1 X63.167 Y138.546 E22.25673
G1 X62.452 Y138.734 E22.28623
G1 X59.583 Y139.329 E22.40318
G1 X58.844 Y139.442 E22.43302
G1 X55.931 Y139.727 E22.54984
G1 X55.187 Y139.76 E22.57956
G1 X52.262 Y139.734 E22.69631
G1 X51.518 Y139.687 E22.72606
G1 X48.61 Y139.35 E22.8429
G1 X47.874 Y139.225 E22.8727
G1 X45.017 Y138.58 E22.9896
G1 X44.304 Y138.379 E23.01916
G1 X41.533 Y137.436 E23.13599
G1 X40.84 Y137.158 E23.16579
G1 X38.185 Y135.925 E23.28263
G1 X37.524 Y135.574 E23.3125
G1 X35.018 Y134.066 E23.42923
G1 X34.403 Y133.65 E23.45886
G1 X32.068 Y131.883 E23.57574
G1 X31.498 Y131.401 E23.60553
G1 X29.364 Y129.395 E23.72243
G1 X28.85 Y128.859 E23.75207
G1 X26.941 Y126.639 E23.86892
G1 X26.486 Y126.048 E23.89869
G1 X24.826 Y123.64 E24.01543
G1 X24.434 Y123.001 E24.04535
G1 X23.039 Y120.426 E24.16223
G1 X22.722 Y119.76 E24.19167
G1 X21.606 Y117.053 E24.30854
G1 X21.357 Y116.343 E24.33857
G1 X20.539 Y113.535 E24.4553
G1 X20.37 Y112.814 E24.48485
G1 X19.852 Y109.93 E24.6018
G1 X19.76 Y109.188 E24.63164
G1 X19.553 Y106.271 E24.74836
G1 X19.539 Y105.527 E24.77806
G1 X19.643 Y102.602 E24.89488
G1 X19.709 Y101.862 E24.92453
G1 X20.123 Y98.962 E25.04145
G1 X20.268 Y98.228 E25.07131
G1 X20.988 Y95.393 E25.18805
G1 X21.209 Y94.684 E25.21769
G1 X22.226 Y91.939 E25.33453
G1 X22.523 Y91.253 E25.36437
G1 X23.827 Y88.632 E25.48121
G1 X24.191 Y87.987 E25.51077
G1 X25.765 Y85.518 E25.62763
G1 X26.201 Y84.91 E25.65749
G1 X28.028 Y82.625 E25.77426
G1 X28.524 Y82.068 E25.80403
G1 X30.586 Y79.988 E25.92092
G1 X31.139 Y79.486 E25.95073
G1 X33.41 Y77.638 E26.06759
G1 X34.008 Y77.202 E26.09713
G1 X36.459 Y75.606 E26.21387
G1 X37.108 Y75.231 E26.24378
G0 F2400 X37.29 Y75.588
G1 F1200 X39.9 Y74.262 E26.36063
G1 X40.539 Y73.979 E26.38852
G1 X43.276 Y72.936 E26.50542
G1 X43.945 Y72.721 E26.53347
G1 X46.774 Y71.976 E26.65023
G1 X47.464 Y71.833 E26.67835
G1 X50.36 Y71.393 E26.79527
G1 X51.058 Y71.325 E26.82326
G1 X53.981 Y71.195 E26.94004
G1 X54.684 Y71.201 E26.96809
G1 X57.605 Y71.383 E27.0849
G1 X58.301 Y71.463 E27.11287
G1 X61.189 Y71.954 E27.22979
G1 X61.877 Y72.109 E27.25793
G1 X64.692 Y72.904 E27.37468
G1 X65.356 Y73.131 E27.40269
G1 X68.072 Y74.221 E27.51949
G1 X68.709 Y74.517 E27.54753
G1 X71.295 Y75.89 E27.66439
G1 X71.897 Y76.251 E27.6924
G1 X74.324 Y77.892 E27.80933
G1 X74.882 Y78.315 E27.83728
G1 X77.118 Y80.201 E27.95403
G1 X77.634 Y80.685 E27.98227
G1 X79.656 Y82.8 E28.09905
G1 X80.113 Y83.333 E28.12708
G1 X81.901 Y85.654 E28.24401
G1 X82.297 Y86.228 E28.27184
G1 X83.828 Y88.721 E28.38861
G1 X84.166 Y89.343 E28.41686
G1 X85.422 Y91.987 E28.53369
G1 X85.688 Y92.635 E28.56165
G1 X86.657 Y95.399 E28.67855
G1 X86.854 Y96.073 E28.70658
G1 X87.523 Y98.919 E28.82326
G1 X87.647 Y99.611 E28.85132
G1 X88.01 Y102.517 E28.96821
G1 X88.06 Y103.218 E28.99626
G1 X88.112 Y106.145 E29.1131
G1 X88.087 Y106.846 E29.1411
G1 X87.828 Y109.762 E29.25794
G1 X87.728 Y110.46 E29.28608
G1 X87.159 Y113.333 E29.40298
G1 X86.988 Y114.01 E29.43084
G1 X86.12 Y116.803 E29.54758
G1 X85.875 Y117.464 E29.57571
G1 X84.713 Y120.151 E29.69256
G1 X84.4 Y120.78 E29.7206
G1 X82.959 Y123.328 E29.83743
G1 X82.581 Y123.92 E29.86547
G1 X80.877 Y126.301 E29.98233
G1 X80.438 Y126.851 E30.01041
G1 X78.491 Y129.036 E30.12722
G1 X77.998 Y129.533 E30.15516
G1 X75.83 Y131.5 E30.272
G1 X75.283 Y131.946 E30.30017
G1 X72.915 Y133.672 E30.41712
G1 X72.328 Y134.053 E30.44505
G1 X69.795 Y135.516 E30.5618
G1 X69.168 Y135.835 E30.58988
G1 X66.492 Y137.021 E30.7067
G1 X65.832 Y137.272 E30.73488
G1 X63.045 Y138.165 E30.85169
G1 X62.371 Y138.342 E30.8795
G1 X59.502 Y138.937 E30.99645
G1 X58.805 Y139.044 E31.02459
G1 X55.892 Y139.329 E31.14141
G1 X55.19 Y139.36 E31.16946
G1 X52.265 Y139.334 E31.2862
G1 X51.564 Y139.29 E31.31424
G1 X48.656 Y138.953 E31.43108
G1 X47.963 Y138.835 E31.45914
G1 X45.106 Y138.19 E31.57603
G1 X44.433 Y138 E31.60395
G1 X41.662 Y137.057 E31.72077
G1 X41.008 Y136.795 E31.74889
G1 X38.353 Y135.562 E31.86573
G1 X37.73 Y135.231 E31.89388
G1 X35.224 Y133.723 E32.01062
G1 X34.644 Y133.331 E32.03856
G1 X32.309 Y131.564 E32.15543
G1 X31.772 Y131.11 E32.18349
G1 X29.638 Y129.104 E32.30039
G1 X29.154 Y128.598 E32.32834
G1 X27.245 Y126.378 E32.4452
G1 X26.815 Y125.821 E32.47328
G1 X25.155 Y123.413 E32.59001
G1 X24.786 Y122.811 E32.61819
G1 X23.391 Y120.236 E32.73508
G1 X23.092 Y119.608 E32.76284
G1 X21.976 Y116.901 E32.87971
G1 X21.741 Y116.231 E32.90804
G1 X20.923 Y113.423 E33.02478
G1 X20.764 Y112.744 E33.05261
G1 X20.246 Y109.86 E33.16956
G1 X20.159 Y109.16 E33.19771
G1 X19.952 Y106.243 E33.31443
G1 X19.939 Y105.541 E33.34245
G1 X20.043 Y102.616 E33.45927
G1 X20.105 Y101.918 E33.48724
G1 X20.519 Y99.018 E33.60416
G1 X20.656 Y98.326 E33.63231
G1 X21.376 Y95.491 E33.74905
G1 X21.584 Y94.823 E33.77698
G1 X22.601 Y92.078 E33.89381
G1 X22.881 Y91.431 E33.92195
G1 X24.185 Y88.81 E34.03879
G1 X24.529 Y88.202 E34.06667
G1 X26.103 Y85.733 E34.18354
G1 X26.513 Y85.159 E34.21169
G1 X28.34 Y82.874 E34.32846
G1 X28.808 Y82.349 E34.35653
G1 X30.87 Y80.269 E34.47343
G1 X31.391 Y79.797 E34.50149
G1 X33.662 Y77.949 E34.61835
G1 X34.227 Y77.537 E34.64625
G1 X36.678 Y75.941 E34.76299
G1 X37.29 Y75.588 E34.79119
G0 F2400 X37.471 Y75.944
G1 F1200 X40.081 Y74.618 E34.90803
G1 X40.681 Y74.352 E34.93423
G1 X43.418 Y73.309 E35.05113
G1 X44.047 Y73.107 E35.0775
G1 X46.876 Y72.362 E35.19426
G1 X47.524 Y72.228 E35.22067
G1 X50.42 Y71.788 E35.33758
G1 X51.076 Y71.724 E35.36389
G1 X53.999 Y71.594 E35.48067
G1 X54.66 Y71.6 E35.50705
G1 X57.581 Y71.782 E35.62386
G1 X58.234 Y71.858 E35.6501
G1 X61.122 Y72.349 E35.76702
G1 X61.768 Y72.494 E35.79344
G1 X64.583 Y73.289 E35.91019
G1 X65.207 Y73.502 E35.93651
G1 X67.923 Y74.592 E36.05331
