;FLAVOR:Marlin
;TIME:1482
;Filament used: 1.35591m, 0m
;Layer height: 0.16
;POSTPROCESSED
;Generated with Cura_SteamEngine 3.6.0
T0
M140 S60
M105
M190 S60
M104 S184
M105
M109 S184
M82 ;absolute extrusion mode
; Printer start settings begin
; Calibration section to overwrite Firmware values
; Identifier CALIBR, CALRES and CALMPE, surrounded by #, + or - can be used in post processing
; #CALIBR# M92 X160 Y160 Z3200 ; +CALIBR+ Steps per unit
; #CALRESO# M201 X1000 Y1000 Z50 E1500 E1500 ; +CALRESO+ Max Accelleration
; #CALRESO# M203 X800 Y800 Z2 E90 E90 ; +CALRESO+ Max Feed
; #CALRESO# M205 X3.0 Y3.0 Z0.3 E5.0 ; +CALRESO+ Default Jerk
; #CALMPE#
M951 L32 R139 G32 N75 H300 D10 C0 ; +CALMPE+ Parking kinematic values / needs MPE kinematic to be compiled and activated in firmware
; #CALMPE#
M851 Z-0.55 ; +CALMPE+ System Z Probe Offset
; #CALMPE#
M218 T1 X0.75 Y0.0 Z0.25; +CALMPE+ T1 Nozzle offset values
; #CALMPE#
M206 X-32.00 Y0.00 Z0.00; +CALMPE+ Home Offset
; #REM#  M951 args: L: Left parking,R: Right parking, I: Grab Offset, J: Normal speed, H: High speed, D: Distance trav., C: Compenstion
; #CALMPE#
M951 L32 R140 I32 J4500 H9000 D10 C0 ; MPE Setup
; #CALMPE# M217 Z5.00 Z-Lift
G28 ;Home
G92 E5
G1 F1000 E0
; #MPE# G29 ; -MPE- Auto Bed Level, uses this if FW values are set correct.
; #MPE# G29 X3 Y3 L0 R109 F32 B168 ; +MPE+ Auto Bed Leveling, needed if not poroper defined in Firmware
G92 E-5
G1 E0 F400
G0 Z15.0 F100 ;Move the platform down 15mm
G0 X0 Y0 F9000 ;Move to front
T1
G0 X0 Y0 F9000 ;Move to front
G92 E-30
G1 F200 E0
T0
G0 X0 Y0 F9000 ;Move to front
G92 E-30
G1 F200 E0
; Printer start settings end
G92 E0
G1 F1200 E-3
;LAYER_COUNT:44
;LAYER:0
M107
G0 F2400 X36.722 Y74.244 Z0.16
;TYPE:SKIRT
G1 F1200 E0
G1 X39.332 Y72.918 E0.11684
G1 X40.087 Y72.583 E0.14981
G1 X42.824 Y71.54 E0.26671
G1 X43.616 Y71.286 E0.29991
G1 X46.445 Y70.541 E0.41667
G1 X47.259 Y70.372 E0.44985
G1 X50.155 Y69.932 E0.56676
G1 X50.981 Y69.852 E0.59989
G1 X53.905 Y69.722 E0.7167
G1 X54.736 Y69.729 E0.74987
G1 X57.656 Y69.911 E0.86664
G1 X58.478 Y70.006 E0.89967
G1 X61.366 Y70.497 E1.01659
G1 X62.179 Y70.681 E1.04986
G1 X64.994 Y71.476 E1.1666
G1 X65.778 Y71.743 E1.19966
G1 X68.495 Y72.833 E1.3165
G1 X69.25 Y73.183 E1.34972
G1 X71.835 Y74.556 E1.46654
G1 X72.545 Y74.983 E1.49961
G1 X74.972 Y76.624 E1.61654
G1 X75.632 Y77.124 E1.64959
G1 X77.868 Y79.01 E1.76634
G1 X78.477 Y79.582 E1.79968
G1 X80.499 Y81.697 E1.91647
G1 X81.04 Y82.327 E1.94961
G1 X82.828 Y84.648 E2.06655
G1 X83.296 Y85.326 E2.09943
G1 X84.827 Y87.819 E2.2162
G1 X85.225 Y88.554 E2.24956
G1 X86.481 Y91.198 E2.36639
G1 X86.797 Y91.964 E2.39946
G1 X87.766 Y94.728 E2.51636
G1 X87.998 Y95.525 E2.54949
G1 X88.667 Y98.372 E2.66621
G1 X88.814 Y99.189 E2.69934
G1 X89.177 Y102.094 E2.81619
G1 X89.236 Y102.922 E2.84932
G1 X89.288 Y105.849 E2.96616
G1 X89.258 Y106.678 E2.99927
G1 X88.999 Y109.594 E3.11611
G1 X88.881 Y110.419 E3.14938
G1 X88.312 Y113.292 E3.26627
G1 X88.11 Y114.092 E3.2992
G1 X87.242 Y116.885 E3.41594
G1 X86.952 Y117.666 E3.44919
G1 X85.79 Y120.353 E3.56603
G1 X85.42 Y121.097 E3.5992
G1 X83.979 Y123.645 E3.71603
G1 X83.533 Y124.344 E3.74912
G1 X81.829 Y126.725 E3.86598
G1 X81.309 Y127.375 E3.8992
G1 X79.362 Y129.56 E4.01601
G1 X78.78 Y130.148 E4.04903
G1 X76.612 Y132.115 E4.16587
G1 X75.967 Y132.64 E4.19906
G1 X73.6 Y134.366 E4.31598
G1 X72.904 Y134.819 E4.34913
G1 X70.37 Y136.282 E4.46591
G1 X69.63 Y136.658 E4.49904
G1 X66.954 Y137.844 E4.61586
G1 X66.174 Y138.141 E4.64918
G1 X63.387 Y139.034 E4.76598
G1 X62.591 Y139.243 E4.79883
G1 X59.723 Y139.838 E4.91573
G1 X58.898 Y139.964 E4.94904
G1 X55.984 Y140.249 E5.0659
G1 X55.156 Y140.286 E5.09898
G1 X52.231 Y140.26 E5.21573
G1 X51.402 Y140.208 E5.24888
G1 X48.494 Y139.871 E5.36572
G1 X47.674 Y139.732 E5.39892
G1 X44.817 Y139.087 E5.51582
G1 X44.022 Y138.862 E5.54879
G1 X41.251 Y137.919 E5.66562
G1 X40.479 Y137.609 E5.69882
G1 X37.824 Y136.376 E5.81566
G1 X37.087 Y135.985 E5.84896
G1 X34.581 Y134.477 E5.96569
G1 X33.895 Y134.013 E5.99875
G1 X31.561 Y132.246 E6.11559
G1 X30.928 Y131.711 E6.14867
G1 X28.793 Y129.705 E6.26559
G1 X28.22 Y129.107 E6.29865
G1 X26.311 Y126.887 E6.41551
G1 X25.803 Y126.228 E6.44871
G1 X24.143 Y123.82 E6.56545
G1 X23.707 Y123.108 E6.59877
G1 X22.312 Y120.533 E6.71566
G1 X21.959 Y119.791 E6.74845
G1 X20.843 Y117.084 E6.86532
G1 X20.565 Y116.293 E6.89878
G1 X19.747 Y113.485 E7.01551
G1 X19.559 Y112.682 E7.04843
G1 X19.041 Y109.798 E7.16538
G1 X18.938 Y108.971 E7.19864
G1 X18.731 Y106.054 E7.31535
G1 X18.716 Y105.225 E7.34845
G1 X18.82 Y102.3 E7.46526
G1 X18.893 Y101.475 E7.49832
G1 X19.307 Y98.575 E7.61524
G1 X19.469 Y97.757 E7.64852
G1 X20.189 Y94.922 E7.76526
G1 X20.435 Y94.132 E7.79829
G1 X21.452 Y91.387 E7.91512
G1 X21.783 Y90.623 E7.94836
G1 X23.087 Y88.002 E8.0652
G1 X23.493 Y87.283 E8.09815
G1 X25.067 Y84.814 E8.21502
G1 X25.552 Y84.136 E8.24829
G1 X27.379 Y81.851 E8.36506
G1 X27.932 Y81.231 E8.39821
G1 X29.994 Y79.151 E8.51511
G1 X30.61 Y78.592 E8.54831
G1 X32.881 Y76.744 E8.66517
G1 X33.548 Y76.258 E8.69811
G1 X35.999 Y74.662 E8.81485
G1 X36.722 Y74.244 E8.84818
G0 F2400 X36.903 Y74.601
G1 F1200 X39.513 Y73.275 E8.96502
G1 X40.23 Y72.957 E8.99633
G1 X42.967 Y71.914 E9.11323
G1 X43.718 Y71.673 E9.14471
G1 X46.547 Y70.928 E9.26147
G1 X47.319 Y70.768 E9.29294
G1 X50.215 Y70.328 E9.40985
G1 X50.998 Y70.251 E9.44125
G1 X53.922 Y70.121 E9.55807
G1 X54.711 Y70.128 E9.58956
G1 X57.631 Y70.31 E9.70633
G1 X58.411 Y70.401 E9.73767
G1 X61.299 Y70.892 E9.85459
G1 X62.07 Y71.066 E9.88614
G1 X64.885 Y71.861 E10.00289
G1 X65.629 Y72.114 E10.03425
G1 X68.346 Y73.204 E10.15109
G1 X69.062 Y73.537 E10.18261
G1 X71.647 Y74.91 E10.29943
G1 X72.321 Y75.315 E10.33082
G1 X74.748 Y76.956 E10.44775
G1 X75.374 Y77.429 E10.47906
G1 X77.61 Y79.315 E10.59581
G1 X78.188 Y79.858 E10.62747
G1 X80.21 Y81.973 E10.74425
G1 X80.723 Y82.571 E10.7757
G1 X82.511 Y84.892 E10.89263
G1 X82.955 Y85.535 E10.92382
G1 X84.486 Y88.028 E11.04059
G1 X84.864 Y88.726 E11.07227
G1 X86.12 Y91.37 E11.1891
G1 X86.419 Y92.097 E11.22047
G1 X87.388 Y94.861 E11.33737
G1 X87.609 Y95.616 E11.36877
G1 X88.278 Y98.463 E11.4855
G1 X88.417 Y99.238 E11.51692
G1 X88.78 Y102.143 E11.63377
G1 X88.836 Y102.93 E11.66526
G1 X88.888 Y105.857 E11.7821
G1 X88.86 Y106.643 E11.81349
G1 X88.601 Y109.559 E11.93033
G1 X88.489 Y110.342 E11.9619
G1 X87.92 Y113.215 E12.0788
G1 X87.728 Y113.973 E12.11001
G1 X86.86 Y116.766 E12.22674
G1 X86.585 Y117.507 E12.25829
G1 X85.423 Y120.194 E12.37513
G1 X85.072 Y120.9 E12.4066
G1 X83.631 Y123.448 E12.52343
G1 X83.208 Y124.112 E12.55485
G1 X81.504 Y126.493 E12.67171
G1 X81.011 Y127.109 E12.7032
G1 X79.064 Y129.294 E12.82001
G1 X78.511 Y129.851 E12.85134
G1 X76.343 Y131.818 E12.96817
G1 X75.731 Y132.317 E12.99969
G1 X73.364 Y134.043 E13.11661
G1 X72.704 Y134.473 E13.14805
G1 X70.17 Y135.936 E13.26483
G1 X69.468 Y136.292 E13.29625
G1 X66.792 Y137.478 E13.41307
G1 X66.052 Y137.76 E13.44468
G1 X63.265 Y138.653 E13.56149
G1 X62.51 Y138.852 E13.59265
G1 X59.642 Y139.447 E13.70955
G1 X58.859 Y139.566 E13.74116
G1 X55.945 Y139.851 E13.85802
G1 X55.159 Y139.886 E13.88943
G1 X52.234 Y139.86 E14.00617
G1 X51.448 Y139.811 E14.0376
G1 X48.54 Y139.474 E14.15445
G1 X47.762 Y139.341 E14.18595
G1 X44.905 Y138.696 E14.30285
G1 X44.151 Y138.483 E14.33412
G1 X41.38 Y137.54 E14.45094
G1 X40.647 Y137.247 E14.48245
G1 X37.992 Y136.014 E14.59929
G1 X37.294 Y135.643 E14.63084
G1 X34.788 Y134.135 E14.74757
G1 X34.136 Y133.694 E14.77899
G1 X31.802 Y131.927 E14.89583
G1 X31.202 Y131.42 E14.92718
G1 X29.067 Y129.414 E15.0441
G1 X28.523 Y128.846 E15.07549
G1 X26.614 Y126.626 E15.19235
G1 X26.132 Y126.001 E15.22385
G1 X24.472 Y123.593 E15.34059
G1 X24.058 Y122.918 E15.37219
G1 X22.663 Y120.343 E15.48908
G1 X22.329 Y119.638 E15.52021
G1 X21.213 Y116.931 E15.63708
G1 X20.949 Y116.181 E15.66881
G1 X20.131 Y113.373 E15.78554
G1 X19.953 Y112.611 E15.81677
G1 X19.435 Y109.727 E15.93372
G1 X19.337 Y108.943 E15.96526
G1 X19.13 Y106.026 E16.08197
G1 X19.116 Y105.239 E16.11339
G1 X19.22 Y102.314 E16.23021
G1 X19.289 Y101.531 E16.26158
G1 X19.703 Y98.631 E16.3785
G1 X19.857 Y97.855 E16.41007
G1 X20.577 Y95.02 E16.52682
G1 X20.81 Y94.271 E16.55812
G1 X21.827 Y91.526 E16.67496
G1 X22.141 Y90.801 E16.70649
G1 X23.445 Y88.18 E16.82334
G1 X23.83 Y87.498 E16.85459
G1 X25.404 Y85.029 E16.97146
G1 X25.864 Y84.386 E17.00301
G1 X27.691 Y82.101 E17.11978
G1 X28.216 Y81.512 E17.15127
G1 X30.278 Y79.432 E17.26817
G1 X30.862 Y78.902 E17.29964
G1 X33.133 Y77.054 E17.4165
G1 X33.766 Y76.593 E17.44776
G1 X36.217 Y74.997 E17.56449
G1 X36.903 Y74.601 E17.59611
G0 F2400 X37.084 Y74.957
G1 F1200 X39.694 Y73.631 E17.71295
G1 X40.372 Y73.331 E17.74254
G1 X43.109 Y72.288 E17.85945
G1 X43.819 Y72.06 E17.88921
G1 X46.648 Y71.315 E18.00597
G1 X47.38 Y71.163 E18.03581
G1 X50.276 Y70.723 E18.15272
G1 X51.016 Y70.651 E18.18239
G1 X53.94 Y70.521 E18.29921
G1 X54.686 Y70.528 E18.32899
G1 X57.606 Y70.71 E18.44576
G1 X58.344 Y70.795 E18.47541
G1 X61.232 Y71.286 E18.59233
G1 X61.961 Y71.45 E18.62215
G1 X64.776 Y72.245 E18.7389
G1 X65.48 Y72.485 E18.76859
G1 X68.197 Y73.575 E18.88543
G1 X68.875 Y73.89 E18.91527
G1 X71.46 Y75.263 E19.03209
G1 X72.097 Y75.646 E19.06175
G1 X74.524 Y77.287 E19.17869
G1 X75.116 Y77.735 E19.20832
G1 X77.352 Y79.621 E19.32507
G1 X77.899 Y80.135 E19.35503
G1 X79.921 Y82.25 E19.47181
G1 X80.406 Y82.815 E19.50153
G1 X82.194 Y85.136 E19.61847
G1 X82.614 Y85.745 E19.64799
G1 X84.145 Y88.238 E19.76476
G1 X84.503 Y88.897 E19.79469
G1 X85.759 Y91.541 E19.91152
G1 X86.042 Y92.229 E19.94121
G1 X87.011 Y94.993 E20.05811
G1 X87.219 Y95.708 E20.08783
G1 X87.888 Y98.555 E20.20456
G1 X88.02 Y99.288 E20.23428
G1 X88.383 Y102.193 E20.35113
G1 X88.436 Y102.937 E20.3809
G1 X88.488 Y105.864 E20.49774
G1 X88.462 Y106.607 E20.52741
G1 X88.203 Y109.523 E20.64426
G1 X88.097 Y110.264 E20.67413
G1 X87.528 Y113.137 E20.79103
G1 X87.346 Y113.854 E20.82055
G1 X86.478 Y116.647 E20.93729
G1 X86.218 Y117.348 E20.96713
G1 X85.056 Y120.035 E21.08397
G1 X84.724 Y120.703 E21.11374
G1 X83.283 Y123.251 E21.23057
G1 X82.882 Y123.879 E21.26031
G1 X81.178 Y126.26 E21.37717
G1 X80.712 Y126.843 E21.40696
G1 X78.765 Y129.028 E21.52377
G1 X78.243 Y129.555 E21.55337
G1 X76.075 Y131.522 E21.67021
G1 X75.495 Y131.994 E21.70006
G1 X73.128 Y133.72 E21.81698
G1 X72.504 Y134.126 E21.84669
G1 X69.97 Y135.589 E21.96347
G1 X69.306 Y135.927 E21.99321
G1 X66.63 Y137.113 E22.11004
G1 X65.93 Y137.379 E22.13992
G1 X63.143 Y138.272 E22.25673
G1 X62.429 Y138.46 E22.2862
G1 X59.561 Y139.055 E22.4031
G1 X58.82 Y139.168 E22.43302
G1 X55.906 Y139.453 E22.54988
G1 X55.163 Y139.486 E22.57956
G1 X52.238 Y139.46 E22.69631
G1 X51.494 Y139.413 E22.72607
G1 X48.586 Y139.076 E22.84291
G1 X47.85 Y138.951 E22.8727
G1 X44.993 Y138.306 E22.9896
G1 X44.28 Y138.105 E23.01917
G1 X41.509 Y137.162 E23.13599
G1 X40.816 Y136.884 E23.1658
G1 X38.161 Y135.651 E23.28263
G1 X37.5 Y135.3 E23.3125
G1 X34.994 Y133.792 E23.42923
G1 X34.378 Y133.375 E23.45892
G1 X32.044 Y131.608 E23.57576
G1 X31.476 Y131.128 E23.60545
G1 X29.341 Y129.122 E23.72237
G1 X28.826 Y128.585 E23.75207
G1 X26.917 Y126.365 E23.86893
G1 X26.462 Y125.774 E23.89869
G1 X24.802 Y123.366 E24.01543
G1 X24.41 Y122.727 E24.04535
G1 X23.015 Y120.152 E24.16223
G1 X22.698 Y119.486 E24.19167
G1 X21.582 Y116.779 E24.30854
G1 X21.333 Y116.069 E24.33857
G1 X20.515 Y113.261 E24.4553
G1 X20.346 Y112.54 E24.48485
G1 X19.828 Y109.656 E24.6018
G1 X19.736 Y108.914 E24.63164
G1 X19.529 Y105.997 E24.74836
G1 X19.515 Y105.253 E24.77806
G1 X19.619 Y102.328 E24.89488
G1 X19.685 Y101.588 E24.92453
G1 X20.099 Y98.688 E25.04145
G1 X20.244 Y97.954 E25.07131
G1 X20.964 Y95.119 E25.18805
G1 X21.185 Y94.41 E25.21769
G1 X22.202 Y91.665 E25.33453
G1 X22.499 Y90.979 E25.36437
G1 X23.803 Y88.358 E25.48121
G1 X24.167 Y87.713 E25.51077
G1 X25.741 Y85.244 E25.62763
G1 X26.177 Y84.636 E25.65749
G1 X28.004 Y82.351 E25.77426
G1 X28.5 Y81.794 E25.80403
G1 X30.562 Y79.714 E25.92093
G1 X31.115 Y79.212 E25.95074
G1 X33.386 Y77.364 E26.06759
G1 X33.984 Y76.928 E26.09713
G1 X36.435 Y75.332 E26.21387
G1 X37.084 Y74.957 E26.24378
G0 F2400 X37.266 Y75.314
G1 F1200 X39.876 Y73.988 E26.36063
G1 X40.515 Y73.705 E26.38852
G1 X43.252 Y72.662 E26.50542
G1 X43.921 Y72.447 E26.53347
G1 X46.75 Y71.702 E26.65023
G1 X47.44 Y71.559 E26.67835
G1 X50.336 Y71.119 E26.79527
G1 X51.034 Y71.051 E26.82326
G1 X53.958 Y70.921 E26.94008
G1 X54.662 Y70.927 E26.96818
G1 X57.582 Y71.109 E27.08494
G1 X58.277 Y71.189 E27.11287
G1 X61.165 Y71.68 E27.22979
G1 X61.853 Y71.835 E27.25794
G1 X64.668 Y72.63 E27.37468
G1 X65.331 Y72.857 E27.40265
G1 X68.048 Y73.947 E27.51949
G1 X68.687 Y74.243 E27.5476
G1 X71.272 Y75.616 E27.66442
G1 X71.873 Y75.977 E27.69241
G1 X74.3 Y77.618 E27.80934
G1 X74.858 Y78.041 E27.83728
G1 X77.094 Y79.927 E27.95404
G1 X77.61 Y80.411 E27.98227
G1 X79.632 Y82.526 E28.09906
G1 X80.089 Y83.059 E28.12708
G1 X81.877 Y85.38 E28.24401
G1 X82.273 Y85.954 E28.27185
G1 X83.804 Y88.447 E28.38861
G1 X84.142 Y89.069 E28.41687
G1 X85.398 Y91.713 E28.5337
G1 X85.664 Y92.361 E28.56165
G1 X86.633 Y95.125 E28.67855
G1 X86.83 Y95.799 E28.70658
G1 X87.499 Y98.646 E28.82331
G1 X87.623 Y99.338 E28.85136
G1 X87.986 Y102.243 E28.96821
G1 X88.036 Y102.944 E28.99626
G1 X88.088 Y105.871 E29.1131
G1 X88.063 Y106.572 E29.1411
G1 X87.804 Y109.488 E29.25794
G1 X87.704 Y110.186 E29.28608
G1 X87.135 Y113.059 E29.40298
G1 X86.964 Y113.736 E29.43085
G1 X86.096 Y116.529 E29.54758
G1 X85.851 Y117.19 E29.57572
G1 X84.689 Y119.877 E29.69256
G1 X84.376 Y120.506 E29.7206
G1 X82.935 Y123.054 E29.83743
G1 X82.557 Y123.646 E29.86547
G1 X80.853 Y126.027 E29.98233
G1 X80.414 Y126.577 E30.01041
G1 X78.467 Y128.762 E30.12722
G1 X77.974 Y129.259 E30.15516
G1 X75.806 Y131.226 E30.272
G1 X75.26 Y131.671 E30.30011
G1 X72.893 Y133.397 E30.41703
G1 X72.304 Y133.78 E30.44507
G1 X69.77 Y135.243 E30.56186
G1 X69.144 Y135.561 E30.58988
G1 X66.468 Y136.747 E30.70671
G1 X65.808 Y136.998 E30.73489
G1 X63.021 Y137.891 E30.85169
G1 X62.348 Y138.068 E30.87947
G1 X59.48 Y138.663 E30.99637
G1 X58.781 Y138.77 E31.0246
G1 X55.867 Y139.055 E31.14146
G1 X55.166 Y139.086 E31.16946
G1 X52.241 Y139.06 E31.28621
G1 X51.54 Y139.016 E31.31424
G1 X48.632 Y138.679 E31.43108
G1 X47.939 Y138.561 E31.45914
G1 X45.082 Y137.916 E31.57604
G1 X44.409 Y137.726 E31.60395
G1 X41.638 Y136.783 E31.72078
G1 X40.984 Y136.521 E31.7489
G1 X38.329 Y135.288 E31.86573
G1 X37.706 Y134.957 E31.89389
G1 X35.2 Y133.449 E32.01062
G1 X34.619 Y133.056 E32.03862
G1 X32.285 Y131.289 E32.15546
G1 X31.75 Y130.837 E32.18341
G1 X29.615 Y128.831 E32.30034
G1 X29.13 Y128.324 E32.32834
G1 X27.221 Y126.104 E32.4452
G1 X26.791 Y125.547 E32.47328
G1 X25.131 Y123.139 E32.59002
G1 X24.762 Y122.537 E32.6182
G1 X23.367 Y119.962 E32.73508
G1 X23.068 Y119.334 E32.76285
G1 X21.952 Y116.627 E32.87971
G1 X21.717 Y115.957 E32.90805
G1 X20.899 Y113.149 E33.02478
G1 X20.74 Y112.47 E33.05261
G1 X20.222 Y109.586 E33.16956
G1 X20.135 Y108.886 E33.19771
G1 X19.928 Y105.969 E33.31443
G1 X19.915 Y105.267 E33.34245
G1 X20.019 Y102.342 E33.45927
G1 X20.081 Y101.644 E33.48724
G1 X20.495 Y98.744 E33.60416
G1 X20.632 Y98.052 E33.63231
G1 X21.352 Y95.217 E33.74906
G1 X21.56 Y94.549 E33.77698
G1 X22.577 Y91.804 E33.89382
G1 X22.857 Y91.157 E33.92195
G1 X24.161 Y88.536 E34.0388
G1 X24.505 Y87.928 E34.06668
G1 X26.079 Y85.459 E34.18354
G1 X26.489 Y84.885 E34.2117
G1 X28.316 Y82.6 E34.32846
G1 X28.784 Y82.075 E34.35653
G1 X30.846 Y79.995 E34.47343
G1 X31.367 Y79.523 E34.50149
G1 X33.638 Y77.675 E34.61835
G1 X34.203 Y77.263 E34.64626
G1 X36.654 Y75.667 E34.76299
G1 X37.266 Y75.314 E34.79119
G0 F2400 X37.447 Y75.67
G1 F1200 X40.057 Y74.344 E34.90804
G1 X40.657 Y74.078 E34.93423
G1 X43.394 Y73.035 E35.05113
G1 X44.023 Y72.833 E35.0775
G1 X46.852 Y72.088 E35.19426
G1 X47.5 Y71.954 E35.22067
G1 X50.396 Y71.514 E35.33758
G1 X51.052 Y71.45 E35.36389
G1 X53.976 Y71.32 E35.48071
G1 X54.637 Y71.326 E35.50709
G1 X57.557 Y71.508 E35.62386
G1 X58.21 Y71.584 E35.6501
G1 X61.098 Y72.075 E35.76702
G1 X61.744 Y72.22 E35.79345
G1 X64.559 Y73.015 E35.91019
G1 X65.182 Y73.228 E35.93647
