;FLAVOR:Marlin
;TIME:1312
;Filament used: 1.03037m, 0m
;Layer height: 0.12
;POSTPROCESSED
;Generated with Cura_SteamEngine 3.6.0
T0
M140 S60
M105
M190 S60
M104 S198
M105
M109 S198
M82 ;absolute extrusion mode
; Printer start settings begin
; Calibration section to overwrite Firmware values
; Identifier CALIBR, CALRES and CALMPE, surrounded by #, + or - can be used in post processing
; #CALIBR# M92 X160 Y160 Z3200 ; +CALIBR+ Steps per unit
; #CALRESO# M201 X1000 Y1000 Z50 E1500 E1500 ; +CALRESO+ Max Accelleration
; #CALRESO# M203 X800 Y800 Z2 E90 E90 ; +CALRESO+ Max Feed
; #CALRESO# M205 X3.0 Y3.0 Z0.3 E5.0 ; +CALRESO+ Default Jerk
; #CALMPE#
M951 L32 R139 G32 N75 H300 D10 C0 ; +CALMPE+ Parking kinematic values / needs MPE kinematic to be compiled and activated in firmware
; #CALMPE#
M851 Z-0.55 ; +CALMPE+ System Z Probe Offset
; #CALMPE#
M218 T1 X0.75 Y0.0 Z0.25; +CALMPE+ T1 Nozzle offset values
; #CALMPE#
M206 X-32.00 Y0.00 Z0.00; +CALMPE+ Home Offset
; #REM#  M951 args: L: Left parking,R: Right parking, I: Grab Offset, J: Normal speed, H: High speed, D: Distance trav., C: Compenstion
; #CALMPE#
M951 L32 R140 I32 J4500 H9000 D10 C0 ; MPE Setup
; #CALMPE# M217 Z5.00 Z-Lift
G28 ;Home
G92 E5
G1 F1000 E0
; #MPE# G29 ; -MPE- Auto Bed Level, uses this if FW values are set correct.
; #MPE# G29 X3 Y3 L0 R109 F32 B168 ; +MPE+ Auto Bed Leveling, needed if not poroper defined in Firmware
G92 E-5
G1 E0 F400
G0 Z15.0 F100 ;Move the platform down 15mm
G0 X0 Y0 F9000 ;Move to front
T1
G0 X0 Y0 F9000 ;Move to front
G92 E-30
G1 F200 E0
T0
G0 X0 Y0 F9000 ;Move to front
G92 E-30
G1 F200 E0
; Printer start settings end
G92 E0
G1 F1200 E-3
;LAYER_COUNT:146
;LAYER:0
M107
G0 F1800 X46.802 Y91.846 Z0.2
;TYPE:SKIRT
G1 F1200 E0
G1 X47.893 Y91.305 E0.06075
G1 X48.466 Y91.065 E0.09175
G1 X49.643 Y90.654 E0.15395
G1 X50.22 Y90.49 E0.18387
G1 X51.396 Y90.232 E0.24394
G1 X52.009 Y90.137 E0.27489
G1 X53.248 Y90.023 E0.33696
G1 X53.869 Y90.005 E0.36796
G1 X55.098 Y90.045 E0.4293
G1 X55.702 Y90.101 E0.45957
G1 X56.907 Y90.288 E0.5204
G1 X57.513 Y90.421 E0.55136
G1 X58.704 Y90.761 E0.61315
G1 X59.279 Y90.964 E0.64357
G1 X60.404 Y91.44 E0.70452
G1 X60.956 Y91.715 E0.73528
G1 X62.023 Y92.331 E0.79675
G1 X62.539 Y92.673 E0.82764
G1 X63.523 Y93.417 E0.88918
G1 X63.985 Y93.813 E0.91954
G1 X64.868 Y94.668 E0.98086
G1 X65.288 Y95.129 E1.01197
G1 X66.06 Y96.09 E1.07347
G1 X66.413 Y96.589 E1.10397
G1 X67.062 Y97.637 E1.16546
G1 X67.352 Y98.176 E1.196
G1 X67.866 Y99.291 E1.25725
G1 X68.091 Y99.873 E1.28838
G1 X68.463 Y101.046 E1.34978
G1 X68.613 Y101.644 E1.38054
G1 X68.841 Y102.871 E1.4428
G1 X68.915 Y103.475 E1.47316
G1 X68.99 Y104.688 E1.53379
G1 X68.99 Y105.306 E1.56462
G1 X68.914 Y106.534 E1.62601
G1 X68.839 Y107.145 E1.65672
G1 X68.612 Y108.358 E1.71828
G1 X68.463 Y108.948 E1.74864
G1 X68.092 Y110.119 E1.80993
G1 X67.867 Y110.701 E1.84106
G1 X67.352 Y111.819 E1.90247
G1 X67.061 Y112.361 E1.93316
G1 X66.412 Y113.408 E1.99462
G1 X66.058 Y113.908 E2.02518
G1 X65.285 Y114.869 E2.08671
G1 X64.871 Y115.323 E2.11736
G1 X63.989 Y116.179 E2.17868
G1 X63.523 Y116.579 E2.20932
G1 X62.539 Y117.323 E2.27087
G1 X62.02 Y117.667 E2.30193
G1 X60.955 Y118.281 E2.36326
G1 X60.409 Y118.553 E2.3937
G1 X59.274 Y119.034 E2.4552
G1 X58.678 Y119.243 E2.48671
G1 X57.47 Y119.583 E2.54932
G1 X56.869 Y119.713 E2.57999
G1 X55.649 Y119.899 E2.64156
G1 X55.042 Y119.954 E2.67197
G1 X53.821 Y119.99 E2.73291
G1 X53.208 Y119.97 E2.76351
G1 X52.012 Y119.858 E2.82344
G1 X51.413 Y119.765 E2.85368
G1 X50.197 Y119.5 E2.91577
G1 X49.601 Y119.331 E2.94668
G1 X48.44 Y118.922 E3.00809
G1 X47.871 Y118.681 E3.03892
G1 X46.769 Y118.132 E3.10034
G1 X46.237 Y117.825 E3.13099
G1 X45.211 Y117.145 E3.1924
G1 X44.72 Y116.774 E3.2231
G1 X43.785 Y115.973 E3.28452
G1 X43.346 Y115.547 E3.31504
G1 X42.516 Y114.638 E3.37645
G1 X42.125 Y114.153 E3.40753
G1 X41.414 Y113.147 E3.46899
G1 X41.091 Y112.624 E3.49966
G1 X40.509 Y111.539 E3.56109
G1 X40.253 Y110.983 E3.59163
G1 X39.808 Y109.835 E3.65305
G1 X39.621 Y109.246 E3.68388
G1 X39.319 Y108.044 E3.74572
G1 X39.204 Y107.422 E3.77727
G1 X39.055 Y106.181 E3.83963
G1 X39.019 Y105.577 E3.86982
G1 X39.021 Y104.368 E3.93014
G1 X39.058 Y103.771 E3.95998
G1 X39.206 Y102.557 E4.02099
G1 X39.322 Y101.934 E4.05261
G1 X39.628 Y100.726 E4.11478
G1 X39.817 Y100.137 E4.14564
G1 X40.264 Y98.991 E4.20701
G1 X40.524 Y98.429 E4.2379
G1 X41.119 Y97.329 E4.3003
G1 X41.436 Y96.819 E4.33026
G1 X42.136 Y95.83 E4.39071
G1 X42.533 Y95.339 E4.42221
G1 X43.367 Y94.43 E4.48375
G1 X43.798 Y94.013 E4.51367
G1 X44.732 Y93.213 E4.57503
G1 X45.234 Y92.835 E4.60638
G1 X46.272 Y92.151 E4.6684
G1 X46.802 Y91.846 E4.6989
G0 F1800 X46.979 Y92.205
G1 F1200 X48.07 Y91.664 E4.75966
G1 X48.598 Y91.442 E4.78823
G1 X49.775 Y91.031 E4.85043
G1 X50.305 Y90.881 E4.87791
G1 X51.481 Y90.623 E4.93798
G1 X52.046 Y90.535 E4.96651
G1 X53.285 Y90.421 E5.02858
G1 X53.856 Y90.404 E5.05708
G1 X55.085 Y90.444 E5.11843
G1 X55.64 Y90.496 E5.14624
G1 X56.845 Y90.683 E5.20708
G1 X57.403 Y90.806 E5.23558
G1 X58.594 Y91.146 E5.29738
G1 X59.123 Y91.333 E5.32537
G1 X60.248 Y91.809 E5.38631
G1 X60.756 Y92.061 E5.4146
G1 X61.823 Y92.677 E5.47607
G1 X62.297 Y92.992 E5.50446
G1 X63.281 Y93.736 E5.56601
G1 X63.707 Y94.1 E5.59396
G1 X64.59 Y94.955 E5.65529
G1 X64.976 Y95.379 E5.68389
G1 X65.748 Y96.34 E5.74539
G1 X66.073 Y96.799 E5.77345
G1 X66.722 Y97.847 E5.83495
G1 X66.988 Y98.343 E5.86303
G1 X67.502 Y99.458 E5.92428
G1 X67.71 Y99.993 E5.95292
G1 X68.082 Y101.166 E6.01431
G1 X68.22 Y101.717 E6.04265
G1 X68.448 Y102.944 E6.10491
G1 X68.516 Y103.5 E6.13286
G1 X68.591 Y104.713 E6.19349
G1 X68.591 Y105.281 E6.22183
G1 X68.515 Y106.509 E6.28321
G1 X68.446 Y107.071 E6.31146
G1 X68.219 Y108.284 E6.37303
G1 X68.082 Y108.827 E6.40097
G1 X67.711 Y109.998 E6.46225
G1 X67.504 Y110.534 E6.49092
G1 X66.989 Y111.652 E6.55233
G1 X66.721 Y112.151 E6.58059
G1 X66.072 Y113.198 E6.64204
G1 X65.746 Y113.657 E6.67013
G1 X64.973 Y114.618 E6.73166
G1 X64.593 Y115.036 E6.75984
G1 X63.711 Y115.892 E6.82116
G1 X63.281 Y116.26 E6.8494
G1 X62.297 Y117.004 E6.91094
G1 X61.821 Y117.32 E6.93945
G1 X60.756 Y117.934 E7.00078
G1 X60.253 Y118.184 E7.0288
G1 X59.118 Y118.665 E7.0903
G1 X58.569 Y118.858 E7.11934
G1 X57.361 Y119.198 E7.18195
G1 X56.808 Y119.317 E7.21017
G1 X55.588 Y119.503 E7.27174
G1 X55.031 Y119.554 E7.29964
G1 X53.81 Y119.59 E7.36058
G1 X53.245 Y119.572 E7.38879
G1 X52.049 Y119.46 E7.44872
G1 X51.499 Y119.375 E7.47648
G1 X50.283 Y119.11 E7.53857
G1 X49.734 Y118.954 E7.56704
G1 X48.573 Y118.545 E7.62846
G1 X48.05 Y118.323 E7.6568
G1 X46.948 Y117.774 E7.71823
G1 X46.458 Y117.491 E7.74646
G1 X45.432 Y116.811 E7.80787
G1 X44.98 Y116.47 E7.83611
G1 X44.045 Y115.669 E7.89754
G1 X43.641 Y115.278 E7.92559
G1 X42.811 Y114.369 E7.987
G1 X42.452 Y113.922 E8.0156
G1 X41.741 Y112.916 E8.07706
G1 X41.443 Y112.435 E8.10529
G1 X40.861 Y111.35 E8.16672
G1 X40.626 Y110.839 E8.19478
G1 X40.181 Y109.691 E8.2562
G1 X40.009 Y109.149 E8.28457
G1 X39.707 Y107.947 E8.34641
G1 X39.601 Y107.374 E8.37548
G1 X39.452 Y106.133 E8.43784
G1 X39.419 Y105.577 E8.46562
G1 X39.421 Y104.368 E8.52594
G1 X39.455 Y103.819 E8.55338
G1 X39.603 Y102.605 E8.6144
G1 X39.71 Y102.032 E8.64348
G1 X40.016 Y100.824 E8.70565
G1 X40.189 Y100.282 E8.73403
G1 X40.636 Y99.136 E8.7954
G1 X40.876 Y98.619 E8.82384
G1 X41.471 Y97.519 E8.88623
G1 X41.762 Y97.05 E8.91377
G1 X42.462 Y96.061 E8.97422
G1 X42.827 Y95.609 E9.00321
G1 X43.661 Y94.7 E9.06475
G1 X44.059 Y94.316 E9.09234
G1 X44.993 Y93.516 E9.1537
G1 X45.454 Y93.169 E9.18248
G1 X46.492 Y92.485 E9.2445
G1 X46.979 Y92.205 E9.27253
G0 F1800 X47.157 Y92.563
G1 F1200 X48.248 Y92.022 E9.33328
G1 X48.729 Y91.82 E9.35931
G1 X49.906 Y91.409 E9.42151
G1 X50.391 Y91.272 E9.44665
G1 X51.567 Y91.014 E9.50672
G1 X52.082 Y90.934 E9.53272
G1 X53.321 Y90.82 E9.5948
G1 X53.843 Y90.804 E9.62085
G1 X55.072 Y90.844 E9.6822
G1 X55.579 Y90.892 E9.70761
G1 X56.784 Y91.079 E9.76844
G1 X57.293 Y91.19 E9.79443
G1 X58.484 Y91.53 E9.85623
G1 X58.968 Y91.701 E9.88184
G1 X60.093 Y92.177 E9.94278
G1 X60.556 Y92.408 E9.96859
G1 X61.623 Y93.024 E10.03006
G1 X62.056 Y93.311 E10.05598
G1 X63.04 Y94.055 E10.11752
G1 X63.429 Y94.388 E10.14307
G1 X64.312 Y95.243 E10.20439
G1 X64.664 Y95.63 E10.23049
G1 X65.436 Y96.591 E10.29199
G1 X65.733 Y97.01 E10.31761
G1 X66.382 Y98.058 E10.37911
G1 X66.625 Y98.511 E10.40476
G1 X67.139 Y99.626 E10.46601
G1 X67.328 Y100.114 E10.49212
G1 X67.7 Y101.287 E10.55351
G1 X67.826 Y101.79 E10.57938
G1 X68.054 Y103.017 E10.64165
G1 X68.117 Y103.525 E10.66718
G1 X68.192 Y104.738 E10.72782
G1 X68.192 Y105.256 E10.75366
G1 X68.116 Y106.484 E10.81504
G1 X68.052 Y106.998 E10.84088
G1 X67.825 Y108.211 E10.90245
G1 X67.701 Y108.707 E10.92796
G1 X67.33 Y109.878 E10.98924
G1 X67.141 Y110.366 E11.01535
G1 X66.626 Y111.484 E11.07676
G1 X66.381 Y111.94 E11.10259
G1 X65.732 Y112.987 E11.16404
G1 X65.435 Y113.406 E11.18967
G1 X64.662 Y114.367 E11.2512
G1 X64.314 Y114.749 E11.27698
G1 X63.432 Y115.605 E11.3383
G1 X63.04 Y115.941 E11.36405
G1 X62.056 Y116.685 E11.4256
G1 X61.621 Y116.974 E11.45165
G1 X60.556 Y117.588 E11.51299
G1 X60.097 Y117.816 E11.53855
G1 X58.962 Y118.297 E11.60006
G1 X58.461 Y118.473 E11.62655
G1 X57.253 Y118.813 E11.68916
G1 X56.748 Y118.922 E11.71493
G1 X55.528 Y119.108 E11.7765
G1 X55.019 Y119.154 E11.802
G1 X53.798 Y119.19 E11.86294
G1 X53.282 Y119.174 E11.8887
G1 X52.086 Y119.062 E11.94863
G1 X51.584 Y118.984 E11.97397
G1 X50.368 Y118.719 E12.03606
G1 X49.866 Y118.576 E12.0621
G1 X48.705 Y118.167 E12.12351
G1 X48.228 Y117.965 E12.14936
G1 X47.126 Y117.416 E12.21078
G1 X46.679 Y117.158 E12.23653
G1 X45.653 Y116.478 E12.29794
G1 X45.241 Y116.167 E12.32369
G1 X44.306 Y115.366 E12.38512
G1 X43.936 Y115.008 E12.4108
G1 X43.106 Y114.099 E12.47221
G1 X42.778 Y113.691 E12.49833
G1 X42.067 Y112.685 E12.55979
G1 X41.796 Y112.246 E12.58553
G1 X41.214 Y111.161 E12.64696
G1 X40.999 Y110.694 E12.67261
G1 X40.554 Y109.546 E12.73403
G1 X40.397 Y109.051 E12.75994
G1 X40.095 Y107.849 E12.82177
G1 X39.998 Y107.327 E12.84826
G1 X39.849 Y106.086 E12.91062
G1 X39.819 Y105.578 E12.93601
G1 X39.821 Y104.369 E12.99633
G1 X39.852 Y103.868 E13.02137
G1 X40 Y102.654 E13.08238
G1 X40.098 Y102.131 E13.10893
G1 X40.404 Y100.923 E13.1711
G1 X40.562 Y100.428 E13.19702
G1 X41.009 Y99.282 E13.25839
G1 X41.228 Y98.81 E13.28435
G1 X41.823 Y97.71 E13.34675
G1 X42.089 Y97.282 E13.37189
G1 X42.789 Y96.293 E13.43234
G1 X43.122 Y95.88 E13.4588
G1 X43.956 Y94.971 E13.52035
G1 X44.319 Y94.62 E13.54554
G1 X45.253 Y93.82 E13.6069
G1 X45.674 Y93.503 E13.63319
G1 X46.712 Y92.819 E13.69521
G1 X47.157 Y92.563 E13.72082
G0 F1800 X47.335 Y92.922
G1 F1200 X48.426 Y92.381 E13.78157
G1 X48.861 Y92.197 E13.80514
G1 X50.038 Y91.786 E13.86734
G1 X50.477 Y91.662 E13.8901
G1 X51.653 Y91.404 E13.95016
G1 X52.119 Y91.332 E13.97369
G1 X53.358 Y91.218 E14.03576
G1 X53.83 Y91.204 E14.05932
G1 X55.059 Y91.244 E14.12067
G1 X55.518 Y91.287 E14.14367
G1 X56.723 Y91.474 E14.2045
G1 X57.183 Y91.575 E14.228
G1 X58.374 Y91.915 E14.28979
G1 X58.812 Y92.069 E14.31296
G1 X59.937 Y92.545 E14.3739
G1 X60.356 Y92.754 E14.39726
G1 X61.423 Y93.37 E14.45873
G1 X61.815 Y93.63 E14.4822
G1 X62.799 Y94.374 E14.54374
G1 X63.15 Y94.675 E14.56681
G1 X64.033 Y95.53 E14.62813
G1 X64.352 Y95.88 E14.65176
G1 X65.124 Y96.841 E14.71325
G1 X65.393 Y97.22 E14.73644
G1 X66.042 Y98.268 E14.79794
G1 X66.262 Y98.678 E14.82115
G1 X66.776 Y99.793 E14.88241
G1 X66.947 Y100.235 E14.90605
G1 X67.319 Y101.408 E14.96745
G1 X67.433 Y101.863 E14.99085
G1 X67.661 Y103.09 E15.05311
G1 X67.718 Y103.549 E15.07619
G1 X67.793 Y104.762 E15.13682
G1 X67.793 Y105.232 E15.16027
G1 X67.717 Y106.46 E15.22165
G1 X67.659 Y106.924 E15.24498
G1 X67.432 Y108.137 E15.30655
G1 X67.32 Y108.586 E15.32963
G1 X66.949 Y109.757 E15.39092
G1 X66.777 Y110.199 E15.41458
G1 X66.262 Y111.317 E15.47599
G1 X66.041 Y111.729 E15.49931
G1 X65.392 Y112.776 E15.56077
G1 X65.123 Y113.156 E15.584
G1 X64.35 Y114.117 E15.64553
G1 X64.036 Y114.462 E15.6688
G1 X63.154 Y115.318 E15.73012
G1 X62.799 Y115.622 E15.75344
G1 X61.815 Y116.366 E15.81498
G1 X61.421 Y116.627 E15.83856
G1 X60.356 Y117.241 E15.89989
G1 X59.941 Y117.448 E15.92303
G1 X58.806 Y117.929 E15.98453
G1 X58.353 Y118.088 E16.00848
G1 X57.145 Y118.428 E16.07109
G1 X56.688 Y118.527 E16.09442
G1 X55.468 Y118.713 E16.15599
G1 X55.007 Y118.754 E16.17908
G1 X53.786 Y118.79 E16.24002
G1 X53.32 Y118.775 E16.26328
G1 X52.124 Y118.663 E16.32321
G1 X51.669 Y118.593 E16.34618
G1 X50.453 Y118.328 E16.40827
G1 X49.999 Y118.199 E16.43182
G1 X48.838 Y117.79 E16.49323
G1 X48.407 Y117.607 E16.51659
G1 X47.305 Y117.058 E16.57801
G1 X46.9 Y116.824 E16.60135
G1 X45.874 Y116.144 E16.66276
G1 X45.501 Y115.863 E16.68606
G1 X44.566 Y115.062 E16.74748
G1 X44.232 Y114.738 E16.7707
G1 X43.402 Y113.829 E16.83211
G1 X43.105 Y113.46 E16.85574
G1 X42.394 Y112.454 E16.9172
G1 X42.148 Y112.057 E16.9405
G1 X41.566 Y110.972 E17.00193
G1 X41.372 Y110.549 E17.02514
G1 X40.927 Y109.401 E17.08657
G1 X40.785 Y108.954 E17.10997
G1 X40.483 Y107.752 E17.1718
G1 X40.395 Y107.279 E17.1958
G1 X40.246 Y106.038 E17.25816
G1 X40.219 Y105.579 E17.2811
G1 X40.221 Y104.37 E17.34142
G1 X40.249 Y103.916 E17.36411
G1 X40.397 Y102.702 E17.42513
G1 X40.485 Y102.229 E17.44913
G1 X40.791 Y101.021 E17.5113
G1 X40.935 Y100.573 E17.53478
G1 X41.382 Y99.427 E17.59615
G1 X41.58 Y99 E17.61963
G1 X42.175 Y97.9 E17.68202
G1 X42.415 Y97.513 E17.70474
G1 X43.115 Y96.524 E17.76519
G1 X43.417 Y96.15 E17.78917
G1 X44.251 Y95.241 E17.85072
G1 X44.579 Y94.924 E17.87348
G1 X45.513 Y94.124 E17.93483
G1 X45.894 Y93.837 E17.95863
G1 X46.932 Y93.153 E18.02065
G1 X47.335 Y92.922 E18.04382
G0 F1800 X47.513 Y93.28
G1 F1200 X48.604 Y92.739 E18.10458
G1 X48.993 Y92.575 E18.12564
G1 X50.17 Y92.164 E18.18784
G1 X50.562 Y92.053 E18.20816
G1 X51.738 Y91.795 E18.26823
G1 X52.155 Y91.73 E18.28928
G1 X53.394 Y91.616 E18.35136
G1 X53.817 Y91.604 E18.37247
G1 X55.046 Y91.644 E18.43382
G1 X55.456 Y91.682 E18.45436
G1 X56.661 Y91.869 E18.5152
G1 X57.073 Y91.96 E18.53625
G1 X58.264 Y92.3 E18.59804
G1 X58.656 Y92.438 E18.61878
G1 X59.781 Y92.914 E18.67972
G1 X60.156 Y93.1 E18.7006
G1 X61.223 Y93.716 E18.76207
G1 X61.574 Y93.949 E18.78309
G1 X62.558 Y94.693 E18.84463
G1 X62.872 Y94.962 E18.86526
G1 X63.755 Y95.817 E18.92658
G1 X64.041 Y96.131 E18.94777
G1 X64.813 Y97.092 E19.00927
G1 X65.053 Y97.431 E19.02999
G1 X65.702 Y98.479 E19.09149
G1 X65.899 Y98.846 E19.11227
G1 X66.413 Y99.961 E19.17353
G1 X66.566 Y100.356 E19.19466
G1 X66.938 Y101.529 E19.25605
G1 X67.04 Y101.936 E19.27699
G1 X67.268 Y103.163 E19.33925
G1 X67.319 Y103.574 E19.35991
G1 X67.394 Y104.787 E19.42054
G1 X67.394 Y105.207 E19.4415
G1 X67.318 Y106.435 E19.50288
G1 X67.266 Y106.85 E19.52375
G1 X67.039 Y108.063 E19.58531
G1 X66.938 Y108.465 E19.60599
G1 X66.567 Y109.636 E19.66728
G1 X66.414 Y110.032 E19.68846
G1 X65.899 Y111.15 E19.74987
G1 X65.701 Y111.518 E19.77072
G1 X65.052 Y112.565 E19.83217
G1 X64.811 Y112.905 E19.85296
G1 X64.038 Y113.866 E19.91449
G1 X63.757 Y114.175 E19.93533
G1 X62.875 Y115.031 E19.99665
G1 X62.558 Y115.303 E20.01749
G1 X61.574 Y116.047 E20.07903
G1 X61.221 Y116.281 E20.10016
G1 X60.156 Y116.895 E20.16149
G1 X59.785 Y117.079 E20.18216
G1 X58.65 Y117.56 E20.24366
G1 X58.244 Y117.703 E20.26513
G1 X57.036 Y118.043 E20.32774
G1 X56.627 Y118.131 E20.34861
G1 X55.407 Y118.317 E20.41018
G1 X54.995 Y118.355 E20.43082
G1 X53.774 Y118.391 E20.49177
G1 X53.357 Y118.377 E20.51258
G1 X52.161 Y118.265 E20.57251
G1 X51.754 Y118.202 E20.59306
G1 X50.538 Y117.937 E20.65515
G1 X50.132 Y117.822 E20.6762
G1 X48.971 Y117.413 E20.73761
G1 X48.585 Y117.249 E20.75854
G1 X47.483 Y116.7 E20.81996
G1 X47.121 Y116.491 E20.84081
G1 X46.095 Y115.811 E20.90222
G1 X45.761 Y115.559 E20.9231
G1 X44.826 Y114.758 E20.98452
G1 X44.527 Y114.469 E21.00527
G1 X43.697 Y113.56 E21.06668
G1 X43.431 Y113.229 E21.08786
G1 X42.72 Y112.223 E21.14932
G1 X42.501 Y111.868 E21.17013
G1 X41.919 Y110.783 E21.23156
G1 X41.745 Y110.405 E21.25232
G1 X41.3 Y109.257 E21.31375
G1 X41.172 Y108.856 E21.33475
G1 X40.87 Y107.654 E21.39658
G1 X40.792 Y107.231 E21.41804
