;FLAVOR:Marlin
;TIME:860
;Filament used: 1.04984m, 0m
;Layer height: 0.2
;POSTPROCESSED
;Generated with Cura_SteamEngine 3.6.0
T0
M140 S60
M105
M190 S60
M104 S198
M105
M109 S198
M82 ;absolute extrusion mode
; Printer start settings begin
; Calibration section to overwrite Firmware values
; Identifier CALIBR, CALRES and CALMPE, surrounded by #, + or - can be used in post processing
; #CALIBR# M92 X160 Y160 Z3200 ; +CALIBR+ Steps per unit
; #CALRESO# M201 X1000 Y1000 Z50 E1500 E1500 ; +CALRESO+ Max Accelleration
; #CALRESO# M203 X800 Y800 Z2 E90 E90 ; +CALRESO+ Max Feed
; #CALRESO# M205 X3.0 Y3.0 Z0.3 E5.0 ; +CALRESO+ Default Jerk
; #CALMPE#
M951 L32 R139 G32 N75 H300 D10 C0 ; +CALMPE+ Parking kinematic values / needs MPE kinematic to be compiled and activated in firmware
; #CALMPE#
M851 Z-0.55 ; +CALMPE+ System Z Probe Offset
; #CALMPE#
M218 T1 X0.75 Y0.0 Z0.25; +CALMPE+ T1 Nozzle offset values
; #CALMPE#
M206 X-32.00 Y0.00 Z0.00; +CALMPE+ Home Offset
; #REM#  M951 args: L: Left parking,R: Right parking, I: Grab Offset, J: Normal speed, H: High speed, D: Distance trav., C: Compenstion
; #CALMPE#
M951 L32 R140 I32 J4500 H9000 D10 C0 ; MPE Setup
; #CALMPE# M217 Z5.00 Z-Lift
G28 ;Home
G92 E5
G1 F1000 E0
; #MPE# G29 ; -MPE- Auto Bed Level, uses this if FW values are set correct.
; #MPE# G29 X3 Y3 L0 R109 F32 B168 ; +MPE+ Auto Bed Leveling, needed if not poroper defined in Firmware
G92 E-5
G1 E0 F400
G0 Z15.0 F100 ;Move the platform down 15mm
G0 X0 Y0 F9000 ;Move to front
T1
G0 X0 Y0 F9000 ;Move to front
G92 E-30
G1 F200 E0
T0
G0 X0 Y0 F9000 ;Move to front
G92 E-30
G1 F200 E0
; Printer start settings end
G92 E0
G1 F1200 E-3
;LAYER_COUNT:11
;LAYER:0
M107
G0 F1800 X38.341 Y80.677 Z0.2
;TYPE:SKIRT
G1 F1200 E0
G1 X38.916 Y80.415 E0.03152
G1 X39.52 Y80.227 E0.06308
G1 X39.968 Y80.14 E0.08585
G1 X40.55 Y80.054 E0.1152
G1 X41.283 Y80 E0.15187
G1 X66.916 Y80.01 E1.43071
G1 X67.547 Y80.05 E1.46225
G1 X68.356 Y80.222 E1.50352
G1 X69.103 Y80.447 E1.54244
G1 X69.696 Y80.668 E1.57401
G1 X70.256 Y80.961 E1.60554
G1 X70.826 Y81.365 E1.6404
G1 X71.43 Y81.859 E1.67933
G1 X71.894 Y82.289 E1.71089
G1 X72.299 Y82.774 E1.74241
G1 X72.673 Y83.368 E1.77743
G1 X73.042 Y84.057 E1.81642
G1 X73.304 Y84.632 E1.84795
G1 X73.492 Y85.236 E1.87951
G1 X73.58 Y85.686 E1.90238
G1 X73.666 Y86.267 E1.93169
G1 X73.72 Y87 E1.96835
G1 X73.71 Y123.195 E3.77413
G1 X73.67 Y123.826 E3.80567
G1 X73.498 Y124.636 E3.84699
G1 X73.273 Y125.383 E3.88591
G1 X73.052 Y125.976 E3.91748
G1 X72.759 Y126.536 E3.94901
G1 X72.355 Y127.106 E3.98387
G1 X71.861 Y127.71 E4.0228
G1 X71.431 Y128.174 E4.05436
G1 X70.946 Y128.579 E4.08588
G1 X70.349 Y128.954 E4.12106
G1 X69.659 Y129.323 E4.16009
G1 X69.084 Y129.585 E4.19162
G1 X68.48 Y129.773 E4.22318
G1 X68.032 Y129.86 E4.24595
G1 X67.45 Y129.946 E4.2753
G1 X66.717 Y130 E4.31197
G1 X41.084 Y129.99 E5.5908
G1 X40.453 Y129.95 E5.62235
G1 X39.644 Y129.778 E5.66361
G1 X38.897 Y129.553 E5.70253
G1 X38.304 Y129.332 E5.7341
G1 X37.744 Y129.039 E5.76563
G1 X37.174 Y128.635 E5.80049
G1 X36.57 Y128.141 E5.83942
G1 X36.106 Y127.711 E5.87098
G1 X35.701 Y127.226 E5.9025
G1 X35.326 Y126.629 E5.93768
G1 X34.956 Y125.937 E5.97683
G1 X34.693 Y125.361 E6.00842
G1 X34.506 Y124.758 E6.03991
G1 X34.418 Y124.306 E6.06289
G1 X34.333 Y123.728 E6.09203
G1 X34.28 Y123 E6.12845
G1 X34.29 Y86.805 E7.93423
G1 X34.33 Y86.174 E7.96577
G1 X34.502 Y85.364 E8.00708
G1 X34.727 Y84.617 E8.046
G1 X34.948 Y84.024 E8.07758
G1 X35.241 Y83.464 E8.10911
G1 X35.645 Y82.894 E8.14396
G1 X36.139 Y82.29 E8.18289
G1 X36.569 Y81.826 E8.21445
G1 X37.054 Y81.421 E8.24598
G1 X37.651 Y81.046 E8.28115
G1 X38.341 Y80.677 E8.32019
G0 F1800 X38.53 Y81.03
G1 F1200 X39.082 Y80.78 E8.35042
G1 X39.662 Y80.604 E8.38066
G1 X40.027 Y80.535 E8.39919
G1 X40.609 Y80.449 E8.42854
G1 X41.283 Y80.4 E8.46226
G1 X66.916 Y80.41 E9.74109
G1 X67.521 Y80.45 E9.77134
G1 X68.241 Y80.605 E9.80809
G1 X68.988 Y80.83 E9.84701
G1 X69.555 Y81.043 E9.87723
G1 X70.09 Y81.329 E9.90749
G1 X70.573 Y81.674 E9.93711
G1 X71.177 Y82.168 E9.97603
G1 X71.62 Y82.582 E10.00629
G1 X72.005 Y83.051 E10.03656
G1 X72.32 Y83.557 E10.06629
G1 X72.689 Y84.246 E10.10529
G1 X72.939 Y84.798 E10.13552
G1 X73.115 Y85.379 E10.16581
G1 X73.184 Y85.744 E10.18434
G1 X73.27 Y86.325 E10.21364
G1 X73.32 Y87 E10.24741
G1 X73.31 Y123.195 E12.05319
G1 X73.27 Y123.8 E12.08343
G1 X73.115 Y124.521 E12.12023
G1 X72.89 Y125.268 E12.15915
G1 X72.677 Y125.835 E12.18937
G1 X72.391 Y126.37 E12.21963
G1 X72.046 Y126.853 E12.24925
G1 X71.552 Y127.457 E12.28817
G1 X71.138 Y127.9 E12.31843
G1 X70.669 Y128.285 E12.3487
G1 X70.16 Y128.601 E12.37859
G1 X69.47 Y128.97 E12.41763
G1 X68.918 Y129.22 E12.44786
G1 X68.338 Y129.396 E12.4781
G1 X67.973 Y129.465 E12.49663
G1 X67.391 Y129.551 E12.52598
G1 X66.717 Y129.6 E12.5597
G1 X41.084 Y129.59 E13.83853
G1 X40.479 Y129.55 E13.86878
G1 X39.759 Y129.395 E13.90552
G1 X39.012 Y129.17 E13.94445
G1 X38.445 Y128.957 E13.97466
G1 X37.91 Y128.671 E14.00493
G1 X37.427 Y128.326 E14.03454
G1 X36.823 Y127.832 E14.07347
G1 X36.38 Y127.418 E14.10372
G1 X35.995 Y126.949 E14.13399
G1 X35.678 Y126.44 E14.16391
G1 X35.308 Y125.748 E14.20306
G1 X35.058 Y125.196 E14.23329
G1 X34.883 Y124.615 E14.26356
G1 X34.814 Y124.248 E14.28219
G1 X34.729 Y123.67 E14.31134
G1 X34.68 Y123 E14.34486
G1 X34.69 Y86.805 E16.15063
G1 X34.73 Y86.2 E16.18088
G1 X34.885 Y85.479 E16.21768
G1 X35.11 Y84.732 E16.2566
G1 X35.323 Y84.165 E16.28681
G1 X35.609 Y83.63 E16.31708
G1 X35.954 Y83.147 E16.34669
G1 X36.448 Y82.543 E16.38562
G1 X36.862 Y82.1 E16.41587
G1 X37.331 Y81.715 E16.44615
G1 X37.84 Y81.399 E16.47604
G1 X38.53 Y81.03 E16.51507
G0 F1800 X38.718 Y81.382
G1 F1200 X39.247 Y81.145 E16.54399
G1 X40.085 Y80.931 E16.58714
G1 X40.667 Y80.845 E16.61649
G1 X41.283 Y80.8 E16.64731
G1 X66.916 Y80.81 E17.92614
G1 X67.494 Y80.85 E17.95505
G1 X68.125 Y80.988 E17.98727
G1 X68.872 Y81.213 E18.0262
G1 X69.414 Y81.418 E18.05511
G1 X69.923 Y81.696 E18.08404
G1 X70.32 Y81.984 E18.10851
G1 X70.924 Y82.478 E18.14744
G1 X71.346 Y82.875 E18.17634
G1 X71.71 Y83.326 E18.20526
G1 X71.967 Y83.746 E18.22982
G1 X72.336 Y84.435 E18.26882
G1 X72.574 Y84.963 E18.29771
G1 X72.789 Y85.803 E18.34097
G1 X72.875 Y86.384 E18.37027
G1 X72.92 Y87 E18.40109
G1 X72.91 Y123.195 E20.20686
G1 X72.87 Y123.773 E20.23577
G1 X72.732 Y124.405 E20.26804
G1 X72.507 Y125.152 E20.30696
G1 X72.302 Y125.694 E20.33587
G1 X72.024 Y126.203 E20.36481
G1 X71.736 Y126.6 E20.38928
G1 X71.242 Y127.204 E20.42821
G1 X70.845 Y127.626 E20.45711
G1 X70.394 Y127.99 E20.48603
G1 X69.972 Y128.249 E20.51073
G1 X69.282 Y128.618 E20.54977
G1 X68.753 Y128.855 E20.57869
G1 X67.915 Y129.069 E20.62184
G1 X67.333 Y129.155 E20.65119
G1 X66.717 Y129.2 E20.682
G1 X41.084 Y129.19 E21.96084
G1 X40.506 Y129.15 E21.98974
G1 X39.875 Y129.012 E22.02197
G1 X39.128 Y128.787 E22.06089
G1 X38.586 Y128.582 E22.0898
G1 X38.077 Y128.304 E22.11874
G1 X37.68 Y128.016 E22.1432
G1 X37.076 Y127.522 E22.18213
G1 X36.654 Y127.125 E22.21104
G1 X36.29 Y126.674 E22.23995
G1 X36.031 Y126.251 E22.2647
G1 X35.661 Y125.559 E22.30385
G1 X35.424 Y125.031 E22.33272
G1 X35.21 Y124.19 E22.37602
G1 X35.125 Y123.612 E22.40516
G1 X35.08 Y123 E22.43578
G1 X35.09 Y86.805 E24.24156
G1 X35.13 Y86.227 E24.27046
G1 X35.268 Y85.595 E24.30273
G1 X35.493 Y84.848 E24.34166
G1 X35.698 Y84.306 E24.37057
G1 X35.976 Y83.797 E24.3995
G1 X36.264 Y83.4 E24.42397
G1 X36.758 Y82.796 E24.4629
G1 X37.155 Y82.374 E24.4918
G1 X37.606 Y82.01 E24.52072
G1 X38.028 Y81.751 E24.54542
G1 X38.718 Y81.382 E24.58446
G0 F1800 X38.907 Y81.735
G1 F1200 X39.41 Y81.511 E24.61193
G1 X40.144 Y81.327 E24.64968
G1 X40.726 Y81.241 E24.67903
G1 X41.282 Y81.2 E24.70685
G1 X66.915 Y81.21 E25.98568
G1 X67.465 Y81.25 E26.0132
G1 X68.01 Y81.371 E26.04105
G1 X68.757 Y81.596 E26.07997
G1 X69.272 Y81.793 E26.10748
G1 X69.752 Y82.062 E26.13493
G1 X70.067 Y82.294 E26.15445
G1 X70.671 Y82.788 E26.19338
G1 X71.071 Y83.166 E26.22083
G1 X71.412 Y83.599 E26.24833
G1 X71.615 Y83.935 E26.26792
G1 X71.984 Y84.624 E26.30691
G1 X72.208 Y85.127 E26.33438
G1 X72.393 Y85.862 E26.37219
G1 X72.479 Y86.443 E26.4015
G1 X72.52 Y87 E26.42936
G1 X72.51 Y123.195 E28.23514
G1 X72.47 Y123.745 E28.26265
G1 X72.349 Y124.29 E28.2905
G1 X72.124 Y125.037 E28.32942
G1 X71.927 Y125.552 E28.35693
G1 X71.658 Y126.032 E28.38438
G1 X71.426 Y126.347 E28.4039
G1 X70.932 Y126.951 E28.44283
G1 X70.554 Y127.351 E28.47029
G1 X70.121 Y127.692 E28.49778
G1 X69.783 Y127.896 E28.51748
G1 X69.093 Y128.265 E28.55652
G1 X68.59 Y128.489 E28.58399
G1 X67.856 Y128.673 E28.62174
G1 X67.274 Y128.759 E28.65109
G1 X66.718 Y128.8 E28.67891
G1 X41.085 Y128.79 E29.95774
G1 X40.535 Y128.75 E29.98525
G1 X39.99 Y128.629 E30.01311
G1 X39.243 Y128.404 E30.05203
G1 X38.728 Y128.207 E30.07954
G1 X38.248 Y127.938 E30.10699
G1 X37.933 Y127.706 E30.12651
G1 X37.329 Y127.212 E30.16544
G1 X36.929 Y126.834 E30.19289
G1 X36.588 Y126.401 E30.22039
G1 X36.384 Y126.063 E30.24009
G1 X36.014 Y125.371 E30.27923
G1 X35.79 Y124.867 E30.30675
G1 X35.605 Y124.132 E30.34456
G1 X35.52 Y123.554 E30.37371
G1 X35.48 Y123 E30.40142
G1 X35.49 Y86.805 E32.2072
G1 X35.53 Y86.255 E32.23471
G1 X35.651 Y85.71 E32.26256
G1 X35.876 Y84.963 E32.30148
G1 X36.073 Y84.448 E32.32899
G1 X36.342 Y83.968 E32.35644
G1 X36.574 Y83.653 E32.37596
G1 X37.068 Y83.049 E32.41489
G1 X37.446 Y82.649 E32.44235
G1 X37.879 Y82.308 E32.46985
G1 X38.217 Y82.104 E32.48954
G1 X38.907 Y81.735 E32.52858
G0 F1800 X39.096 Y82.088
G1 F1200 X39.573 Y81.878 E32.55458
G1 X40.202 Y81.723 E32.5869
G1 X40.784 Y81.637 E32.61625
G1 X41.282 Y81.6 E32.64117
G1 X66.915 Y81.61 E33.92
G1 X67.435 Y81.65 E33.94602
G1 X67.895 Y81.754 E33.96955
G1 X68.642 Y81.979 E34.00847
G1 X69.128 Y82.168 E34.03449
G1 X69.579 Y82.428 E34.06046
G1 X69.814 Y82.603 E34.07508
G1 X70.418 Y83.097 E34.11401
G1 X70.794 Y83.457 E34.13998
G1 X71.112 Y83.87 E34.16598
G1 X71.262 Y84.124 E34.1807
G1 X71.631 Y84.813 E34.21969
G1 X71.841 Y85.29 E34.24569
G1 X71.997 Y85.92 E34.27807
G1 X72.083 Y86.501 E34.30738
G1 X72.12 Y87 E34.33234
G1 X72.11 Y123.195 E36.13811
G1 X72.07 Y123.715 E36.16413
G1 X71.966 Y124.175 E36.18766
G1 X71.741 Y124.922 E36.22659
G1 X71.552 Y125.408 E36.2526
G1 X71.292 Y125.859 E36.27857
G1 X71.117 Y126.094 E36.29319
G1 X70.623 Y126.698 E36.33212
G1 X70.263 Y127.074 E36.35809
G1 X69.85 Y127.392 E36.38409
G1 X69.594 Y127.543 E36.39892
G1 X68.904 Y127.912 E36.43796
G1 X68.427 Y128.122 E36.46396
G1 X67.798 Y128.277 E36.49628
G1 X67.216 Y128.363 E36.52563
G1 X66.718 Y128.4 E36.55055
G1 X41.085 Y128.39 E37.82938
G1 X40.565 Y128.35 E37.8554
G1 X40.105 Y128.246 E37.87893
G1 X39.358 Y128.021 E37.91785
G1 X38.872 Y127.832 E37.94387
G1 X38.421 Y127.572 E37.96984
G1 X38.186 Y127.397 E37.98446
G1 X37.582 Y126.903 E38.02339
G1 X37.206 Y126.543 E38.04936
G1 X36.888 Y126.13 E38.07536
G1 X36.737 Y125.874 E38.09019
G1 X36.367 Y125.182 E38.12934
G1 X36.157 Y124.705 E38.15534
G1 X36.001 Y124.074 E38.18777
G1 X35.916 Y123.496 E38.21692
G1 X35.88 Y123 E38.24173
G1 X35.89 Y86.805 E40.0475
G1 X35.93 Y86.285 E40.07352
G1 X36.034 Y85.825 E40.09705
G1 X36.259 Y85.078 E40.13597
G1 X36.448 Y84.592 E40.16199
G1 X36.708 Y84.141 E40.18796
G1 X36.883 Y83.906 E40.20258
G1 X37.377 Y83.302 E40.24151
G1 X37.737 Y82.926 E40.26748
G1 X38.15 Y82.608 E40.29348
G1 X38.406 Y82.457 E40.30831
G1 X39.096 Y82.088 E40.34735
G0 F1800 X39.284 Y82.441
G1 F1200 X39.733 Y82.246 E40.37177
G1 X40.26 Y82.118 E40.39883
G1 X40.842 Y82.032 E40.42818
G1 X41.282 Y82 E40.45019
G1 X66.915 Y82.01 E41.72902
G1 X67.403 Y82.05 E41.75345
G1 X67.779 Y82.137 E41.77271
G1 X68.526 Y82.362 E41.81163
G1 X68.982 Y82.541 E41.83607
G1 X69.56 Y82.913 E41.87036
G1 X70.164 Y83.407 E41.90929
G1 X70.517 Y83.747 E41.93374
G1 X70.91 Y84.313 E41.96812
G1 X71.279 Y85.002 E42.00711
G1 X71.474 Y85.451 E42.03153
G1 X71.602 Y85.979 E42.05864
G1 X71.688 Y86.56 E42.08794
G1 X71.72 Y87 E42.10995
G1 X71.71 Y123.195 E43.91573
G1 X71.67 Y123.683 E43.94015
G1 X71.583 Y124.059 E43.95941
G1 X71.358 Y124.806 E43.99833
G1 X71.179 Y125.262 E44.02277
G1 X70.807 Y125.84 E44.05706
G1 X70.313 Y126.444 E44.09599
G1 X69.973 Y126.797 E44.12044
G1 X69.406 Y127.19 E44.15486
G1 X68.716 Y127.559 E44.1939
G1 X68.267 Y127.754 E44.21832
G1 X67.74 Y127.882 E44.24538
G1 X67.158 Y127.968 E44.27473
G1 X66.718 Y128 E44.29674
G1 X41.085 Y127.99 E45.57558
G1 X40.597 Y127.95 E45.6
G1 X40.221 Y127.863 E45.61926
G1 X39.474 Y127.638 E45.65818
G1 X39.018 Y127.459 E45.68262
G1 X38.44 Y127.087 E45.71691
G1 X37.836 Y126.593 E45.75584
G1 X37.483 Y126.253 E45.78029
G1 X37.089 Y125.686 E45.81474
G1 X36.719 Y124.994 E45.85389
G1 X36.525 Y124.544 E45.87834
G1 X36.397 Y124.015 E45.90549
G1 X36.312 Y123.437 E45.93464
G1 X36.28 Y123 E45.9565
G1 X36.29 Y86.805 E47.76227
G1 X36.33 Y86.317 E47.7867
G1 X36.417 Y85.941 E47.80596
G1 X36.642 Y85.194 E47.84488
G1 X36.821 Y84.738 E47.86932
G1 X37.193 Y84.16 E47.90361
G1 X37.687 Y83.556 E47.94254
G1 X38.027 Y83.203 E47.96699
G1 X38.594 Y82.81 E48.00141
G1 X39.284 Y82.441 E48.04045
G0 F1800 X39.473 Y82.793
G1 F1200 X39.892 Y82.614 E48.06318
G1 X40.319 Y82.514 E48.08506
G1 X40.901 Y82.428 E48.11441
G1 X41.282 Y82.4 E48.13347
G1 X66.915 Y82.41 E49.4123
G1 X67.369 Y82.45 E49.43504
G1 X67.664 Y82.52 E49.45017
G1 X68.411 Y82.745 E49.48909
G1 X68.834 Y82.915 E49.51183
G1 X69.307 Y83.222 E49.53997
G1 X69.911 Y83.716 E49.5789
G1 X70.237 Y84.035 E49.60165
G1 X70.557 Y84.502 E49.6299
G1 X70.926 Y85.191 E49.66889
G1 X71.105 Y85.609 E49.69157
G1 X71.206 Y86.037 E49.71351
G1 X71.292 Y86.618 E49.74282
G1 X71.32 Y87 E49.76193
G1 X71.31 Y123.195 E51.5677
G1 X71.27 Y123.649 E51.59044
G1 X71.2 Y123.944 E51.60557
G1 X70.975 Y124.691 E51.64449
G1 X70.805 Y125.114 E51.66723
G1 X70.498 Y125.587 E51.69536
G1 X70.004 Y126.191 E51.73429
G1 X69.685 Y126.517 E51.75705
G1 X69.217 Y126.838 E51.78536
G1 X68.527 Y127.207 E51.8244
G1 X68.108 Y127.386 E51.84713
G1 X67.681 Y127.486 E51.86901
G1 X67.099 Y127.572 E51.89836
G1 X66.718 Y127.6 E51.91742
G1 X41.085 Y127.59 E53.19626
G1 X40.631 Y127.55 E53.219
G1 X40.336 Y127.48 E53.23412
G1 X39.589 Y127.255 E53.27304
G1 X39.166 Y127.085 E53.29579
G1 X38.693 Y126.778 E53.32392
G1 X38.089 Y126.284 E53.36285
G1 X37.763 Y125.965 E53.3856
G1 X37.442 Y125.497 E53.41392
G1 X37.072 Y124.805 E53.45307
G1 X36.893 Y124.386 E53.4758
G1 X36.793 Y123.957 E53.49777
G1 X36.708 Y123.379 E53.52692
G1 X36.68 Y123 E53.54588
G1 X36.69 Y86.805 E55.35166
G1 X36.73 Y86.351 E55.3744
G1 X36.8 Y86.056 E55.38952
G1 X37.025 Y85.309 E55.42844
G1 X37.195 Y84.886 E55.45119
G1 X37.502 Y84.413 E55.47932
G1 X37.996 Y83.809 E55.51825
G1 X38.315 Y83.483 E55.541
G1 X38.783 Y83.162 E55.56932
G1 X39.473 Y82.793 E55.60836
G0 F1800 X39.662 Y83.146
G1 F1200 X40.048 Y82.984 E55.62924
G1 X40.377 Y82.91 E55.64606
G1 X40.959 Y82.824 E55.67542
G1 X41.282 Y82.8 E55.69157
G1 X66.915 Y82.81 E56.97041
G1 X67.332 Y82.85 E56.99131
G1 X67.548 Y82.903 E57.00241
G1 X68.295 Y83.128 E57.04133
G1 X68.683 Y83.287 E57.06225
G1 X69.054 Y83.532 E57.08443
G1 X69.658 Y84.026 E57.12336
G1 X69.955 Y84.321 E57.14424
G1 X70.204 Y84.69 E57.16645
G1 X70.573 Y85.379 E57.20544
G1 X70.735 Y85.766 E57.22638
G1 X70.81 Y86.096 E57.24326
G1 X70.896 Y86.677 E57.27256
G1 X70.92 Y87 E57.28872
G1 X70.91 Y123.195 E59.0945
G1 X70.87 Y123.612 E59.1154
G1 X70.817 Y123.828 E59.12649
G1 X70.592 Y124.575 E59.16541
G1 X70.433 Y124.963 E59.18633
G1 X70.188 Y125.334 E59.20851
G1 X69.694 Y125.938 E59.24744
G1 X69.399 Y126.235 E59.26833
G1 X69.028 Y126.485 E59.29065
G1 X68.338 Y126.854 E59.32968
G1 X67.952 Y127.016 E59.35057
G1 X67.623 Y127.09 E59.36739
G1 X67.041 Y127.176 E59.39674
G1 X66.718 Y127.2 E59.4129
G1 X41.085 Y127.19 E60.69174
G1 X40.668 Y127.15 E60.71264
G1 X40.452 Y127.097 E60.72373
G1 X39.705 Y126.872 E60.76266
G1 X39.317 Y126.713 E60.78358
G1 X38.946 Y126.468 E60.80576
G1 X38.342 Y125.974 E60.84469
G1 X38.045 Y125.679 E60.86557
G1 X37.795 Y125.308 E60.88789
G1 X37.425 Y124.616 E60.92704
G1 X37.263 Y124.23 E60.94792
G1 X37.188 Y123.899 E60.96486
G1 X37.103 Y123.321 E60.994
G1 X37.08 Y123 E61.01006
G1 X37.09 Y86.805 E62.81583
G1 X37.13 Y86.388 E62.83673
G1 X37.183 Y86.172 E62.84783
G1 X37.408 Y85.425 E62.88675
