;FLAVOR:UltiGCode
;TIME:2440
;MATERIAL:2570
;MATERIAL2:0
;NOZZLE_DIAMETER:0.4
;MINX:96
;MINY:136
;MINZ:0.2
;MAXX:124
;MAXY:164
;MAXZ:20
;Generated with Cura_SteamEngine 4.3.0
M82 ;absolute extrusion mode
;Basic settings: Layer height: 0.15 Walls: 0.8 Fill: {fill_density}
;Print time: 00:40:41
;Filament used: [0.0, 1.07]m [0.0, 3.1872338183593754]g
;Filament cost: [0.0, 0.0]
M190 S60 ;Uncomment to add your own bed temperature line
M109 S200 ;Uncomment to add your own temperature line
G21        ;metric values
G91                                    ;relative positioning
G1 Z15.0 F120 ;move the platform down 15mm
G90        ;absolute positioning
M82        ;set extruder to absolute mode
M107       ;start with the fan off
G28 X0 Y0  ;move X/Y to min endstops
G28 Z0     ;move Z to min endstops
G605 S1
G28 X
G1 X0 Y0 Z15.0 F9000 ;move the platform down 15mm
; Prime the T0 nozzle
G92 E0
G0 X0 Y15 Z0.2 F1000
G1 Y165 E18.75 F1000
G0 X0.4
G1 Y15 E37.5 F1000
G0 X0.8
G1 Y165 E56.25 F1000
G0 X1.2
G1 Y15 E75 F1000
G0 X0 Y0 Z10 F1000
G92 E0                  ;zero the extruded length again
; End Prime	G1 F120
;Put printing message on LCD screen
M117 Gimli is Printing...

G92 E0
G92 E0
G10
;LAYER_COUNT:133
;LAYER:0
M107
G0 F3600 X101.704 Y138.63 Z0.2
;TYPE:SKIRT
G11
G1 F750 X101.99 Y138.429 E0.02797
G1 X102.668 Y137.995 E0.09237
G1 X102.783 Y137.924 E0.10318
G1 X103.142 Y137.711 E0.13657
G1 X103.445 Y137.548 E0.1641
G1 X104.123 Y137.221 E0.22432
G1 X104.235 Y137.169 E0.2342
G1 X104.689 Y136.967 E0.27395
G1 X105.022 Y136.837 E0.30255
G1 X105.698 Y136.606 E0.3597
G1 X105.813 Y136.568 E0.36939
G1 X106.264 Y136.429 E0.40714
G1 X106.552 Y136.352 E0.43099
G1 X106.964 Y136.258 E0.4648
G1 X107.11 Y136.228 E0.47672
G1 X107.617 Y136.132 E0.518
G1 X107.83 Y136.097 E0.53527
G1 X108.099 Y136.061 E0.55698
G1 X108.523 Y136.027 E0.59101
G1 X109.496 Y136.001 E0.66888
G1 X109.603 Y136 E0.67744
G1 X110.528 Y136 E0.75144
G1 X111.125 Y136.008 E0.7992
G1 X111.608 Y136.044 E0.83795
G1 X112.552 Y136.172 E0.91416
G1 X112.691 Y136.194 E0.92542
G1 X113.041 Y136.254 E0.95383
G1 X113.491 Y136.358 E0.99078
G1 X114.142 Y136.549 E1.04505
G1 X114.256 Y136.584 E1.05459
G1 X114.722 Y136.736 E1.09381
G1 X115.058 Y136.863 E1.12254
G1 X115.781 Y137.173 E1.18547
G1 X115.892 Y137.222 E1.19518
G1 X116.309 Y137.416 E1.23197
G1 X116.619 Y137.577 E1.25992
G1 X117.197 Y137.91 E1.31328
G1 X117.301 Y137.972 E1.32297
G1 X117.719 Y138.23 E1.36227
G1 X118.014 Y138.431 E1.39083
G1 X118.709 Y138.951 E1.46027
G1 X118.814 Y139.033 E1.47092
G1 X119.111 Y139.271 E1.50137
G1 X119.376 Y139.502 E1.52949
G1 X119.911 Y140.014 E1.58874
G1 X119.995 Y140.097 E1.59818
G1 X120.32 Y140.427 E1.63524
G1 X120.56 Y140.694 E1.66396
G1 X121.026 Y141.261 E1.72267
G1 X121.104 Y141.359 E1.73269
G1 X121.37 Y141.704 E1.76754
G1 X121.571 Y141.99 E1.79551
G1 X122.005 Y142.668 E1.85991
G1 X122.076 Y142.783 E1.87072
G1 X122.289 Y143.142 E1.90412
G1 X122.452 Y143.445 E1.93164
G1 X122.779 Y144.123 E1.99186
G1 X122.83 Y144.233 E2.00156
G1 X123.031 Y144.684 E2.04106
G1 X123.162 Y145.019 E2.06984
G1 X123.394 Y145.698 E2.12724
G1 X123.431 Y145.81 E2.13668
G1 X123.57 Y146.26 E2.17435
G1 X123.648 Y146.552 E2.19853
G1 X123.744 Y146.973 E2.23308
G1 X123.772 Y147.107 E2.24403
G1 X123.894 Y147.742 E2.29576
G1 X123.964 Y148.371 E2.34639
G1 X123.998 Y149.454 E2.43307
G1 X124 Y149.58 E2.44315
G1 X124 Y150.528 E2.51899
G1 X123.992 Y151.125 E2.56676
G1 X123.956 Y151.607 E2.60543
G1 X123.829 Y152.546 E2.68123
G1 X123.808 Y152.682 E2.69224
G1 X123.748 Y153.034 E2.7208
G1 X123.644 Y153.485 E2.75783
G1 X123.458 Y154.121 E2.81084
G1 X123.422 Y154.237 E2.82056
G1 X123.265 Y154.719 E2.86111
G1 X123.138 Y155.057 E2.89
G1 X122.827 Y155.782 E2.95311
G1 X122.778 Y155.892 E2.96274
G1 X122.585 Y156.307 E2.99936
G1 X122.424 Y156.616 E3.02723
G1 X122.09 Y157.196 E3.08078
G1 X122.028 Y157.301 E3.09053
G1 X121.77 Y157.719 E3.12983
G1 X121.569 Y158.014 E3.15839
G1 X121.044 Y158.716 E3.22851
G1 X120.959 Y158.825 E3.23957
G1 X120.726 Y159.115 E3.26933
G1 X120.498 Y159.375 E3.297
G1 X119.991 Y159.905 E3.35567
G1 X119.908 Y159.99 E3.36518
G1 X119.573 Y160.32 E3.4028
G1 X119.306 Y160.56 E3.43152
G1 X118.739 Y161.026 E3.49023
G1 X118.641 Y161.104 E3.50025
G1 X118.296 Y161.37 E3.5351
G1 X118.01 Y161.571 E3.56307
G1 X117.332 Y162.005 E3.62747
G1 X117.217 Y162.076 E3.63828
G1 X116.858 Y162.289 E3.67167
G1 X116.555 Y162.452 E3.6992
G1 X115.877 Y162.779 E3.75942
G1 X115.765 Y162.831 E3.7693
G1 X115.311 Y163.033 E3.80905
G1 X114.978 Y163.163 E3.83765
G1 X114.302 Y163.394 E3.8948
G1 X114.187 Y163.432 E3.90449
G1 X113.736 Y163.571 E3.94224
G1 X113.448 Y163.648 E3.96609
G1 X113.036 Y163.742 E3.9999
G1 X112.89 Y163.772 E4.01182
G1 X112.383 Y163.868 E4.0531
G1 X112.17 Y163.903 E4.07037
G1 X111.901 Y163.939 E4.09208
G1 X111.477 Y163.973 E4.12611
G1 X110.504 Y163.999 E4.20398
G1 X110.397 Y164 E4.21254
G1 X109.433 Y164 E4.28966
G1 X108.736 Y163.99 E4.34543
G1 X108.307 Y163.96 E4.37983
G1 X108.054 Y163.929 E4.40022
G1 X107.929 Y163.912 E4.41031
G1 X107.67 Y163.872 E4.43128
G1 X107.586 Y163.858 E4.43809
G1 X106.923 Y163.741 E4.49195
G1 X106.489 Y163.639 E4.52762
G1 X105.908 Y163.468 E4.57607
G1 X105.792 Y163.432 E4.58579
G1 X105.273 Y163.262 E4.62948
G1 X104.942 Y163.137 E4.65778
G1 X104.219 Y162.827 E4.72071
G1 X104.107 Y162.777 E4.73053
G1 X103.686 Y162.581 E4.76768
G1 X103.376 Y162.42 E4.79562
G1 X102.802 Y162.089 E4.84863
G1 X102.699 Y162.028 E4.85821
G1 X102.281 Y161.77 E4.8975
G1 X101.986 Y161.569 E4.92606
G1 X101.284 Y161.044 E4.99619
G1 X101.172 Y160.957 E5.00754
G1 X100.88 Y160.722 E5.03752
G1 X100.623 Y160.496 E5.0649
G1 X100.09 Y159.986 E5.12392
G1 X100.005 Y159.903 E5.13342
G1 X99.679 Y159.572 E5.17059
G1 X99.438 Y159.304 E5.19942
G1 X98.973 Y158.738 E5.25802
G1 X98.896 Y158.641 E5.26793
G1 X98.63 Y158.296 E5.30278
G1 X98.428 Y158.009 E5.33086
G1 X97.99 Y157.324 E5.3959
G1 X97.92 Y157.21 E5.4066
G1 X97.71 Y156.856 E5.43953
G1 X97.547 Y156.553 E5.46706
G1 X97.221 Y155.877 E5.5271
G1 X97.169 Y155.765 E5.53698
G1 X96.967 Y155.311 E5.57673
G1 X96.837 Y154.98 E5.60518
G1 X96.602 Y154.293 E5.66326
G1 X96.563 Y154.171 E5.67351
G1 X96.428 Y153.731 E5.71033
G1 X96.352 Y153.448 E5.73377
G1 X96.258 Y153.036 E5.76758
G1 X96.228 Y152.89 E5.7795
G1 X96.132 Y152.383 E5.82078
G1 X96.097 Y152.17 E5.83805
G1 X96.061 Y151.901 E5.85976
G1 X96.027 Y151.477 E5.89379
G1 X96.001 Y150.504 E5.97166
G1 X96 Y150.397 E5.98022
G1 X96 Y149.433 E6.05734
G1 X96.01 Y148.731 E6.11351
G1 X96.041 Y148.292 E6.14871
G1 X96.072 Y148.044 E6.16871
G1 X96.088 Y147.929 E6.178
G1 X96.128 Y147.67 E6.19896
G1 X96.142 Y147.588 E6.20562
G1 X96.259 Y146.923 E6.25964
G1 X96.362 Y146.483 E6.29579
G1 X96.533 Y145.904 E6.34408
G1 X96.567 Y145.794 E6.3533
G1 X96.736 Y145.277 E6.39681
G1 X96.862 Y144.943 E6.42537
G1 X97.173 Y144.218 E6.48848
G1 X97.223 Y144.107 E6.49822
G1 X97.418 Y143.688 E6.53519
G1 X97.578 Y143.378 E6.5631
G1 X97.91 Y142.802 E6.61628
G1 X97.972 Y142.699 E6.6259
G1 X98.23 Y142.281 E6.6652
G1 X98.431 Y141.986 E6.69376
G1 X98.956 Y141.284 E6.76388
G1 X99.041 Y141.175 E6.77494
G1 X99.274 Y140.885 E6.8047
G1 X99.502 Y140.624 E6.83243
G1 X100.014 Y140.089 E6.89167
G1 X100.097 Y140.005 E6.90112
G1 X100.427 Y139.68 E6.93817
G1 X100.694 Y139.44 E6.96689
G1 X101.261 Y138.974 E7.02561
G1 X101.359 Y138.896 E7.03563
G1 X101.704 Y138.63 E7.07048
G0 F3600 X101.948 Y138.947
G1 F750 X102.205 Y138.766 E7.09562
G1 X102.883 Y138.332 E7.16002
G1 X102.987 Y138.268 E7.16979
G1 X103.346 Y138.055 E7.20319
G1 X103.619 Y137.908 E7.22799
G1 X104.297 Y137.581 E7.28821
G1 X104.398 Y137.535 E7.29709
G1 X104.852 Y137.333 E7.33684
G1 X105.151 Y137.215 E7.36256
G1 X105.827 Y136.984 E7.41971
G1 X105.931 Y136.951 E7.42844
G1 X106.382 Y136.812 E7.46619
G1 X106.641 Y136.742 E7.48766
G1 X107.053 Y136.648 E7.52146
G1 X107.184 Y136.621 E7.53216
G1 X107.691 Y136.525 E7.57344
G1 X107.883 Y136.494 E7.589
G1 X108.152 Y136.458 E7.61071
G1 X108.534 Y136.427 E7.64138
G1 X109.507 Y136.401 E7.71924
G1 X109.603 Y136.4 E7.72692
G1 X110.522 Y136.4 E7.80044
G1 X111.119 Y136.408 E7.84821
G1 X111.555 Y136.441 E7.88319
G1 X112.499 Y136.569 E7.9594
G1 X112.623 Y136.588 E7.96943
G1 X112.973 Y136.648 E7.99784
G1 X113.379 Y136.742 E8.03118
G1 X114.03 Y136.933 E8.08546
G1 X114.132 Y136.964 E8.09399
G1 X114.598 Y137.116 E8.1332
G1 X114.901 Y137.23 E8.1591
G1 X115.624 Y137.54 E8.22203
G1 X115.724 Y137.585 E8.2308
G1 X116.141 Y137.779 E8.2676
G1 X116.419 Y137.924 E8.29268
G1 X116.997 Y138.257 E8.34604
G1 X117.091 Y138.313 E8.3548
G1 X117.509 Y138.571 E8.3941
G1 X117.775 Y138.752 E8.41983
G1 X118.47 Y139.272 E8.48927
G1 X118.564 Y139.345 E8.4988
G1 X118.861 Y139.583 E8.52924
G1 X119.099 Y139.791 E8.55453
G1 X119.634 Y140.303 E8.61377
G1 X119.71 Y140.378 E8.62231
G1 X120.035 Y140.708 E8.65937
G1 X120.251 Y140.948 E8.6852
G1 X120.717 Y141.515 E8.74391
G1 X120.787 Y141.603 E8.75291
G1 X121.053 Y141.948 E8.78776
G1 X121.234 Y142.205 E8.81291
G1 X121.668 Y142.883 E8.87731
G1 X121.732 Y142.987 E8.88708
G1 X121.945 Y143.346 E8.92047
G1 X122.092 Y143.619 E8.94528
G1 X122.419 Y144.297 E9.00549
G1 X122.464 Y144.396 E9.01419
G1 X122.665 Y144.847 E9.0537
G1 X122.784 Y145.148 E9.07959
G1 X123.016 Y145.827 E9.13699
G1 X123.049 Y145.929 E9.14557
G1 X123.188 Y146.379 E9.18325
G1 X123.258 Y146.641 E9.20494
G1 X123.354 Y147.062 E9.23949
G1 X123.379 Y147.183 E9.24937
G1 X123.501 Y147.818 E9.3011
G1 X123.564 Y148.384 E9.34666
G1 X123.598 Y149.467 E9.43334
G1 X123.6 Y149.58 E9.44238
G1 X123.6 Y150.522 E9.51774
G1 X123.592 Y151.119 E9.56551
G1 X123.56 Y151.554 E9.6004
G1 X123.433 Y152.493 E9.67621
G1 X123.414 Y152.615 E9.68608
G1 X123.354 Y152.967 E9.71465
G1 X123.26 Y153.373 E9.74799
G1 X123.074 Y154.009 E9.801
G1 X123.042 Y154.113 E9.80971
G1 X122.885 Y154.595 E9.85026
G1 X122.77 Y154.899 E9.87626
G1 X122.459 Y155.624 E9.93937
G1 X122.415 Y155.723 E9.94804
G1 X122.222 Y156.138 E9.98465
G1 X122.078 Y156.417 E10.00977
G1 X121.744 Y156.997 E10.06332
G1 X121.687 Y157.091 E10.07211
G1 X121.429 Y157.509 E10.11141
G1 X121.249 Y157.774 E10.13703
G1 X120.724 Y158.476 E10.20716
G1 X120.647 Y158.575 E10.2172
G1 X120.414 Y158.865 E10.24696
G1 X120.209 Y159.099 E10.27184
G1 X119.702 Y159.629 E10.33052
G1 X119.627 Y159.705 E10.33906
G1 X119.292 Y160.035 E10.37668
G1 X119.052 Y160.251 E10.40251
G1 X118.485 Y160.717 E10.46123
G1 X118.397 Y160.787 E10.47022
G1 X118.052 Y161.053 E10.50507
G1 X117.795 Y161.234 E10.53022
G1 X117.117 Y161.668 E10.59462
G1 X117.013 Y161.732 E10.60439
G1 X116.654 Y161.945 E10.63779
G1 X116.381 Y162.092 E10.66259
G1 X115.703 Y162.419 E10.72281
G1 X115.602 Y162.465 E10.73169
G1 X115.148 Y162.667 E10.77144
G1 X114.849 Y162.785 E10.79716
G1 X114.173 Y163.016 E10.85431
G1 X114.069 Y163.049 E10.86303
G1 X113.618 Y163.188 E10.90079
G1 X113.359 Y163.258 E10.92225
G1 X112.947 Y163.352 E10.95606
G1 X112.816 Y163.379 E10.96676
G1 X112.309 Y163.475 E11.00804
G1 X112.117 Y163.506 E11.0236
G1 X111.848 Y163.542 E11.04531
G1 X111.466 Y163.573 E11.07597
G1 X110.493 Y163.599 E11.15384
G1 X110.397 Y163.6 E11.16152
G1 X109.438 Y163.6 E11.23824
G1 X108.741 Y163.59 E11.29401
G1 X108.355 Y163.563 E11.32496
G1 X108.102 Y163.532 E11.34535
G1 X107.991 Y163.517 E11.35431
G1 X107.732 Y163.477 E11.37528
G1 X107.655 Y163.464 E11.38153
G1 X106.992 Y163.347 E11.43539
G1 X106.602 Y163.256 E11.46742
G1 X106.021 Y163.085 E11.51588
G1 X105.916 Y163.052 E11.52468
G1 X105.397 Y162.882 E11.56837
G1 X105.099 Y162.77 E11.59384
G1 X104.376 Y162.46 E11.65677
G1 X104.276 Y162.415 E11.66554
G1 X103.855 Y162.219 E11.7027
G1 X103.576 Y162.074 E11.72785
G1 X103.002 Y161.743 E11.78086
G1 X102.909 Y161.687 E11.78954
G1 X102.491 Y161.429 E11.82884
G1 X102.226 Y161.249 E11.85447
G1 X101.524 Y160.724 E11.9246
G1 X101.423 Y160.646 E11.9348
G1 X101.131 Y160.411 E11.96479
G1 X100.899 Y160.207 E11.9895
G1 X100.366 Y159.697 E12.04852
G1 X100.29 Y159.622 E12.05706
G1 X99.964 Y159.291 E12.09423
G1 X99.747 Y159.05 E12.12017
G1 X99.282 Y158.484 E12.17877
G1 X99.213 Y158.397 E12.18766
G1 X98.947 Y158.052 E12.22251
G1 X98.765 Y157.793 E12.24783
G1 X98.327 Y157.108 E12.31288
G1 X98.264 Y157.006 E12.32247
G1 X98.054 Y156.652 E12.3554
G1 X97.907 Y156.379 E12.3802
G1 X97.581 Y155.703 E12.44024
G1 X97.535 Y155.602 E12.44912
G1 X97.333 Y155.148 E12.48887
G1 X97.216 Y154.85 E12.51448
G1 X96.981 Y154.163 E12.57257
G1 X96.945 Y154.054 E12.58175
G1 X96.81 Y153.614 E12.61857
G1 X96.742 Y153.359 E12.63969
G1 X96.648 Y152.947 E12.67349
G1 X96.621 Y152.816 E12.68419
G1 X96.525 Y152.309 E12.72547
G1 X96.494 Y152.117 E12.74103
G1 X96.458 Y151.848 E12.76275
G1 X96.427 Y151.466 E12.79341
G1 X96.401 Y150.493 E12.87127
G1 X96.4 Y150.397 E12.87895
G1 X96.4 Y149.439 E12.95559
G1 X96.41 Y148.737 E13.01176
G1 X96.438 Y148.341 E13.04352
G1 X96.469 Y148.093 E13.06351
G1 X96.483 Y147.991 E13.07175
G1 X96.523 Y147.732 E13.09272
G1 X96.535 Y147.657 E13.09879
G1 X96.652 Y146.992 E13.15281
G1 X96.745 Y146.596 E13.18535
G1 X96.916 Y146.017 E13.23365
G1 X96.947 Y145.918 E13.24195
G1 X97.116 Y145.401 E13.28546
G1 X97.23 Y145.101 E13.31114
G1 X97.541 Y144.376 E13.37425
G1 X97.585 Y144.276 E13.38299
G1 X97.78 Y143.857 E13.41996
G1 X97.925 Y143.578 E13.44511
G1 X98.257 Y143.002 E13.4983
G1 X98.313 Y142.909 E13.50699
G1 X98.571 Y142.491 E13.54628
G1 X98.751 Y142.226 E13.57191
G1 X99.276 Y141.524 E13.64204
G1 X99.353 Y141.425 E13.65207
G1 X99.586 Y141.135 E13.68183
G1 X99.791 Y140.901 E13.70672
G1 X100.303 Y140.366 E13.76596
G1 X100.378 Y140.29 E13.7745
G1 X100.708 Y139.965 E13.81156
G1 X100.948 Y139.749 E13.83739
G1 X101.515 Y139.283 E13.8961
G1 X101.603 Y139.213 E13.9051
G1 X101.948 Y138.947 E13.93995
G0 F3600 X102.192 Y139.264
G1 F750 X102.421 Y139.103 E13.96234
G1 X103.099 Y138.669 E14.02674
G1 X103.191 Y138.612 E14.0354
G1 X103.55 Y138.399 E14.0688
G1 X103.793 Y138.269 E14.09084
G1 X104.471 Y137.942 E14.15106
G1 X104.56 Y137.9 E14.15894
G1 X105.014 Y137.698 E14.19869
G1 X105.28 Y137.594 E14.22154
G1 X105.956 Y137.363 E14.27869
G1 X106.048 Y137.333 E14.28643
G1 X106.499 Y137.194 E14.32418
G1 X106.73 Y137.132 E14.34332
G1 X107.142 Y137.038 E14.37712
G1 X107.259 Y137.014 E14.38668
G1 X107.766 Y136.918 E14.42796
G1 X107.937 Y136.89 E14.44182
G1 X108.206 Y136.854 E14.46353
G1 X108.545 Y136.827 E14.49074
G1 X109.518 Y136.801 E14.56861
G1 X109.603 Y136.8 E14.57541
G1 X110.517 Y136.8 E14.64853
G1 X111.114 Y136.808 E14.69629
G1 X111.501 Y136.837 E14.72734
G1 X112.445 Y136.965 E14.80355
G1 X112.556 Y136.982 E14.81253
G1 X112.906 Y137.042 E14.84094
G1 X113.266 Y137.125 E14.8705
G1 X113.917 Y137.316 E14.92477
G1 X114.008 Y137.345 E14.93241
G1 X114.474 Y137.497 E14.97163
G1 X114.743 Y137.598 E14.99461
G1 X115.466 Y137.908 E15.05755
G1 X115.555 Y137.948 E15.06535
G1 X115.972 Y138.142 E15.10215
G1 X116.219 Y138.27 E15.1244
G1 X116.797 Y138.603 E15.17777
G1 X116.881 Y138.653 E15.18559
G1 X117.299 Y138.911 E15.22488
G1 X117.535 Y139.072 E15.24774
G1 X118.23 Y139.592 E15.31718
G1 X118.314 Y139.657 E15.32568
G1 X118.611 Y139.895 E15.35612
G1 X118.823 Y140.08 E15.37863
G1 X119.358 Y140.592 E15.43788
G1 X119.425 Y140.659 E15.44546
G1 X119.75 Y140.989 E15.48251
G1 X119.942 Y141.202 E15.50545
G1 X120.408 Y141.769 E15.56416
G1 X120.47 Y141.847 E15.57213
G1 X120.736 Y142.192 E15.60699
G1 X120.897 Y142.421 E15.62938
G1 X121.331 Y143.099 E15.69378
G1 X121.388 Y143.191 E15.70244
G1 X121.601 Y143.55 E15.73583
G1 X121.731 Y143.793 E15.75788
G1 X122.058 Y144.471 E15.8181
G1 X122.099 Y144.558 E15.82579
G1 X122.3 Y145.009 E15.8653
G1 X122.405 Y145.277 E15.88832
G1 X122.637 Y145.956 E15.94573
G1 X122.666 Y146.047 E15.95337
G1 X122.805 Y146.497 E15.99104
G1 X122.868 Y146.73 E16.01035
G1 X122.964 Y147.151 E16.0449
G1 X122.987 Y147.258 E16.05365
G1 X123.109 Y147.893 E16.10538
G1 X123.164 Y148.397 E16.14594
G1 X123.198 Y149.48 E16.23262
G1 X123.2 Y149.58 E16.24063
G1 X123.2 Y150.517 E16.31559
G1 X123.192 Y151.114 E16.36335
G1 X123.163 Y151.5 E16.39432
G1 X123.036 Y152.439 E16.47012
G1 X123.02 Y152.548 E16.47894
G1 X122.96 Y152.9 E16.5075
G1 X122.876 Y153.26 E16.53708
G1 X122.69 Y153.896 E16.59009
G1 X122.662 Y153.989 E16.59786
G1 X122.505 Y154.471 E16.63841
