;FLAVOR:UltiGCode
;TIME:5821
;MATERIAL:6792
;MATERIAL2:0
;NOZZLE_DIAMETER:0.4
;MINX:91
;MINY:131
;MINZ:0.2
;MAXX:129
;MAXY:169
;MAXZ:29.9
;Generated with Cura_SteamEngine 4.3.0
M82 ;absolute extrusion mode
;Basic settings: Layer height: 0.15 Walls: 0.8 Fill: {fill_density}
;Print time: 01:37:01
;Filament used: [0.0, 2.82]m [0.0, 8.4232122265625]g
;Filament cost: [0.0, 0.0]
M190 S60 ;Uncomment to add your own bed temperature line
M109 S200 ;Uncomment to add your own temperature line
G21        ;metric values
G91                                    ;relative positioning
G1 Z15.0 F120 ;move the platform down 15mm
G90        ;absolute positioning
M82        ;set extruder to absolute mode
M107       ;start with the fan off
G28 X0 Y0  ;move X/Y to min endstops
G28 Z0     ;move Z to min endstops
G605 S1
G28 X
G1 X0 Y0 Z15.0 F9000 ;move the platform down 15mm
; Prime the T0 nozzle
G92 E0
G0 X0 Y15 Z0.2 F1000
G1 Y165 E18.75 F1000
G0 X0.4
G1 Y15 E37.5 F1000
G0 X0.8
G1 Y165 E56.25 F1000
G0 X1.2
G1 Y15 E75 F1000
G0 X0 Y0 Z10 F1000
G92 E0                  ;zero the extruded length again
; End Prime	G1 F120
;Put printing message on LCD screen
M117 Gimli is Printing...

G92 E0
G92 E0
G10
;LAYER_COUNT:199
;LAYER:0
M107
G0 F3600 X98.887 Y134.497 Z0.2
;TYPE:SKIRT
G11
G1 F750 X99.187 Y134.288 E0.02925
G1 X100.134 Y133.69 E0.11885
G1 X100.226 Y133.634 E0.12747
G1 X100.813 Y133.285 E0.1821
G1 X101.147 Y133.107 E0.21238
G1 X102.198 Y132.61 E0.30538
G1 X102.293 Y132.567 E0.31373
G1 X102.932 Y132.285 E0.3696
G1 X103.269 Y132.154 E0.39853
G1 X104.117 Y131.868 E0.47012
G1 X104.222 Y131.834 E0.47895
G1 X105.053 Y131.579 E0.54849
G1 X105.386 Y131.492 E0.57603
G1 X106.108 Y131.337 E0.6351
G1 X106.223 Y131.314 E0.64448
G1 X107.232 Y131.128 E0.72656
G1 X107.422 Y131.098 E0.74195
G1 X107.763 Y131.052 E0.76948
G1 X108.228 Y131.017 E0.80679
G1 X109.145 Y131.001 E0.88016
G1 X109.215 Y131 E0.88576
G1 X111.007 Y131 E1.02912
G1 X111.658 Y131.009 E1.0812
G1 X112.123 Y131.043 E1.1185
G1 X112.565 Y131.101 E1.15416
G1 X112.706 Y131.122 E1.16557
G1 X113.607 Y131.273 E1.23865
G1 X113.725 Y131.295 E1.24826
G1 X114.289 Y131.407 E1.29426
G1 X114.625 Y131.489 E1.32193
G1 X115.576 Y131.765 E1.40115
G1 X115.696 Y131.801 E1.41117
G1 X116.491 Y132.059 E1.47803
G1 X116.832 Y132.188 E1.5072
G1 X117.709 Y132.564 E1.58354
G1 X117.812 Y132.609 E1.59253
G1 X118.608 Y132.977 E1.66268
G1 X118.944 Y133.153 E1.69303
G1 X119.961 Y133.746 E1.78721
G1 X120.049 Y133.798 E1.79539
G1 X120.575 Y134.123 E1.84485
G1 X120.874 Y134.327 E1.87381
G1 X121.677 Y134.93 E1.95414
G1 X121.77 Y135.003 E1.9636
G1 X122.419 Y135.521 E2.03003
G1 X122.691 Y135.759 E2.05895
G1 X123.313 Y136.355 E2.12786
G1 X123.367 Y136.407 E2.13386
G1 X123.557 Y136.596 E2.1553
G1 X123.591 Y136.631 E2.1592
G1 X124.059 Y137.108 E2.21266
G1 X124.307 Y137.385 E2.24241
G1 X125.03 Y138.274 E2.33408
G1 X125.1 Y138.362 E2.34307
G1 X125.503 Y138.887 E2.39602
G1 X125.712 Y139.187 E2.42527
G1 X126.31 Y140.134 E2.51487
G1 X126.366 Y140.226 E2.52349
G1 X126.715 Y140.813 E2.57812
G1 X126.893 Y141.147 E2.6084
G1 X127.39 Y142.198 E2.70141
G1 X127.433 Y142.291 E2.7096
G1 X127.714 Y142.927 E2.76523
G1 X127.845 Y143.266 E2.7943
G1 X128.132 Y144.117 E2.86615
G1 X128.166 Y144.222 E2.87498
G1 X128.421 Y145.053 E2.94452
G1 X128.508 Y145.386 E2.97205
G1 X128.659 Y146.089 E3.02957
G1 X128.681 Y146.201 E3.03871
G1 X128.871 Y147.228 E3.12226
G1 X128.902 Y147.418 E3.13766
G1 X128.948 Y147.757 E3.16503
G1 X128.983 Y148.224 E3.20249
G1 X128.999 Y149.13 E3.27499
G1 X129 Y149.201 E3.28067
G1 X129 Y151.007 E3.42515
G1 X128.991 Y151.658 E3.47723
G1 X128.957 Y152.123 E3.51453
G1 X128.899 Y152.565 E3.55019
G1 X128.878 Y152.706 E3.5616
G1 X128.727 Y153.607 E3.63468
G1 X128.705 Y153.725 E3.64429
G1 X128.593 Y154.289 E3.69029
G1 X128.511 Y154.625 E3.71796
G1 X128.235 Y155.576 E3.79718
G1 X128.199 Y155.694 E3.80704
G1 X127.942 Y156.487 E3.87373
G1 X127.813 Y156.831 E3.90312
G1 X127.436 Y157.71 E3.97964
G1 X127.391 Y157.811 E3.98849
G1 X127.024 Y158.605 E4.05846
G1 X126.848 Y158.942 E4.08888
G1 X126.259 Y159.952 E4.18241
G1 X126.208 Y160.037 E4.19034
G1 X125.878 Y160.572 E4.24063
G1 X125.673 Y160.874 E4.26983
G1 X125.07 Y161.677 E4.35017
G1 X124.997 Y161.77 E4.35963
G1 X124.479 Y162.419 E4.42606
G1 X124.229 Y162.704 E4.45638
G1 X123.444 Y163.516 E4.54674
G1 X123.369 Y163.591 E4.55522
G1 X122.892 Y164.059 E4.60868
G1 X122.615 Y164.307 E4.63843
G1 X121.726 Y165.03 E4.7301
G1 X121.638 Y165.1 E4.73909
G1 X121.113 Y165.503 E4.79204
G1 X120.813 Y165.712 E4.82129
G1 X119.866 Y166.31 E4.91089
G1 X119.774 Y166.366 E4.91951
G1 X119.187 Y166.715 E4.97414
G1 X118.866 Y166.887 E5.00327
G1 X118.032 Y167.285 E5.0772
G1 X117.969 Y167.314 E5.08275
G1 X117.752 Y167.413 E5.10183
G1 X117.707 Y167.433 E5.10577
G1 X117.068 Y167.715 E5.16165
G1 X116.733 Y167.846 E5.19042
G1 X115.889 Y168.131 E5.26169
G1 X115.781 Y168.165 E5.27075
G1 X114.946 Y168.421 E5.34062
G1 X114.614 Y168.508 E5.36807
G1 X113.892 Y168.663 E5.42715
G1 X113.777 Y168.686 E5.43653
G1 X112.768 Y168.872 E5.51861
G1 X112.578 Y168.902 E5.534
G1 X112.237 Y168.948 E5.56153
G1 X111.772 Y168.983 E5.59883
G1 X110.855 Y168.999 E5.6722
G1 X110.785 Y169 E5.6778
G1 X108.993 Y169 E5.82116
G1 X108.342 Y168.991 E5.87325
G1 X107.877 Y168.957 E5.91055
G1 X107.435 Y168.899 E5.94621
G1 X107.294 Y168.878 E5.95762
G1 X106.393 Y168.727 E6.0307
G1 X106.275 Y168.705 E6.0403
G1 X105.711 Y168.593 E6.0863
G1 X105.375 Y168.511 E6.11397
G1 X104.424 Y168.235 E6.19319
G1 X104.304 Y168.199 E6.20322
G1 X103.509 Y167.941 E6.27008
G1 X103.168 Y167.812 E6.29925
G1 X102.291 Y167.436 E6.37558
G1 X102.188 Y167.391 E6.38458
G1 X101.39 Y167.022 E6.45491
G1 X101.054 Y166.846 E6.48525
G1 X100.039 Y166.254 E6.57926
G1 X99.951 Y166.202 E6.58743
G1 X99.425 Y165.877 E6.6369
G1 X99.126 Y165.673 E6.66586
G1 X98.323 Y165.07 E6.74619
G1 X98.229 Y164.996 E6.75576
G1 X97.578 Y164.476 E6.82242
G1 X97.294 Y164.227 E6.85263
G1 X96.484 Y163.444 E6.94276
G1 X96.409 Y163.369 E6.95125
G1 X95.94 Y162.891 E7.00482
G1 X95.691 Y162.613 E7.03467
G1 X94.969 Y161.725 E7.12623
G1 X94.9 Y161.638 E7.13512
G1 X94.497 Y161.113 E7.18806
G1 X94.288 Y160.813 E7.21731
G1 X93.69 Y159.866 E7.30691
G1 X93.633 Y159.773 E7.31564
G1 X93.283 Y159.184 E7.37045
G1 X93.106 Y158.851 E7.40062
G1 X92.61 Y157.802 E7.49345
G1 X92.567 Y157.707 E7.50179
G1 X92.285 Y157.068 E7.55767
G1 X92.154 Y156.731 E7.58659
G1 X91.868 Y155.883 E7.65819
G1 X91.834 Y155.778 E7.66702
G1 X91.579 Y154.947 E7.73656
G1 X91.491 Y154.61 E7.76442
G1 X91.336 Y153.885 E7.82373
G1 X91.315 Y153.776 E7.83261
G1 X91.129 Y152.77 E7.91446
G1 X91.099 Y152.582 E7.92969
G1 X91.053 Y152.244 E7.95698
G1 X91.017 Y151.775 E7.99461
G1 X91.001 Y150.855 E8.06822
G1 X91 Y150.785 E8.07382
G1 X91 Y148.993 E8.21718
G1 X91.009 Y148.342 E8.26926
G1 X91.043 Y147.877 E8.30656
G1 X91.101 Y147.435 E8.34222
G1 X91.122 Y147.294 E8.35363
G1 X91.273 Y146.393 E8.42671
G1 X91.295 Y146.275 E8.43632
G1 X91.407 Y145.711 E8.48232
G1 X91.489 Y145.375 E8.50999
G1 X91.765 Y144.424 E8.58921
G1 X91.801 Y144.306 E8.59908
G1 X92.058 Y143.513 E8.66576
G1 X92.187 Y143.169 E8.69516
G1 X92.564 Y142.29 E8.77167
G1 X92.609 Y142.188 E8.78059
G1 X92.977 Y141.392 E8.85075
G1 X93.153 Y141.056 E8.88109
G1 X93.746 Y140.039 E8.97527
G1 X93.798 Y139.951 E8.98345
G1 X94.123 Y139.425 E9.03291
G1 X94.327 Y139.126 E9.06187
G1 X94.93 Y138.323 E9.14221
G1 X95.003 Y138.23 E9.15166
G1 X95.521 Y137.581 E9.21809
G1 X95.771 Y137.296 E9.24842
G1 X96.556 Y136.484 E9.33878
G1 X96.631 Y136.409 E9.34726
G1 X97.108 Y135.941 E9.40072
G1 X97.385 Y135.693 E9.43046
G1 X98.274 Y134.97 E9.52213
G1 X98.362 Y134.9 E9.53113
G1 X98.887 Y134.497 E9.58408
G0 F3600 X99.131 Y134.814
G1 F750 X99.401 Y134.626 E9.6104
G1 X100.348 Y134.028 E9.7
G1 X100.43 Y133.978 E9.70768
G1 X101.017 Y133.629 E9.76231
G1 X101.318 Y133.469 E9.78959
G1 X102.369 Y132.972 E9.88259
G1 X102.455 Y132.932 E9.89018
G1 X103.094 Y132.65 E9.94606
G1 X103.397 Y132.533 E9.97204
G1 X104.245 Y132.247 E10.04364
G1 X104.339 Y132.216 E10.05155
G1 X105.17 Y131.961 E10.12109
G1 X105.47 Y131.883 E10.14589
G1 X106.192 Y131.728 E10.20497
G1 X106.295 Y131.708 E10.21336
G1 X107.304 Y131.522 E10.29544
G1 X107.476 Y131.494 E10.30938
G1 X107.817 Y131.448 E10.33691
G1 X108.235 Y131.417 E10.37044
G1 X109.152 Y131.401 E10.44381
G1 X109.215 Y131.4 E10.44885
G1 X111.002 Y131.4 E10.59181
G1 X111.653 Y131.409 E10.6439
G1 X112.071 Y131.44 E10.67743
G1 X112.513 Y131.498 E10.71309
G1 X112.64 Y131.517 E10.72337
G1 X113.541 Y131.668 E10.79645
G1 X113.647 Y131.687 E10.80507
G1 X114.211 Y131.799 E10.85107
G1 X114.513 Y131.873 E10.87594
G1 X115.464 Y132.149 E10.95516
G1 X115.572 Y132.182 E10.9642
G1 X116.367 Y132.44 E11.03106
G1 X116.675 Y132.555 E11.05736
G1 X117.552 Y132.931 E11.1337
G1 X117.644 Y132.972 E11.14176
G1 X118.44 Y133.34 E11.21191
G1 X118.742 Y133.498 E11.23918
G1 X119.759 Y134.091 E11.33336
G1 X119.838 Y134.138 E11.34071
G1 X120.364 Y134.463 E11.39018
G1 X120.634 Y134.647 E11.41632
G1 X121.437 Y135.25 E11.49665
G1 X121.521 Y135.315 E11.50515
G1 X122.17 Y135.833 E11.57158
G1 X122.415 Y136.048 E11.59766
G1 X123.037 Y136.644 E11.66657
G1 X123.085 Y136.691 E11.67195
G1 X123.275 Y136.88 E11.69339
G1 X123.306 Y136.911 E11.69689
G1 X123.774 Y137.388 E11.75035
G1 X123.997 Y137.638 E11.77716
G1 X124.72 Y138.527 E11.86883
G1 X124.783 Y138.606 E11.87691
G1 X125.186 Y139.131 E11.92986
G1 X125.374 Y139.401 E11.95618
G1 X125.972 Y140.348 E12.04578
G1 X126.022 Y140.43 E12.05346
G1 X126.371 Y141.017 E12.10809
G1 X126.531 Y141.318 E12.13536
G1 X127.028 Y142.369 E12.22837
G1 X127.067 Y142.453 E12.23578
G1 X127.348 Y143.089 E12.29141
G1 X127.466 Y143.394 E12.31757
G1 X127.753 Y144.245 E12.38942
G1 X127.784 Y144.339 E12.39733
G1 X128.039 Y145.17 E12.46687
G1 X128.117 Y145.47 E12.49167
G1 X128.268 Y146.173 E12.54919
G1 X128.288 Y146.274 E12.55743
G1 X128.478 Y147.301 E12.64098
G1 X128.505 Y147.472 E12.65483
G1 X128.551 Y147.811 E12.6822
G1 X128.583 Y148.231 E12.7159
G1 X128.599 Y149.137 E12.78839
G1 X128.6 Y149.201 E12.79351
G1 X128.6 Y151.002 E12.93759
G1 X128.591 Y151.653 E12.98968
G1 X128.56 Y152.071 E13.02321
G1 X128.502 Y152.513 E13.05887
G1 X128.483 Y152.64 E13.06915
G1 X128.332 Y153.541 E13.14223
G1 X128.313 Y153.647 E13.15085
G1 X128.201 Y154.211 E13.19685
G1 X128.127 Y154.513 E13.22172
G1 X127.851 Y155.464 E13.30094
G1 X127.819 Y155.571 E13.30988
G1 X127.562 Y156.364 E13.37656
G1 X127.446 Y156.673 E13.40297
G1 X127.069 Y157.552 E13.47948
G1 X127.028 Y157.643 E13.48747
G1 X126.661 Y158.437 E13.55744
G1 X126.503 Y158.741 E13.58485
G1 X125.914 Y159.751 E13.67839
G1 X125.868 Y159.827 E13.6855
G1 X125.538 Y160.362 E13.73578
G1 X125.353 Y160.634 E13.7621
G1 X124.75 Y161.437 E13.84244
G1 X124.685 Y161.521 E13.85093
G1 X124.167 Y162.17 E13.91736
G1 X123.941 Y162.426 E13.94468
G1 X123.156 Y163.238 E14.03503
G1 X123.089 Y163.306 E14.04267
G1 X122.612 Y163.774 E14.09613
G1 X122.362 Y163.997 E14.12293
G1 X121.473 Y164.72 E14.2146
G1 X121.394 Y164.783 E14.22269
G1 X120.869 Y165.186 E14.27563
G1 X120.599 Y165.374 E14.30195
G1 X119.652 Y165.972 E14.39155
G1 X119.57 Y166.022 E14.39924
G1 X118.983 Y166.371 E14.45387
G1 X118.693 Y166.526 E14.48018
G1 X117.859 Y166.924 E14.5541
G1 X117.803 Y166.95 E14.55904
G1 X117.586 Y167.049 E14.57812
G1 X117.545 Y167.068 E14.58174
G1 X116.906 Y167.35 E14.63762
G1 X116.605 Y167.467 E14.66345
G1 X115.761 Y167.752 E14.73472
G1 X115.664 Y167.783 E14.74286
G1 X114.829 Y168.039 E14.81273
G1 X114.53 Y168.117 E14.83745
G1 X113.808 Y168.272 E14.89653
G1 X113.705 Y168.292 E14.90492
G1 X112.696 Y168.478 E14.987
G1 X112.524 Y168.506 E15.00094
G1 X112.183 Y168.552 E15.02847
G1 X111.765 Y168.583 E15.062
G1 X110.848 Y168.599 E15.13537
G1 X110.785 Y168.6 E15.14042
G1 X108.998 Y168.6 E15.28338
G1 X108.347 Y168.591 E15.33546
G1 X107.929 Y168.56 E15.36899
G1 X107.487 Y168.502 E15.40466
G1 X107.36 Y168.483 E15.41493
G1 X106.459 Y168.332 E15.48801
G1 X106.353 Y168.313 E15.49663
G1 X105.789 Y168.201 E15.54263
G1 X105.487 Y168.127 E15.5675
G1 X104.536 Y167.851 E15.64672
G1 X104.428 Y167.818 E15.65576
G1 X103.633 Y167.56 E15.72262
G1 X103.325 Y167.445 E15.74892
G1 X102.448 Y167.069 E15.82526
G1 X102.356 Y167.028 E15.83332
G1 X101.558 Y166.659 E15.90365
G1 X101.255 Y166.501 E15.93099
G1 X100.24 Y165.909 E16.02499
G1 X100.162 Y165.862 E16.03228
G1 X99.636 Y165.537 E16.08174
G1 X99.366 Y165.353 E16.10788
G1 X98.563 Y164.75 E16.18822
G1 X98.478 Y164.684 E16.19683
G1 X97.827 Y164.164 E16.26348
G1 X97.572 Y163.939 E16.29069
G1 X96.762 Y163.156 E16.38081
G1 X96.694 Y163.089 E16.38845
G1 X96.225 Y162.611 E16.44202
G1 X96.002 Y162.361 E16.46882
G1 X95.28 Y161.473 E16.56038
G1 X95.217 Y161.394 E16.56847
G1 X94.814 Y160.869 E16.62141
G1 X94.626 Y160.599 E16.64773
G1 X94.028 Y159.652 E16.73733
G1 X93.977 Y159.569 E16.74513
G1 X93.627 Y158.98 E16.79994
G1 X93.467 Y158.68 E16.82714
G1 X92.971 Y157.631 E16.91997
G1 X92.932 Y157.545 E16.92752
G1 X92.65 Y156.906 E16.9834
G1 X92.533 Y156.603 E17.00938
G1 X92.247 Y155.755 E17.08098
G1 X92.216 Y155.661 E17.0889
G1 X91.961 Y154.83 E17.15844
G1 X91.883 Y154.527 E17.18347
G1 X91.728 Y153.802 E17.24278
G1 X91.708 Y153.704 E17.25078
G1 X91.522 Y152.698 E17.33262
G1 X91.495 Y152.528 E17.34639
G1 X91.449 Y152.19 E17.37368
G1 X91.417 Y151.768 E17.40754
G1 X91.401 Y150.848 E17.48115
G1 X91.4 Y150.785 E17.48619
G1 X91.4 Y148.998 E17.62915
G1 X91.409 Y148.347 E17.68124
G1 X91.44 Y147.929 E17.71477
G1 X91.498 Y147.487 E17.75043
G1 X91.517 Y147.36 E17.7607
G1 X91.668 Y146.459 E17.83379
G1 X91.687 Y146.353 E17.8424
G1 X91.799 Y145.789 E17.88841
G1 X91.873 Y145.487 E17.91328
G1 X92.149 Y144.536 E17.9925
G1 X92.181 Y144.429 E18.00143
G1 X92.438 Y143.636 E18.06812
G1 X92.554 Y143.327 E18.09453
G1 X92.931 Y142.448 E18.17104
G1 X92.972 Y142.356 E18.1791
G1 X93.34 Y141.56 E18.24926
G1 X93.498 Y141.258 E18.27652
G1 X94.091 Y140.241 E18.3707
G1 X94.138 Y140.162 E18.37806
G1 X94.463 Y139.636 E18.42752
G1 X94.647 Y139.366 E18.45366
G1 X95.25 Y138.563 E18.534
G1 X95.315 Y138.479 E18.54249
G1 X95.833 Y137.83 E18.60892
G1 X96.059 Y137.574 E18.63624
G1 X96.844 Y136.762 E18.72659
G1 X96.911 Y136.694 E18.73423
G1 X97.388 Y136.226 E18.78769
G1 X97.638 Y136.003 E18.81449
G1 X98.527 Y135.28 E18.90616
G1 X98.606 Y135.217 E18.91425
G1 X99.131 Y134.814 E18.96719
G0 F3600 X99.374 Y135.132
G1 F750 X99.614 Y134.964 E18.99063
G1 X100.561 Y134.366 E19.08023
G1 X100.635 Y134.321 E19.08716
G1 X101.222 Y133.972 E19.14179
G1 X101.489 Y133.83 E19.16599
G1 X102.54 Y133.333 E19.25899
G1 X102.616 Y133.298 E19.26569
G1 X103.255 Y133.016 E19.32156
G1 X103.524 Y132.912 E19.34463
G1 X104.372 Y132.626 E19.41623
G1 X104.456 Y132.599 E19.42329
G1 X105.287 Y132.344 E19.49283
G1 X105.554 Y132.274 E19.51491
G1 X106.276 Y132.119 E19.57399
G1 X106.368 Y132.101 E19.58148
G1 X107.377 Y131.915 E19.66356
G1 X107.529 Y131.891 E19.67588
G1 X107.87 Y131.845 E19.7034
G1 X108.242 Y131.816 E19.73325
G1 X109.159 Y131.8 E19.80662
G1 X110.996 Y131.8 E19.95358
G1 X111.647 Y131.809 E20.00567
G1 X112.019 Y131.836 E20.03551
G1 X112.461 Y131.894 E20.07117
G1 X112.574 Y131.911 E20.08031
G1 X113.475 Y132.062 E20.1534
G1 X113.569 Y132.079 E20.16104
G1 X114.133 Y132.191 E20.20704
G1 X114.402 Y132.257 E20.2292
G1 X115.353 Y132.533 E20.30842
G1 X115.449 Y132.562 E20.31644
G1 X116.244 Y132.82 E20.38331
G1 X116.517 Y132.923 E20.40665
G1 X117.394 Y133.299 E20.48299
G1 X117.476 Y133.335 E20.49015
G1 X118.272 Y133.703 E20.56031
G1 X118.541 Y133.844 E20.5846
G1 X119.558 Y134.437 E20.67878
G1 X119.628 Y134.479 E20.68531
G1 X120.154 Y134.804 E20.73478
G1 X120.394 Y134.967 E20.75799
G1 X121.197 Y135.57 E20.83832
G1 X121.271 Y135.628 E20.84585
G1 X121.92 Y136.146 E20.91228
G1 X122.138 Y136.336 E20.93541
G1 X122.76 Y136.932 E21.00433
G1 X122.803 Y136.974 E21.00913
G1 X122.993 Y137.163 E21.03057
G1 X123.02 Y137.191 E21.03369
G1 X123.488 Y137.668 E21.08715
G1 X123.687 Y137.89 E21.111
G1 X124.41 Y138.779 E21.20267
G1 X124.465 Y138.849 E21.20979
G1 X124.868 Y139.374 E21.26274
G1 X125.036 Y139.614 E21.28617
G1 X125.634 Y140.561 E21.37577
G1 X125.679 Y140.635 E21.3827
G1 X126.028 Y141.222 E21.43734
G1 X126.17 Y141.489 E21.46153
