;FLAVOR:UltiGCode
;TIME:8168
;MATERIAL:10026
;MATERIAL2:0
;NOZZLE_DIAMETER:0.4
;MINX:88.9
;MINY:128.9
;MINZ:0.2
;MAXX:131.1
;MAXY:171.1
;MAXZ:35
;Generated with Cura_SteamEngine 4.3.0
M82 ;absolute extrusion mode
;Basic settings: Layer height: 0.15 Walls: 0.8 Fill: {fill_density}
;Print time: 02:16:08
;Filament used: [0.0, 4.17]m [0.0, 12.433390390625]g
;Filament cost: [0.0, 0.0]
M190 S60 ;Uncomment to add your own bed temperature line
M109 S200 ;Uncomment to add your own temperature line
G21        ;metric values
G91                                    ;relative positioning
G1 Z15.0 F120 ;move the platform down 15mm
G90        ;absolute positioning
M82        ;set extruder to absolute mode
M107       ;start with the fan off
G28 X0 Y0  ;move X/Y to min endstops
G28 Z0     ;move Z to min endstops
G605 S1
G28 X
G1 X0 Y0 Z15.0 F9000 ;move the platform down 15mm
; Prime the T0 nozzle
G92 E0
G0 X0 Y15 Z0.2 F1000
G1 Y165 E18.75 F1000
G0 X0.4
G1 Y15 E37.5 F1000
G0 X0.8
G1 Y165 E56.25 F1000
G0 X1.2
G1 Y15 E75 F1000
G0 X0 Y0 Z10 F1000
G92 E0                  ;zero the extruded length again
; End Prime	G1 F120
;Put printing message on LCD screen
M117 Gimli is Printing...

G92 E0
G92 E0
G10
;LAYER_COUNT:233
;LAYER:0
M107
G0 F3600 X97.703 Y132.763 Z0.2
;TYPE:SKIRT
G11
G1 F750 X97.963 Y132.581 E0.02539
G1 X98.764 Y132.072 E0.10131
G1 X98.824 Y132.035 E0.10695
G1 X99.294 Y131.749 E0.15097
G1 X99.327 Y131.729 E0.15405
G1 X99.849 Y131.419 E0.20262
G1 X100.136 Y131.265 E0.22868
G1 X100.98 Y130.862 E0.3035
G1 X101.038 Y130.835 E0.30862
G1 X101.571 Y130.592 E0.35548
G1 X101.612 Y130.574 E0.35906
G1 X102.186 Y130.321 E0.40925
G1 X102.487 Y130.204 E0.43508
G1 X103.4 Y129.896 E0.51217
G1 X103.461 Y129.876 E0.5173
G1 X103.867 Y129.747 E0.55138
G1 X103.92 Y129.731 E0.55581
G1 X104.588 Y129.53 E0.61162
G1 X104.876 Y129.456 E0.63541
G1 X105.605 Y129.301 E0.69503
G1 X105.674 Y129.287 E0.70066
G1 X106.739 Y129.082 E0.78743
G1 X106.831 Y129.065 E0.79491
G1 X107.302 Y128.987 E0.8331
G1 X107.769 Y128.941 E0.87064
G1 X108.336 Y128.922 E0.91603
G1 X108.407 Y128.92 E0.92171
G1 X109.56 Y128.904 E1.01396
G1 X109.599 Y128.904 E1.01708
G1 X110.93 Y128.9 E1.12356
G1 X110.993 Y128.9 E1.1286
G1 X111.691 Y128.91 E1.18445
G1 X112.08 Y128.937 E1.21564
G1 X112.323 Y128.967 E1.23523
G1 X112.413 Y128.979 E1.24249
G1 X112.661 Y129.016 E1.26255
G1 X112.701 Y129.023 E1.2658
G1 X114.071 Y129.243 E1.37681
G1 X114.121 Y129.251 E1.38086
G1 X114.801 Y129.37 E1.43608
G1 X115.202 Y129.464 E1.46903
G1 X115.918 Y129.676 E1.52877
G1 X115.967 Y129.691 E1.53287
G1 X116.583 Y129.883 E1.58449
G1 X116.627 Y129.897 E1.58818
G1 X117.25 Y130.1 E1.6406
G1 X117.554 Y130.214 E1.66658
G1 X118.445 Y130.596 E1.74413
G1 X118.506 Y130.623 E1.74947
G1 X118.956 Y130.826 E1.78896
G1 X118.999 Y130.846 E1.79275
G1 X119.616 Y131.134 E1.84723
G1 X119.897 Y131.281 E1.8726
G1 X120.65 Y131.717 E1.94221
G1 X120.7 Y131.746 E1.94683
G1 X121.186 Y132.038 E1.99219
G1 X121.224 Y132.061 E1.99574
G1 X121.797 Y132.415 E2.04963
G1 X122.067 Y132.599 E2.07576
G1 X122.826 Y133.169 E2.1517
G1 X122.879 Y133.21 E2.15706
G1 X123.294 Y133.534 E2.19918
G1 X123.333 Y133.565 E2.20317
G1 X123.831 Y133.965 E2.25427
G1 X124.071 Y134.176 E2.27983
G1 X124.734 Y134.813 E2.35339
G1 X124.774 Y134.852 E2.35785
G1 X125.119 Y135.194 E2.39672
G1 X125.156 Y135.231 E2.4009
G1 X125.642 Y135.727 E2.45646
G1 X125.858 Y135.969 E2.48241
G1 X126.476 Y136.725 E2.56052
G1 X126.515 Y136.773 E2.56547
G1 X126.825 Y137.166 E2.60551
G1 X126.855 Y137.205 E2.60945
G1 X127.237 Y137.703 E2.65966
G1 X127.419 Y137.963 E2.68505
G1 X127.928 Y138.764 E2.76097
G1 X127.965 Y138.824 E2.76661
G1 X128.251 Y139.294 E2.81063
G1 X128.271 Y139.327 E2.81372
G1 X128.581 Y139.849 E2.86228
G1 X128.735 Y140.136 E2.88834
G1 X129.138 Y140.98 E2.96316
G1 X129.165 Y141.038 E2.96828
G1 X129.408 Y141.571 E3.01514
G1 X129.426 Y141.61 E3.01858
G1 X129.678 Y142.181 E3.06851
G1 X129.795 Y142.484 E3.0945
G1 X130.104 Y143.4 E3.17183
G1 X130.124 Y143.461 E3.17697
G1 X130.253 Y143.867 E3.21105
G1 X130.269 Y143.92 E3.21548
G1 X130.47 Y144.588 E3.27128
G1 X130.544 Y144.876 E3.29507
G1 X130.699 Y145.605 E3.3547
G1 X130.713 Y145.674 E3.36033
G1 X130.918 Y146.739 E3.44709
G1 X130.934 Y146.827 E3.45425
G1 X131.012 Y147.295 E3.4922
G1 X131.059 Y147.767 E3.53015
G1 X131.078 Y148.337 E3.57578
G1 X131.08 Y148.416 E3.5821
G1 X131.1 Y150.192 E3.72419
G1 X131.1 Y150.99 E3.78803
G1 X131.091 Y151.649 E3.84075
G1 X131.088 Y151.755 E3.84924
G1 X131.074 Y152.079 E3.87518
G1 X131.034 Y152.479 E3.90734
G1 X130.863 Y153.574 E3.996
G1 X130.848 Y153.664 E4.0033
G1 X130.759 Y154.153 E4.04306
G1 X130.749 Y154.206 E4.04738
G1 X130.63 Y154.808 E4.09647
G1 X130.554 Y155.117 E4.12193
G1 X130.279 Y156.061 E4.20059
G1 X130.259 Y156.127 E4.2061
G1 X130.116 Y156.585 E4.24449
G1 X130.103 Y156.626 E4.24793
G1 X129.901 Y157.247 E4.30017
G1 X129.786 Y157.552 E4.32625
G1 X129.408 Y158.433 E4.40294
G1 X129.383 Y158.492 E4.40807
G1 X129.175 Y158.954 E4.4486
G1 X129.154 Y158.999 E4.45257
G1 X128.866 Y159.616 E4.50705
G1 X128.719 Y159.897 E4.53242
G1 X128.283 Y160.65 E4.60202
G1 X128.254 Y160.7 E4.60665
G1 X127.962 Y161.186 E4.65201
G1 X127.939 Y161.224 E4.65556
G1 X127.585 Y161.797 E4.70944
G1 X127.4 Y162.067 E4.73563
G1 X126.841 Y162.811 E4.81007
G1 X126.803 Y162.861 E4.8151
G1 X126.468 Y163.291 E4.85871
G1 X126.435 Y163.333 E4.86298
G1 X126.035 Y163.831 E4.91408
G1 X125.824 Y164.071 E4.93964
G1 X125.187 Y164.734 E5.0132
G1 X125.147 Y164.775 E5.01778
G1 X124.783 Y165.142 E5.05913
G1 X124.745 Y165.18 E5.06343
G1 X124.271 Y165.644 E5.1165
G1 X124.032 Y165.858 E5.14216
G1 X123.297 Y166.459 E5.21812
G1 X123.249 Y166.497 E5.22301
G1 X122.835 Y166.824 E5.26522
G1 X122.795 Y166.855 E5.26927
G1 X122.297 Y167.237 E5.31948
G1 X122.037 Y167.419 E5.34487
G1 X121.236 Y167.928 E5.42079
G1 X121.176 Y167.965 E5.42643
G1 X120.706 Y168.251 E5.47044
G1 X120.673 Y168.271 E5.47353
G1 X120.151 Y168.581 E5.5221
G1 X119.864 Y168.735 E5.54816
G1 X119.02 Y169.138 E5.62298
G1 X118.962 Y169.165 E5.6281
G1 X118.429 Y169.408 E5.67496
G1 X118.388 Y169.426 E5.67854
G1 X117.814 Y169.679 E5.72872
G1 X117.513 Y169.796 E5.75456
G1 X116.6 Y170.104 E5.83164
G1 X116.539 Y170.124 E5.83678
G1 X116.133 Y170.253 E5.87086
G1 X116.088 Y170.267 E5.87463
G1 X115.429 Y170.467 E5.92972
G1 X115.129 Y170.544 E5.9545
G1 X114.391 Y170.7 E6.01485
G1 X114.326 Y170.713 E6.02015
G1 X113.261 Y170.918 E6.10691
G1 X113.169 Y170.935 E6.1144
G1 X112.698 Y171.013 E6.15259
G1 X112.231 Y171.059 E6.19013
G1 X111.664 Y171.078 E6.23552
G1 X111.593 Y171.08 E6.2412
G1 X110.44 Y171.096 E6.33345
G1 X110.401 Y171.096 E6.33657
G1 X109.07 Y171.1 E6.44305
G1 X109.01 Y171.1 E6.44785
G1 X108.351 Y171.091 E6.50057
G1 X108.245 Y171.088 E6.50906
G1 X107.921 Y171.074 E6.535
G1 X107.521 Y171.034 E6.56716
G1 X106.426 Y170.863 E6.65582
G1 X106.331 Y170.847 E6.66353
G1 X105.824 Y170.754 E6.70477
G1 X105.776 Y170.745 E6.70867
G1 X105.189 Y170.629 E6.75654
G1 X104.881 Y170.553 E6.78192
G1 X103.94 Y170.279 E6.86033
G1 X103.873 Y170.259 E6.86592
G1 X103.415 Y170.116 E6.90431
G1 X103.373 Y170.103 E6.90782
G1 X102.75 Y169.9 E6.96024
G1 X102.446 Y169.786 E6.98622
G1 X101.555 Y169.404 E7.06377
G1 X101.494 Y169.377 E7.06911
G1 X101.044 Y169.174 E7.1086
G1 X101.001 Y169.154 E7.11239
G1 X100.382 Y168.865 E7.16705
G1 X100.101 Y168.718 E7.19242
G1 X99.35 Y168.283 E7.26185
G1 X99.3 Y168.254 E7.26647
G1 X98.814 Y167.962 E7.31183
G1 X98.776 Y167.939 E7.31538
G1 X98.203 Y167.585 E7.36927
G1 X97.933 Y167.401 E7.3954
G1 X97.174 Y166.831 E7.47134
G1 X97.12 Y166.789 E7.47681
G1 X96.704 Y166.464 E7.51905
G1 X96.665 Y166.433 E7.52303
G1 X96.166 Y166.032 E7.57424
G1 X95.927 Y165.822 E7.5997
G1 X95.266 Y165.187 E7.67302
G1 X95.225 Y165.147 E7.67761
G1 X94.858 Y164.783 E7.71896
G1 X94.82 Y164.745 E7.72326
G1 X94.355 Y164.27 E7.77643
G1 X94.14 Y164.03 E7.80221
G1 X93.523 Y163.275 E7.88022
G1 X93.483 Y163.225 E7.88534
G1 X93.145 Y162.796 E7.92903
G1 X93.115 Y162.758 E7.9329
G1 X92.761 Y162.296 E7.97947
G1 X92.581 Y162.037 E8.0047
G1 X92.072 Y161.236 E8.08062
G1 X92.035 Y161.177 E8.08619
G1 X91.733 Y160.681 E8.13265
G1 X91.711 Y160.644 E8.13609
G1 X91.416 Y160.146 E8.1824
G1 X91.264 Y159.862 E8.20817
G1 X90.862 Y159.02 E8.28281
G1 X90.835 Y158.962 E8.28793
G1 X90.592 Y158.429 E8.33479
G1 X90.574 Y158.388 E8.33837
G1 X90.321 Y157.814 E8.38856
G1 X90.204 Y157.513 E8.41439
G1 X89.896 Y156.6 E8.49148
G1 X89.876 Y156.539 E8.49661
G1 X89.747 Y156.133 E8.53069
G1 X89.731 Y156.082 E8.53497
G1 X89.529 Y155.412 E8.59095
G1 X89.455 Y155.124 E8.61474
G1 X89.3 Y154.397 E8.67421
G1 X89.285 Y154.323 E8.68025
G1 X89.081 Y153.258 E8.767
G1 X89.065 Y153.169 E8.77423
G1 X88.987 Y152.698 E8.81242
G1 X88.941 Y152.231 E8.84996
G1 X88.922 Y151.664 E8.89535
G1 X88.92 Y151.593 E8.90103
G1 X88.904 Y150.44 E8.99328
G1 X88.904 Y150.401 E8.9964
G1 X88.9 Y149.07 E9.10288
G1 X88.9 Y149.01 E9.10768
G1 X88.909 Y148.351 E9.16041
G1 X88.912 Y148.245 E9.16889
G1 X88.926 Y147.921 E9.19483
G1 X88.966 Y147.521 E9.22699
G1 X89.137 Y146.426 E9.31566
G1 X89.153 Y146.333 E9.3232
G1 X89.248 Y145.814 E9.36541
G1 X89.257 Y145.764 E9.36948
G1 X89.37 Y145.192 E9.41612
G1 X89.446 Y144.883 E9.44158
G1 X89.721 Y143.939 E9.52024
G1 X89.741 Y143.873 E9.52576
G1 X89.894 Y143.383 E9.56682
G1 X89.907 Y143.34 E9.57042
G1 X90.099 Y142.751 E9.61998
G1 X90.213 Y142.448 E9.64588
G1 X90.596 Y141.555 E9.72361
G1 X90.625 Y141.491 E9.72923
G1 X90.837 Y141.022 E9.77041
G1 X90.855 Y140.983 E9.77384
G1 X91.134 Y140.385 E9.82663
G1 X91.281 Y140.103 E9.85207
G1 X91.717 Y139.35 E9.92168
G1 X91.746 Y139.3 E9.92631
G1 X92.038 Y138.814 E9.97166
G1 X92.061 Y138.776 E9.97522
G1 X92.415 Y138.203 E10.0291
G1 X92.599 Y137.933 E10.05524
G1 X93.169 Y137.174 E10.13118
G1 X93.21 Y137.121 E10.13654
G1 X93.534 Y136.706 E10.17866
G1 X93.565 Y136.667 E10.18264
G1 X93.965 Y136.169 E10.23374
G1 X94.175 Y135.93 E10.25919
G1 X94.82 Y135.258 E10.33371
G1 X94.864 Y135.213 E10.33875
G1 X95.22 Y134.855 E10.37914
G1 X95.255 Y134.82 E10.3831
G1 X95.729 Y134.356 E10.43616
G1 X95.969 Y134.142 E10.46188
G1 X96.725 Y133.524 E10.54
G1 X96.773 Y133.485 E10.54495
G1 X97.166 Y133.175 E10.58499
G1 X97.205 Y133.145 E10.58893
G1 X97.703 Y132.763 E10.63914
G0 F3600 X97.946 Y133.08
G1 F750 X98.178 Y132.918 E10.66178
G1 X98.979 Y132.409 E10.7377
G1 X99.032 Y132.376 E10.74269
G1 X99.502 Y132.09 E10.78671
G1 X99.531 Y132.073 E10.7894
G1 X100.053 Y131.763 E10.83797
G1 X100.308 Y131.626 E10.86112
G1 X101.152 Y131.223 E10.93595
G1 X101.204 Y131.199 E10.94053
G1 X101.737 Y130.956 E10.98739
G1 X101.773 Y130.94 E10.99054
G1 X102.347 Y130.687 E11.04072
G1 X102.615 Y130.583 E11.06372
G1 X103.528 Y130.275 E11.14081
G1 X103.582 Y130.257 E11.14536
G1 X103.988 Y130.128 E11.17944
G1 X104.035 Y130.114 E11.18336
G1 X104.703 Y129.913 E11.23917
G1 X104.959 Y129.847 E11.26032
G1 X105.688 Y129.692 E11.31994
G1 X105.749 Y129.68 E11.32492
G1 X106.814 Y129.475 E11.41168
G1 X106.896 Y129.46 E11.41835
G1 X107.367 Y129.382 E11.45654
G1 X107.783 Y129.341 E11.48998
G1 X108.35 Y129.322 E11.53537
G1 X108.413 Y129.32 E11.54041
G1 X109.566 Y129.304 E11.63266
G1 X109.6 Y129.304 E11.63538
G1 X110.931 Y129.3 E11.74186
G1 X110.987 Y129.3 E11.74634
G1 X111.685 Y129.31 E11.80219
G1 X112.031 Y129.334 E11.82993
G1 X112.274 Y129.364 E11.84952
G1 X112.354 Y129.375 E11.85598
G1 X112.602 Y129.412 E11.87604
G1 X112.637 Y129.417 E11.87887
G1 X114.007 Y129.637 E11.98987
G1 X114.052 Y129.645 E11.99353
G1 X114.732 Y129.764 E12.04876
G1 X115.088 Y129.848 E12.07802
G1 X115.804 Y130.06 E12.13776
G1 X115.848 Y130.073 E12.14143
G1 X116.464 Y130.265 E12.19305
G1 X116.503 Y130.277 E12.19631
G1 X117.126 Y130.48 E12.24873
G1 X117.396 Y130.582 E12.27182
G1 X118.287 Y130.964 E12.34937
G1 X118.342 Y130.988 E12.35418
G1 X118.792 Y131.191 E12.39367
G1 X118.829 Y131.208 E12.39693
G1 X119.446 Y131.496 E12.4514
G1 X119.696 Y131.627 E12.47398
G1 X120.449 Y132.063 E12.54359
G1 X120.494 Y132.089 E12.54775
G1 X120.98 Y132.381 E12.5931
G1 X121.014 Y132.402 E12.5963
G1 X121.587 Y132.756 E12.65018
G1 X121.827 Y132.919 E12.67339
G1 X122.586 Y133.489 E12.74933
G1 X122.633 Y133.526 E12.75411
G1 X123.048 Y133.85 E12.79623
G1 X123.083 Y133.877 E12.79977
G1 X123.581 Y134.277 E12.85087
G1 X123.794 Y134.464 E12.87355
G1 X124.457 Y135.101 E12.9471
G1 X124.493 Y135.136 E12.95112
G1 X124.838 Y135.478 E12.98998
G1 X124.871 Y135.511 E12.99371
G1 X125.357 Y136.007 E13.04927
G1 X125.549 Y136.222 E13.07233
G1 X126.167 Y136.978 E13.15044
G1 X126.201 Y137.021 E13.15483
G1 X126.511 Y137.414 E13.19487
G1 X126.538 Y137.448 E13.19834
G1 X126.92 Y137.946 E13.24856
G1 X127.082 Y138.178 E13.27119
G1 X127.591 Y138.979 E13.34712
G1 X127.624 Y139.032 E13.35211
G1 X127.91 Y139.502 E13.39612
G1 X127.927 Y139.531 E13.39881
G1 X128.237 Y140.053 E13.44738
G1 X128.374 Y140.308 E13.47054
G1 X128.777 Y141.152 E13.54536
G1 X128.801 Y141.204 E13.54994
G1 X129.044 Y141.737 E13.59681
G1 X129.06 Y141.772 E13.59989
G1 X129.312 Y142.343 E13.64982
G1 X129.416 Y142.612 E13.67289
G1 X129.725 Y143.528 E13.75023
G1 X129.743 Y143.582 E13.75478
G1 X129.872 Y143.988 E13.78886
G1 X129.886 Y144.035 E13.79278
G1 X130.087 Y144.703 E13.84859
G1 X130.153 Y144.959 E13.86974
G1 X130.308 Y145.688 E13.92936
G1 X130.32 Y145.749 E13.93434
G1 X130.525 Y146.814 E14.0211
G1 X130.539 Y146.893 E14.02752
G1 X130.617 Y147.361 E14.06548
G1 X130.659 Y147.78 E14.09916
G1 X130.678 Y148.35 E14.14479
G1 X130.68 Y148.421 E14.15047
G1 X130.7 Y150.197 E14.29256
G1 X130.7 Y150.985 E14.3556
G1 X130.691 Y151.644 E14.40833
G1 X130.688 Y151.738 E14.41585
G1 X130.674 Y152.062 E14.44179
G1 X130.639 Y152.418 E14.47041
G1 X130.468 Y153.513 E14.55907
G1 X130.454 Y153.592 E14.56549
G1 X130.365 Y154.081 E14.60525
G1 X130.356 Y154.129 E14.60916
G1 X130.237 Y154.731 E14.65825
G1 X130.17 Y155.005 E14.68082
G1 X129.895 Y155.949 E14.75948
G1 X129.878 Y156.008 E14.76439
G1 X129.735 Y156.466 E14.80277
G1 X129.723 Y156.502 E14.80581
G1 X129.521 Y157.123 E14.85805
G1 X129.419 Y157.395 E14.88129
G1 X129.041 Y158.276 E14.95798
G1 X129.018 Y158.328 E14.96253
G1 X128.81 Y158.79 E15.00307
G1 X128.792 Y158.829 E15.0065
G1 X128.504 Y159.446 E15.06098
G1 X128.373 Y159.696 E15.08355
G1 X127.937 Y160.449 E15.15316
G1 X127.911 Y160.494 E15.15732
G1 X127.619 Y160.98 E15.20268
G1 X127.598 Y161.014 E15.20588
G1 X127.244 Y161.587 E15.25976
G1 X127.08 Y161.827 E15.28301
G1 X126.521 Y162.571 E15.35746
G1 X126.487 Y162.616 E15.36197
G1 X126.152 Y163.046 E15.40558
G1 X126.123 Y163.083 E15.40934
G1 X125.723 Y163.581 E15.46044
G1 X125.536 Y163.794 E15.48312
G1 X124.899 Y164.457 E15.55667
G1 X124.863 Y164.493 E15.56074
G1 X124.499 Y164.86 E15.6021
G1 X124.465 Y164.894 E15.60594
G1 X123.991 Y165.358 E15.65901
G1 X123.779 Y165.548 E15.68178
G1 X123.044 Y166.149 E15.75774
G1 X123.001 Y166.183 E15.76212
G1 X122.587 Y166.51 E15.80433
G1 X122.552 Y166.538 E15.80791
G1 X122.054 Y166.92 E15.85812
G1 X121.822 Y167.082 E15.88076
G1 X121.021 Y167.591 E15.95668
G1 X120.968 Y167.624 E15.96168
G1 X120.498 Y167.91 E16.00569
G1 X120.469 Y167.927 E16.00838
G1 X119.947 Y168.237 E16.05695
G1 X119.692 Y168.374 E16.08011
G1 X118.848 Y168.777 E16.15493
G1 X118.796 Y168.801 E16.15951
G1 X118.263 Y169.044 E16.20638
G1 X118.227 Y169.06 E16.20953
G1 X117.653 Y169.313 E16.25971
G1 X117.385 Y169.417 E16.28271
G1 X116.472 Y169.725 E16.35979
G1 X116.418 Y169.743 E16.36435
G1 X116.012 Y169.872 E16.39843
G1 X115.972 Y169.884 E16.40177
G1 X115.313 Y170.084 E16.45686
G1 X115.046 Y170.153 E16.47892
G1 X114.308 Y170.309 E16.53927
G1 X114.251 Y170.32 E16.54391
G1 X113.186 Y170.525 E16.63068
G1 X113.104 Y170.54 E16.63734
G1 X112.633 Y170.618 E16.67554
G1 X112.217 Y170.659 E16.70898
G1 X111.65 Y170.678 E16.75436
G1 X111.587 Y170.68 E16.75941
G1 X110.434 Y170.696 E16.85166
G1 X110.4 Y170.696 E16.85438
G1 X109.069 Y170.7 E16.96086
G1 X109.015 Y170.7 E16.96518
G1 X108.356 Y170.691 E17.0179
G1 X108.262 Y170.688 E17.02542
G1 X107.938 Y170.674 E17.05137
G1 X107.582 Y170.639 E17.07999
G1 X106.487 Y170.468 E17.16865
G1 X106.404 Y170.453 E17.1754
G1 X105.897 Y170.36 E17.21663
G1 X105.854 Y170.352 E17.22013
G1 X105.267 Y170.236 E17.268
