;FLAVOR:UltiGCode
;TIME:11020
;MATERIAL:14030
;MATERIAL2:0
;NOZZLE_DIAMETER:0.4
;MINX:86.4
;MINY:126.4
;MINZ:0.2
;MAXX:133.6
;MAXY:173.6
;MAXZ:39.95
;Generated with Cura_SteamEngine 4.3.0
M82 ;absolute extrusion mode
;Basic settings: Layer height: 0.15 Walls: 0.8 Fill: {fill_density}
;Print time: 03:03:40
;Filament used: [0.0, 5.83]m [0.0, 17.397983476562498]g
;Filament cost: [0.0, 0.0]
M190 S60 ;Uncomment to add your own bed temperature line
M109 S200 ;Uncomment to add your own temperature line
G21        ;metric values
G91                                    ;relative positioning
G1 Z15.0 F120 ;move the platform down 15mm
G90        ;absolute positioning
M82        ;set extruder to absolute mode
M107       ;start with the fan off
G28 X0 Y0  ;move X/Y to min endstops
G28 Z0     ;move Z to min endstops
G605 S1
G28 X
G1 X0 Y0 Z15.0 F9000 ;move the platform down 15mm
; Prime the T0 nozzle
G92 E0
G0 X0 Y15 Z0.2 F1000
G1 Y165 E18.75 F1000
G0 X0.4
G1 Y15 E37.5 F1000
G0 X0.8
G1 Y165 E56.25 F1000
G0 X1.2
G1 Y15 E75 F1000
G0 X0 Y0 Z10 F1000
G92 E0                  ;zero the extruded length again
; End Prime	G1 F120
;Put printing message on LCD screen
M117 Gimli is Printing...

G92 E0
G92 E0
G10
;LAYER_COUNT:266
;LAYER:0
M107
G0 F3600 X96.281 Y130.706 Z0.2
;TYPE:SKIRT
G11
G1 F750 X96.537 Y130.528 E0.02494
G1 X97.33 Y130.024 E0.10011
G1 X97.385 Y129.989 E0.10533
G1 X98.132 Y129.533 E0.17534
G1 X98.178 Y129.506 E0.17961
G1 X98.698 Y129.199 E0.22792
G1 X98.981 Y129.048 E0.25358
G1 X99.805 Y128.656 E0.32658
G1 X99.859 Y128.631 E0.33134
G1 X100.721 Y128.238 E0.40713
G1 X100.764 Y128.219 E0.41089
G1 X101.298 Y127.984 E0.45756
G1 X101.603 Y127.866 E0.48373
G1 X102.533 Y127.554 E0.5622
G1 X102.586 Y127.537 E0.56665
G1 X103.258 Y127.323 E0.62307
G1 X103.313 Y127.306 E0.62768
G1 X103.978 Y127.106 E0.68323
G1 X104.271 Y127.031 E0.70743
G1 X105.043 Y126.868 E0.77055
G1 X105.106 Y126.855 E0.7757
G1 X106.415 Y126.603 E0.88234
G1 X106.511 Y126.586 E0.89014
G1 X106.96 Y126.512 E0.92654
G1 X107.261 Y126.475 E0.9508
G1 X107.779 Y126.434 E0.99237
G1 X107.987 Y126.424 E1.00903
G1 X109.079 Y126.401 E1.09641
G1 X109.155 Y126.4 E1.10249
G1 X110.994 Y126.4 E1.24961
G1 X111.642 Y126.409 E1.30146
G1 X111.754 Y126.413 E1.31042
G1 X112.219 Y126.434 E1.34766
G1 X112.319 Y126.44 E1.35568
G1 X112.593 Y126.46 E1.37765
G1 X112.91 Y126.497 E1.40319
G1 X113.91 Y126.66 E1.48424
G1 X113.98 Y126.672 E1.48992
G1 X114.727 Y126.809 E1.55068
G1 X114.778 Y126.819 E1.55484
G1 X115.419 Y126.946 E1.60712
G1 X115.728 Y127.021 E1.63255
G1 X116.649 Y127.29 E1.70931
G1 X116.712 Y127.309 E1.71458
G1 X117.459 Y127.542 E1.77718
G1 X117.506 Y127.557 E1.78112
G1 X118.145 Y127.766 E1.83491
G1 X118.445 Y127.88 E1.86058
G1 X119.333 Y128.261 E1.93788
G1 X119.391 Y128.286 E1.94294
G1 X120.127 Y128.617 E2.0075
G1 X120.175 Y128.639 E2.01172
G1 X120.776 Y128.92 E2.0648
G1 X121.053 Y129.065 E2.08981
G1 X121.807 Y129.501 E2.15949
G1 X121.858 Y129.53 E2.16418
G1 X122.621 Y129.988 E2.23537
G1 X122.662 Y130.014 E2.23926
G1 X123.205 Y130.35 E2.29034
G1 X123.476 Y130.535 E2.31659
G1 X124.293 Y131.15 E2.3984
G1 X124.342 Y131.188 E2.40336
G1 X124.915 Y131.635 E2.4615
G1 X124.959 Y131.669 E2.46595
G1 X125.498 Y132.103 E2.52131
G1 X125.734 Y132.311 E2.54648
G1 X126.391 Y132.942 E2.61935
G1 X126.436 Y132.986 E2.62439
G1 X127.014 Y133.561 E2.68961
G1 X127.047 Y133.594 E2.69334
G1 X127.525 Y134.082 E2.74799
G1 X127.741 Y134.323 E2.77388
G1 X128.308 Y135.017 E2.84558
G1 X128.346 Y135.065 E2.85047
G1 X128.899 Y135.766 E2.9219
G1 X128.933 Y135.809 E2.92629
G1 X129.294 Y136.281 E2.97383
G1 X129.472 Y136.537 E2.99877
G1 X129.976 Y137.33 E3.07394
G1 X130.011 Y137.385 E3.07915
G1 X130.467 Y138.132 E3.14917
G1 X130.494 Y138.178 E3.15344
G1 X130.801 Y138.698 E3.20174
G1 X130.952 Y138.981 E3.22741
G1 X131.344 Y139.805 E3.3004
G1 X131.368 Y139.858 E3.30506
G1 X131.759 Y140.715 E3.38042
G1 X131.779 Y140.758 E3.38421
G1 X132.015 Y141.294 E3.43106
G1 X132.133 Y141.6 E3.4573
G1 X132.446 Y142.533 E3.53603
G1 X132.463 Y142.586 E3.54048
G1 X132.677 Y143.258 E3.5969
G1 X132.694 Y143.313 E3.60151
G1 X132.894 Y143.978 E3.65706
G1 X132.969 Y144.269 E3.6811
G1 X133.125 Y145.005 E3.74129
G1 X133.138 Y145.07 E3.74659
G1 X133.397 Y146.415 E3.85617
G1 X133.414 Y146.508 E3.86373
G1 X133.488 Y146.955 E3.89998
G1 X133.525 Y147.26 E3.92456
G1 X133.566 Y147.78 E3.96629
G1 X133.576 Y147.987 E3.98287
G1 X133.599 Y149.079 E4.07025
G1 X133.6 Y149.155 E4.07633
G1 X133.6 Y150.994 E4.22345
G1 X133.591 Y151.641 E4.27521
G1 X133.587 Y151.753 E4.28418
G1 X133.566 Y152.219 E4.3215
G1 X133.56 Y152.319 E4.32951
G1 X133.54 Y152.593 E4.35149
G1 X133.503 Y152.91 E4.37702
G1 X133.34 Y153.91 E4.45808
G1 X133.328 Y153.981 E4.46384
G1 X133.196 Y154.7 E4.52232
G1 X133.187 Y154.745 E4.52599
G1 X133.056 Y155.411 E4.58029
G1 X132.979 Y155.726 E4.60623
G1 X132.709 Y156.65 E4.68324
G1 X132.691 Y156.712 E4.68841
G1 X132.458 Y157.459 E4.75101
G1 X132.443 Y157.504 E4.7548
G1 X132.235 Y158.141 E4.80841
G1 X132.122 Y158.443 E4.83421
G1 X131.739 Y159.336 E4.91194
G1 X131.713 Y159.395 E4.9171
G1 X131.383 Y160.128 E4.98141
G1 X131.361 Y160.175 E4.98556
G1 X131.08 Y160.776 E5.03863
G1 X130.936 Y161.052 E5.06354
G1 X130.498 Y161.81 E5.13357
G1 X130.467 Y161.863 E5.13849
G1 X130.011 Y162.622 E5.20932
G1 X129.986 Y162.662 E5.2131
G1 X129.65 Y163.205 E5.26418
G1 X129.465 Y163.476 E5.29043
G1 X128.85 Y164.293 E5.37224
G1 X128.812 Y164.342 E5.3772
G1 X128.365 Y164.915 E5.43534
G1 X128.331 Y164.959 E5.43979
G1 X127.897 Y165.498 E5.49515
G1 X127.689 Y165.734 E5.52031
G1 X127.058 Y166.391 E5.59319
G1 X127.014 Y166.436 E5.59822
G1 X126.439 Y167.014 E5.66345
G1 X126.406 Y167.047 E5.66718
G1 X125.918 Y167.525 E5.72183
G1 X125.677 Y167.741 E5.74772
G1 X124.983 Y168.308 E5.81941
G1 X124.935 Y168.346 E5.82431
G1 X124.22 Y168.91 E5.89716
G1 X124.176 Y168.944 E5.90161
G1 X123.718 Y169.294 E5.94773
G1 X123.463 Y169.472 E5.9726
G1 X122.67 Y169.976 E6.04777
G1 X122.615 Y170.011 E6.05299
G1 X121.868 Y170.467 E6.123
G1 X121.822 Y170.494 E6.12727
G1 X121.302 Y170.801 E6.17558
G1 X121.019 Y170.952 E6.20124
G1 X120.195 Y171.344 E6.27424
G1 X120.142 Y171.368 E6.27889
G1 X119.285 Y171.759 E6.35425
G1 X119.24 Y171.779 E6.35819
G1 X118.701 Y172.016 E6.4053
G1 X118.397 Y172.134 E6.43138
G1 X117.467 Y172.446 E6.50986
G1 X117.414 Y172.463 E6.51431
G1 X116.742 Y172.677 E6.57073
G1 X116.687 Y172.694 E6.57534
G1 X116.022 Y172.894 E6.63089
G1 X115.729 Y172.969 E6.65509
G1 X114.957 Y173.132 E6.71821
G1 X114.894 Y173.145 E6.72336
G1 X113.585 Y173.397 E6.83
G1 X113.489 Y173.414 E6.8378
G1 X113.04 Y173.488 E6.8742
G1 X112.739 Y173.525 E6.89846
G1 X112.221 Y173.566 E6.94003
G1 X112.013 Y173.576 E6.95669
G1 X110.921 Y173.599 E7.04407
G1 X110.845 Y173.6 E7.05015
G1 X109.006 Y173.6 E7.19727
G1 X108.359 Y173.591 E7.24904
G1 X108.247 Y173.587 E7.258
G1 X107.781 Y173.566 E7.29532
G1 X107.681 Y173.56 E7.30334
G1 X107.407 Y173.54 E7.32531
G1 X107.09 Y173.503 E7.35085
G1 X106.09 Y173.34 E7.4319
G1 X106.02 Y173.328 E7.43758
G1 X105.273 Y173.191 E7.49834
G1 X105.222 Y173.181 E7.5025
G1 X104.581 Y173.054 E7.55477
G1 X104.272 Y172.979 E7.58021
G1 X103.351 Y172.71 E7.65697
G1 X103.288 Y172.691 E7.66223
G1 X102.541 Y172.458 E7.72483
G1 X102.494 Y172.443 E7.72878
G1 X101.855 Y172.234 E7.78257
G1 X101.555 Y172.121 E7.80821
G1 X100.664 Y171.739 E7.88577
G1 X100.605 Y171.713 E7.89093
G1 X99.872 Y171.383 E7.95523
G1 X99.825 Y171.361 E7.95939
G1 X99.222 Y171.079 E8.01264
G1 X98.945 Y170.935 E8.03762
G1 X98.189 Y170.498 E8.10747
G1 X98.137 Y170.467 E8.11232
G1 X97.378 Y170.011 E8.18315
G1 X97.338 Y169.986 E8.18693
G1 X96.795 Y169.65 E8.23801
G1 X96.525 Y169.466 E8.26415
G1 X95.702 Y168.847 E8.34653
G1 X95.649 Y168.806 E8.35189
G1 X95.076 Y168.358 E8.41008
G1 X95.035 Y168.325 E8.41429
G1 X94.5 Y167.894 E8.46925
G1 X94.264 Y167.688 E8.49431
G1 X93.609 Y167.059 E8.56696
G1 X93.564 Y167.014 E8.57205
G1 X92.954 Y166.407 E8.6409
G1 X92.919 Y166.372 E8.64486
G1 X92.472 Y165.915 E8.696
G1 X92.258 Y165.675 E8.72172
G1 X91.692 Y164.982 E8.7933
G1 X91.654 Y164.935 E8.79814
G1 X91.09 Y164.22 E8.87099
G1 X91.056 Y164.176 E8.87544
G1 X90.706 Y163.718 E8.92155
G1 X90.528 Y163.463 E8.94643
G1 X90.024 Y162.67 E9.0216
G1 X89.989 Y162.615 E9.02682
G1 X89.533 Y161.868 E9.09683
G1 X89.505 Y161.821 E9.10121
G1 X89.197 Y161.299 E9.1497
G1 X89.047 Y161.016 E9.17532
G1 X88.656 Y160.194 E9.24814
G1 X88.632 Y160.142 E9.25272
G1 X88.241 Y159.285 E9.32808
G1 X88.221 Y159.24 E9.33202
G1 X87.984 Y158.701 E9.37912
G1 X87.866 Y158.397 E9.40521
G1 X87.554 Y157.467 E9.48369
G1 X87.537 Y157.414 E9.48814
G1 X87.323 Y156.742 E9.54456
G1 X87.306 Y156.687 E9.54917
G1 X87.106 Y156.022 E9.60472
G1 X87.031 Y155.729 E9.62891
G1 X86.868 Y154.957 E9.69204
G1 X86.855 Y154.894 E9.69718
G1 X86.603 Y153.585 E9.80383
G1 X86.586 Y153.489 E9.81163
G1 X86.512 Y153.04 E9.84803
G1 X86.475 Y152.739 E9.87229
G1 X86.434 Y152.221 E9.91386
G1 X86.424 Y152.013 E9.93052
G1 X86.401 Y150.921 E10.0179
G1 X86.4 Y150.845 E10.02398
G1 X86.4 Y149.006 E10.1711
G1 X86.409 Y148.359 E10.22286
G1 X86.413 Y148.247 E10.23183
G1 X86.434 Y147.781 E10.26915
G1 X86.44 Y147.681 E10.27716
G1 X86.46 Y147.407 E10.29914
G1 X86.497 Y147.09 E10.32467
G1 X86.66 Y146.09 E10.40573
G1 X86.672 Y146.02 E10.41141
G1 X86.809 Y145.273 E10.47217
G1 X86.818 Y145.225 E10.47607
G1 X86.944 Y144.587 E10.5281
G1 X87.021 Y144.274 E10.55389
G1 X87.291 Y143.35 E10.6309
G1 X87.309 Y143.288 E10.63606
G1 X87.542 Y142.541 E10.69866
G1 X87.557 Y142.496 E10.70246
G1 X87.765 Y141.859 E10.75606
G1 X87.878 Y141.557 E10.78186
G1 X88.261 Y140.664 E10.85959
G1 X88.287 Y140.605 E10.86475
G1 X88.617 Y139.872 E10.92906
G1 X88.639 Y139.825 E10.93321
G1 X88.92 Y139.224 E10.98629
G1 X89.064 Y138.948 E11.01119
G1 X89.502 Y138.19 E11.08123
G1 X89.533 Y138.137 E11.08614
G1 X89.989 Y137.378 E11.15698
G1 X90.014 Y137.338 E11.16075
G1 X90.35 Y136.795 E11.21183
G1 X90.535 Y136.524 E11.23808
G1 X91.15 Y135.707 E11.31989
G1 X91.188 Y135.658 E11.32485
G1 X91.635 Y135.085 E11.38299
G1 X91.669 Y135.041 E11.38744
G1 X92.103 Y134.502 E11.4428
G1 X92.311 Y134.266 E11.46797
G1 X92.942 Y133.609 E11.54084
G1 X92.986 Y133.564 E11.54588
G1 X93.561 Y132.986 E11.6111
G1 X93.594 Y132.953 E11.61483
G1 X94.082 Y132.475 E11.66948
G1 X94.324 Y132.258 E11.69549
G1 X95.021 Y131.689 E11.76747
G1 X95.069 Y131.651 E11.77236
G1 X95.793 Y131.08 E11.84613
G1 X95.835 Y131.047 E11.8504
G1 X96.281 Y130.706 E11.89532
G0 F3600 X96.524 Y131.024
G1 F750 X96.752 Y130.865 E11.91755
G1 X97.545 Y130.361 E11.99272
G1 X97.594 Y130.331 E11.99732
G1 X98.341 Y129.875 E12.06733
G1 X98.381 Y129.85 E12.07111
G1 X98.901 Y129.543 E12.11942
G1 X99.153 Y129.409 E12.14225
G1 X99.977 Y129.017 E12.21525
G1 X100.025 Y128.995 E12.21947
G1 X100.887 Y128.602 E12.29526
G1 X100.925 Y128.585 E12.29859
G1 X101.459 Y128.35 E12.34527
G1 X101.73 Y128.245 E12.36852
G1 X102.66 Y127.933 E12.44699
G1 X102.707 Y127.918 E12.45094
G1 X103.379 Y127.704 E12.50736
G1 X103.428 Y127.689 E12.51146
G1 X104.093 Y127.489 E12.56701
G1 X104.354 Y127.422 E12.58857
G1 X105.126 Y127.259 E12.65169
G1 X105.182 Y127.248 E12.65626
G1 X106.491 Y126.996 E12.7629
G1 X106.576 Y126.981 E12.7698
G1 X107.025 Y126.907 E12.80621
G1 X107.293 Y126.874 E12.82781
G1 X107.811 Y126.833 E12.86938
G1 X107.996 Y126.824 E12.8842
G1 X109.088 Y126.801 E12.97158
G1 X109.155 Y126.8 E12.97694
G1 X110.988 Y126.8 E13.12358
G1 X111.636 Y126.809 E13.17542
G1 X111.736 Y126.812 E13.18343
G1 X112.201 Y126.833 E13.22066
G1 X112.29 Y126.838 E13.2278
G1 X112.564 Y126.858 E13.24977
G1 X112.846 Y126.892 E13.2725
G1 X113.846 Y127.055 E13.35355
G1 X113.908 Y127.065 E13.35858
G1 X114.655 Y127.202 E13.41933
G1 X114.7 Y127.211 E13.423
G1 X115.341 Y127.338 E13.47528
G1 X115.616 Y127.405 E13.49793
G1 X116.537 Y127.674 E13.57468
G1 X116.593 Y127.691 E13.57937
G1 X117.34 Y127.924 E13.64197
G1 X117.382 Y127.938 E13.64551
G1 X118.021 Y128.147 E13.69929
G1 X118.288 Y128.247 E13.7221
G1 X119.176 Y128.628 E13.7994
G1 X119.227 Y128.651 E13.80388
G1 X119.963 Y128.982 E13.86844
G1 X120.005 Y129.001 E13.87213
G1 X120.606 Y129.282 E13.9252
G1 X120.853 Y129.411 E13.9475
G1 X121.607 Y129.847 E14.01717
G1 X121.652 Y129.873 E14.02133
G1 X122.415 Y130.331 E14.09252
G1 X122.452 Y130.354 E14.09601
G1 X122.995 Y130.69 E14.14709
G1 X123.236 Y130.854 E14.17041
G1 X124.053 Y131.469 E14.25222
G1 X124.096 Y131.503 E14.25661
G1 X124.669 Y131.95 E14.31475
G1 X124.708 Y131.981 E14.31873
G1 X125.247 Y132.415 E14.37409
G1 X125.457 Y132.599 E14.39643
G1 X126.114 Y133.23 E14.4693
G1 X126.154 Y133.269 E14.47377
G1 X126.732 Y133.844 E14.539
G1 X126.761 Y133.874 E14.54234
G1 X127.239 Y134.362 E14.59698
G1 X127.431 Y134.576 E14.61998
G1 X127.998 Y135.27 E14.69168
G1 X128.032 Y135.313 E14.69606
G1 X128.585 Y136.014 E14.76749
G1 X128.615 Y136.052 E14.77137
G1 X128.976 Y136.524 E14.8189
G1 X129.135 Y136.752 E14.84114
G1 X129.639 Y137.545 E14.91631
G1 X129.669 Y137.594 E14.92091
G1 X130.125 Y138.341 E14.99092
G1 X130.15 Y138.381 E14.99469
G1 X130.457 Y138.901 E15.043
G1 X130.591 Y139.153 E15.06584
G1 X130.983 Y139.977 E15.13884
G1 X131.004 Y140.024 E15.14295
G1 X131.395 Y140.881 E15.21831
G1 X131.413 Y140.92 E15.22175
G1 X131.649 Y141.456 E15.2686
G1 X131.754 Y141.727 E15.29185
G1 X132.067 Y142.66 E15.37058
G1 X132.082 Y142.707 E15.37453
G1 X132.296 Y143.379 E15.43095
G1 X132.311 Y143.428 E15.43505
G1 X132.511 Y144.093 E15.4906
G1 X132.577 Y144.351 E15.5119
G1 X132.733 Y145.087 E15.57209
G1 X132.745 Y145.146 E15.57691
G1 X133.004 Y146.491 E15.68649
G1 X133.019 Y146.573 E15.69316
G1 X133.093 Y147.02 E15.7294
G1 X133.126 Y147.291 E15.75124
G1 X133.167 Y147.811 E15.79297
G1 X133.176 Y147.996 E15.80779
G1 X133.199 Y149.088 E15.89517
G1 X133.2 Y149.155 E15.90053
G1 X133.2 Y150.989 E16.04725
G1 X133.191 Y151.636 E16.09901
G1 X133.188 Y151.735 E16.10694
G1 X133.167 Y152.201 E16.14426
G1 X133.162 Y152.29 E16.15139
G1 X133.142 Y152.564 E16.17336
G1 X133.108 Y152.846 E16.19609
G1 X132.945 Y153.846 E16.27714
G1 X132.934 Y153.909 E16.28226
G1 X132.802 Y154.628 E16.34074
G1 X132.795 Y154.668 E16.34399
G1 X132.664 Y155.334 E16.39829
G1 X132.596 Y155.614 E16.42134
G1 X132.326 Y156.538 E16.49835
G1 X132.309 Y156.593 E16.50296
G1 X132.076 Y157.34 E16.56556
G1 X132.063 Y157.38 E16.56892
G1 X131.855 Y158.017 E16.62253
G1 X131.754 Y158.285 E16.64544
G1 X131.371 Y159.178 E16.72318
G1 X131.348 Y159.231 E16.7278
G1 X131.018 Y159.964 E16.79211
G1 X130.999 Y160.005 E16.79572
G1 X130.718 Y160.606 E16.8488
G1 X130.59 Y160.852 E16.87098
G1 X130.152 Y161.61 E16.94102
G1 X130.124 Y161.657 E16.9454
G1 X129.668 Y162.416 E17.01623
G1 X129.646 Y162.452 E17.01961
G1 X129.31 Y162.995 E17.07069
G1 X129.146 Y163.236 E17.09401
G1 X128.531 Y164.053 E17.17582
G1 X128.497 Y164.096 E17.1802
G1 X128.05 Y164.669 E17.23834
G1 X128.019 Y164.708 E17.24233
G1 X127.585 Y165.247 E17.29769
G1 X127.401 Y165.457 E17.32003
G1 X126.77 Y166.114 E17.3929
G1 X126.731 Y166.154 E17.39737
G1 X126.156 Y166.732 E17.46259
G1 X126.126 Y166.761 E17.46593
G1 X125.638 Y167.239 E17.52058
G1 X125.424 Y167.431 E17.54358
G1 X124.73 Y167.998 E17.61527
G1 X124.687 Y168.032 E17.61966
G1 X123.972 Y168.596 E17.69251
G1 X123.933 Y168.627 E17.6965
G1 X123.475 Y168.977 E17.74261
G1 X123.248 Y169.135 E17.76474
G1 X122.455 Y169.639 E17.83991
G1 X122.406 Y169.669 E17.8445
G1 X121.659 Y170.125 E17.91452
G1 X121.619 Y170.15 E17.91829
G1 X121.099 Y170.457 E17.9666
G1 X120.847 Y170.591 E17.98943
G1 X120.023 Y170.983 E18.06243
G1 X119.976 Y171.004 E18.06655
G1 X119.119 Y171.395 E18.14191
G1 X119.079 Y171.413 E18.14542
G1 X118.54 Y171.65 E18.19252
G1 X118.27 Y171.755 E18.2157
G1 X117.34 Y172.067 E18.29417
G1 X117.293 Y172.082 E18.29812
G1 X116.621 Y172.296 E18.35454
G1 X116.572 Y172.311 E18.35864
G1 X115.907 Y172.511 E18.41419
G1 X115.646 Y172.578 E18.43575
G1 X114.874 Y172.741 E18.49887
G1 X114.818 Y172.752 E18.50344
G1 X113.509 Y173.004 E18.61008
G1 X113.424 Y173.019 E18.61699
G1 X112.975 Y173.093 E18.65339
G1 X112.707 Y173.126 E18.67499
G1 X112.189 Y173.167 E18.71656
G1 X112.004 Y173.176 E18.73138
G1 X110.912 Y173.199 E18.81876
G1 X110.845 Y173.2 E18.82412
G1 X109.011 Y173.2 E18.97084
