;FLAVOR:Marlin
;TIME:6330
;Filament used: 6.2025m
;Layer height: 0.2
;Generated with Cura_SteamEngine 3.6.0
M82 ;absolute extrusion mode
; Ender 4 CoreXY, Due RADDS, TMC2130 Custom Start G-code
M104 S200 ; Set Extruder temperature
M140 S60 ; Set Heat Bed temperature
;CoreXY Sensorless Homing Part #1
; M914 X1 Y1 ; +TMCFINE+ Setup  StallGuard Sensitivity
G92 X0 Y0
G0 X5 Y5 F6000
G28 X
M190 S60 ; Wait for Heat Bed temperature
M109 S200 ; Wait for Extruder temperature
;End Part #1
; Identifier CALIBR, CALRES and CALMPE, surrounded by #, + or - can be used in post processing
; #CALIBR# M92 X320 Y320 Z400 E440; +CALIBR+ Steps per unit
; #CALIBR#M851 Z-2.1 ; +CALIBR+  Z Probe Offset
; #CALRESO# M201 X500 Y500 Z50 E500 ; +CALRESO+ Max Accelleration
; #CALRESO# M203 X300 Y300 Z2 E90 ; +CALRESO+ Max Feed
; #CALRESO# M205 X3.0 Y3.0 Z0.3 E5.0 ; +CALRESO+ Default Jerk
;CoreXY Sensorless Homing Part #2
G0 X10 F6000
G28 X
G92 X-3
G0 X10 F6000
G28 Y
G0 Y10 F6000
G28 Y
G92 Y-3
G0 Y10 F6000
G28 Z
G0 X0 Y0 F6000
G92 E20
G1 F300 E0
;End Part #2
; #MPE# G29 ; -MPE- Auto Bed Level, uses this if FW values are set correct.
; M906 X950 Y950 Z800 E800
; M914 X0 Y0 ; +TMCFINE+ Setup  StallGuard Sensitivity
G1 Z5.0 F3000 ; Move Z Axis up little to prevent scratching of Heat Bed
;G1 X15.1 Y20 Z0.3 F5000.0 ; Move to start position
;G1 X15.1 Y200.0 Z0.3 F1500.0 E15 ; Draw the first line
;G1 X15.4 Y200.0 Z0.3 F5000.0 ; Move to side a little
;G1 X15.4 Y20 Z0.3 F1500.0 E30 ; Draw the second line
G92 E0 ; Reset Extruder
G1 E25
G92 E0 ; Reset Extruder
G1 Z5.0 F3000 ; Move Z Axis up little to prevent scratching of Heat Bed
;END Custom Start Code
G92 E0
G1 F1200 E-3
;LAYER_COUNT:71
;LAYER:0
M107
G0 F2400 X68.971 Y68.996 Z0.2
;TYPE:SKIRT
G1 F1200 E0
G1 X69.503 Y68.517 E0.02381
G1 X70.085 Y68.102 E0.04758
G1 X70.71 Y67.753 E0.07139
G1 X71.37 Y67.477 E0.09519
G1 X72.056 Y67.276 E0.11896
G1 X72.761 Y67.153 E0.14277
G1 X73.509 Y67.109 E0.16769
G1 X161.491 Y67.11 E3.09398
G1 X162.205 Y67.15 E3.11777
G1 X162.91 Y67.269 E3.14155
G1 X163.598 Y67.467 E3.16536
G1 X164.259 Y67.74 E3.18914
G1 X164.886 Y68.085 E3.21295
G1 X165.47 Y68.497 E3.23672
G1 X166.004 Y68.972 E3.26049
G1 X166.483 Y69.504 E3.2843
G1 X166.898 Y70.086 E3.30807
G1 X167.247 Y70.711 E3.33188
G1 X167.523 Y71.371 E3.35567
G1 X167.724 Y72.057 E3.37945
G1 X167.847 Y72.762 E3.40325
G1 X167.891 Y73.51 E3.42817
G1 X167.891 Y161.491 E6.35443
G1 X167.851 Y162.205 E6.37822
G1 X167.732 Y162.91 E6.402
G1 X167.534 Y163.598 E6.42581
G1 X167.261 Y164.259 E6.4496
G1 X166.917 Y164.886 E6.47338
G1 X166.504 Y165.47 E6.49717
G1 X166.029 Y166.004 E6.52095
G1 X165.497 Y166.483 E6.54475
G1 X164.915 Y166.898 E6.56853
G1 X164.29 Y167.247 E6.59234
G1 X163.63 Y167.523 E6.61613
G1 X162.944 Y167.724 E6.63991
G1 X162.239 Y167.847 E6.66371
G1 X161.491 Y167.891 E6.68863
G1 X73.509 Y167.891 E9.61493
G1 X72.795 Y167.851 E9.63871
G1 X72.09 Y167.732 E9.66249
G1 X71.402 Y167.534 E9.6863
G1 X70.741 Y167.261 E9.71009
G1 X70.114 Y166.917 E9.73387
G1 X69.53 Y166.504 E9.75767
G1 X68.996 Y166.029 E9.78144
G1 X68.517 Y165.497 E9.80525
G1 X68.102 Y164.915 E9.82902
G1 X67.753 Y164.29 E9.85283
G1 X67.477 Y163.63 E9.87662
G1 X67.276 Y162.944 E9.9004
G1 X67.153 Y162.239 E9.9242
G1 X67.109 Y161.491 E9.94912
G1 X67.109 Y73.509 E12.87542
G1 X67.149 Y72.795 E12.8992
G1 X67.268 Y72.09 E12.92298
G1 X67.466 Y71.402 E12.94679
G1 X67.739 Y70.741 E12.97058
G1 X68.083 Y70.114 E12.99437
G1 X68.496 Y69.53 E13.01816
G1 X68.971 Y68.996 E13.04193
G0 F2400 X69.365 Y69.17
G1 F1200 X69.893 Y68.721 E13.06498
G1 X70.468 Y68.336 E13.08799
G1 X71.085 Y68.021 E13.11104
G1 X71.733 Y67.778 E13.13405
G1 X72.406 Y67.611 E13.15712
G1 X73.092 Y67.523 E13.18012
G1 X73.509 Y67.509 E13.194
G1 X161.491 Y67.51 E16.12029
G1 X162.182 Y67.55 E16.14331
G1 X162.865 Y67.669 E16.16637
G1 X163.528 Y67.867 E16.18939
G1 X164.165 Y68.139 E16.21242
G1 X164.766 Y68.483 E16.23545
G1 X165.324 Y68.894 E16.2585
G1 X165.83 Y69.366 E16.28152
G1 X166.279 Y69.894 E16.30457
G1 X166.664 Y70.47 E16.32762
G1 X166.979 Y71.086 E16.35063
G1 X167.222 Y71.734 E16.37365
G1 X167.389 Y72.407 E16.39671
G1 X167.477 Y73.094 E16.41974
G1 X167.491 Y73.51 E16.43359
G1 X167.491 Y161.491 E19.35985
G1 X167.451 Y162.182 E19.38287
G1 X167.332 Y162.865 E19.40593
G1 X167.134 Y163.528 E19.42894
G1 X166.862 Y164.165 E19.45198
G1 X166.518 Y164.766 E19.47501
G1 X166.107 Y165.324 E19.49806
G1 X165.635 Y165.83 E19.52108
G1 X165.107 Y166.279 E19.54413
G1 X164.532 Y166.664 E19.56715
G1 X163.915 Y166.979 E19.59019
G1 X163.267 Y167.222 E19.6132
G1 X162.594 Y167.389 E19.63627
G1 X161.908 Y167.477 E19.65927
G1 X161.491 Y167.491 E19.67315
G1 X73.509 Y167.491 E22.59944
G1 X72.818 Y167.451 E22.62246
G1 X72.135 Y167.332 E22.64552
G1 X71.472 Y167.134 E22.66854
G1 X70.835 Y166.862 E22.69157
G1 X70.234 Y166.518 E22.71461
G1 X69.676 Y166.107 E22.73766
G1 X69.17 Y165.635 E22.76067
G1 X68.721 Y165.107 E22.78372
G1 X68.336 Y164.532 E22.80674
G1 X68.021 Y163.915 E22.82978
G1 X67.778 Y163.267 E22.8528
G1 X67.611 Y162.594 E22.87586
G1 X67.523 Y161.908 E22.89886
G1 X67.509 Y161.491 E22.91274
G1 X67.509 Y73.509 E25.83903
G1 X67.549 Y72.818 E25.86206
G1 X67.668 Y72.135 E25.88511
G1 X67.866 Y71.472 E25.90813
G1 X68.138 Y70.835 E25.93117
G1 X68.482 Y70.234 E25.9542
G1 X68.893 Y69.676 E25.97725
G1 X69.365 Y69.17 E26.00026
G0 F2400 X69.758 Y69.351
G1 F1200 X70.28 Y68.933 E26.02251
G1 X70.849 Y68.581 E26.04476
G1 X71.456 Y68.299 E26.06702
G1 X72.092 Y68.091 E26.08928
G1 X72.748 Y67.961 E26.11152
G1 X73.509 Y67.909 E26.13689
G1 X161.491 Y67.91 E29.06318
G1 X162.159 Y67.95 E29.08544
G1 X162.817 Y68.069 E29.10768
G1 X163.457 Y68.266 E29.12995
G1 X164.068 Y68.538 E29.1522
G1 X164.642 Y68.881 E29.17444
G1 X165.172 Y69.29 E29.1967
G1 X165.649 Y69.759 E29.21895
G1 X166.067 Y70.282 E29.24122
G1 X166.419 Y70.85 E29.26345
G1 X166.701 Y71.457 E29.28571
G1 X166.909 Y72.093 E29.30796
G1 X167.039 Y72.749 E29.33021
G1 X167.091 Y73.51 E29.35558
G1 X167.091 Y161.491 E32.28184
G1 X167.051 Y162.159 E32.30409
G1 X166.932 Y162.817 E32.32633
G1 X166.735 Y163.457 E32.34861
G1 X166.463 Y164.068 E32.37085
G1 X166.12 Y164.642 E32.39309
G1 X165.711 Y165.172 E32.41536
G1 X165.242 Y165.649 E32.43761
G1 X164.72 Y166.067 E32.45985
G1 X164.151 Y166.419 E32.4821
G1 X163.544 Y166.701 E32.50436
G1 X162.908 Y166.909 E32.52662
G1 X162.252 Y167.039 E32.54886
G1 X161.491 Y167.091 E32.57423
G1 X73.509 Y167.091 E35.50053
G1 X72.841 Y167.051 E35.52278
G1 X72.183 Y166.932 E35.54502
G1 X71.543 Y166.735 E35.5673
G1 X70.932 Y166.463 E35.58954
G1 X70.358 Y166.12 E35.61178
G1 X69.828 Y165.711 E35.63405
G1 X69.351 Y165.242 E35.6563
G1 X68.933 Y164.72 E35.67854
G1 X68.581 Y164.151 E35.70079
G1 X68.299 Y163.544 E35.72305
G1 X68.091 Y162.908 E35.74531
G1 X67.961 Y162.252 E35.76755
G1 X67.909 Y161.491 E35.79292
G1 X67.909 Y73.509 E38.71922
G1 X67.949 Y72.841 E38.74147
G1 X68.068 Y72.183 E38.76371
G1 X68.265 Y71.543 E38.78599
G1 X68.537 Y70.932 E38.80823
G1 X68.88 Y70.358 E38.83047
G1 X69.289 Y69.828 E38.85274
G1 X69.758 Y69.351 E38.87499
G0 F2400 X69.684 Y69.986
G1 F1200 X70.149 Y69.54 E38.89642
G1 X70.666 Y69.155 E38.91786
G1 X71.227 Y68.836 E38.93932
G1 X71.823 Y68.59 E38.96077
G1 X72.444 Y68.419 E38.98219
G1 X73.082 Y68.327 E39.00363
G1 X73.509 Y68.309 E39.01784
G1 X161.491 Y68.31 E41.94414
G1 X162.134 Y68.35 E41.96556
G1 X162.768 Y68.469 E41.98702
G1 X163.382 Y68.666 E42.00847
G1 X163.967 Y68.937 E42.02991
G1 X164.514 Y69.279 E42.05137
G1 X165.014 Y69.685 E42.07279
G1 X165.46 Y70.151 E42.09424
G1 X165.845 Y70.667 E42.11566
G1 X166.164 Y71.228 E42.13712
G1 X166.41 Y71.824 E42.15857
G1 X166.581 Y72.445 E42.17999
G1 X166.673 Y73.083 E42.20143
G1 X166.691 Y73.51 E42.21564
G1 X166.691 Y161.491 E45.1419
G1 X166.651 Y162.134 E45.16333
G1 X166.532 Y162.768 E45.18479
G1 X166.335 Y163.382 E45.20623
G1 X166.064 Y163.967 E45.22768
G1 X165.722 Y164.514 E45.24913
G1 X165.316 Y165.014 E45.27055
G1 X164.851 Y165.46 E45.29198
G1 X164.334 Y165.845 E45.31342
G1 X163.773 Y166.164 E45.33489
G1 X163.177 Y166.41 E45.35633
G1 X162.556 Y166.581 E45.37776
G1 X161.918 Y166.673 E45.3992
G1 X161.491 Y166.691 E45.41341
G1 X73.509 Y166.691 E48.3397
G1 X72.866 Y166.651 E48.36113
G1 X72.232 Y166.532 E48.38259
G1 X71.618 Y166.335 E48.40403
G1 X71.033 Y166.064 E48.42548
G1 X70.486 Y165.722 E48.44693
G1 X69.986 Y165.316 E48.46836
G1 X69.54 Y164.851 E48.48979
G1 X69.155 Y164.334 E48.51123
G1 X68.836 Y163.773 E48.53269
G1 X68.59 Y163.177 E48.55414
G1 X68.419 Y162.556 E48.57556
G1 X68.327 Y161.918 E48.597
G1 X68.309 Y161.491 E48.61121
G1 X68.309 Y73.509 E51.53751
G1 X68.349 Y72.866 E51.55893
G1 X68.468 Y72.232 E51.58039
G1 X68.665 Y71.618 E51.60184
G1 X68.936 Y71.033 E51.62328
G1 X69.278 Y70.486 E51.64474
G1 X69.684 Y69.986 E51.66616
G1 F1200 E48.66616
G1 F300 Z0.8
;MESH:Dual_StepDownConverter_2020MountPlate.stl
G0 F2400 X81.042 Y94.295 Z0.8
;TYPE:WALL-INNER
G1 F300 Z0.2
G1 F1200 E51.66616
G1 X80.575 Y94.962 E51.69324
G1 X80.291 Y95.71 E51.71985
G1 X80.196 Y96.5 E51.74632
G1 X80.291 Y97.29 E51.77278
G1 X80.574 Y98.036 E51.79932
G1 X81.026 Y98.691 E51.82579
G1 X81.622 Y99.22 E51.85229
G1 X82.329 Y99.59 E51.87883
G1 X83.103 Y99.78 E51.90534
G1 X83.897 Y99.78 E51.93175
G1 X84.671 Y99.59 E51.95826
G1 X85.378 Y99.22 E51.9848
G1 X85.974 Y98.691 E52.0113
G1 X86.426 Y98.036 E52.03777
G1 X86.709 Y97.29 E52.06431
G1 X86.804 Y96.5 E52.09077
G1 X86.709 Y95.71 E52.11724
G1 X86.426 Y94.964 E52.14378
G1 X85.974 Y94.309 E52.17025
G1 X85.378 Y93.78 E52.19675
G1 X84.671 Y93.41 E52.22329
G1 X83.897 Y93.22 E52.2498
G1 X83.103 Y93.22 E52.27621
G1 X82.329 Y93.41 E52.30272
G1 X81.638 Y93.772 E52.32866
G1 X81.042 Y94.295 E52.35503
G0 F2400 X80.968 Y94.229
G0 X98.589 Y77.932
G0 X98.648 Y78.012
G1 F1200 X98.372 Y78.245 E52.36705
G1 X98.125 Y78.506 E52.379
G1 X97.909 Y78.796 E52.39103
G1 X97.729 Y79.108 E52.40301
G1 X97.587 Y79.439 E52.41499
G1 X97.482 Y79.784 E52.42698
G1 X97.42 Y80.141 E52.43903
G1 X97.399 Y80.5 E52.45099
G1 X97.42 Y80.859 E52.46295
G1 X97.482 Y81.216 E52.47501
G1 X97.587 Y81.561 E52.487
G1 X97.729 Y81.892 E52.49898
G1 X97.909 Y82.204 E52.51096
G1 X98.125 Y82.494 E52.52299
G1 X98.372 Y82.755 E52.53494
G1 X98.648 Y82.988 E52.54695
G1 X98.95 Y83.185 E52.55894
G1 X99.272 Y83.348 E52.57095
G1 X99.611 Y83.471 E52.58294
G1 X99.961 Y83.554 E52.59491
G1 X100.319 Y83.596 E52.6069
G1 X100.681 Y83.596 E52.61894
G1 X101.039 Y83.554 E52.63092
G1 X101.389 Y83.471 E52.64289
G1 X101.728 Y83.348 E52.65488
G1 X102.05 Y83.185 E52.66689
G1 X102.352 Y82.988 E52.67888
G1 X102.628 Y82.755 E52.69089
G1 X102.875 Y82.494 E52.70284
G1 X103.091 Y82.204 E52.71487
G1 X103.271 Y81.892 E52.72685
G1 X103.413 Y81.561 E52.73883
G1 X103.518 Y81.216 E52.75083
G1 X103.58 Y80.859 E52.76288
G1 X103.601 Y80.5 E52.77484
G1 X103.58 Y80.141 E52.7868
G1 X103.518 Y79.784 E52.79885
G1 X103.413 Y79.439 E52.81084
G1 X103.271 Y79.108 E52.82282
G1 X103.091 Y78.796 E52.8348
G1 X102.875 Y78.506 E52.84683
G1 X102.628 Y78.245 E52.85878
G1 X102.352 Y78.012 E52.8708
G1 X102.05 Y77.815 E52.88279
G1 X101.728 Y77.652 E52.89479
G1 X101.389 Y77.529 E52.90679
G1 X101.039 Y77.446 E52.91875
G1 X100.681 Y77.404 E52.93074
G1 X100.319 Y77.404 E52.94278
G1 X99.961 Y77.446 E52.95477
G1 X99.611 Y77.529 E52.96673
G1 X99.272 Y77.652 E52.97873
G1 X98.95 Y77.815 E52.99073
G1 X98.648 Y78.012 E53.00272
G0 F2400 X98.589 Y77.932
G0 X97.876 Y78.775
G0 X97.55 Y79.426
G0 X97.381 Y80.137
G0 X97.381 Y80.863
G0 X97.55 Y81.574
G0 X108.433 Y101.6
G0 X108.752 Y102.059
G0 X108.869 Y102.163
G0 X109.643 Y102.746
G0 X109.678 Y102.653
G1 F1200 X110.213 Y102.785 E53.02105
G1 X110.796 Y102.784 E53.04044
G1 X111.33 Y102.649 E53.05876
G1 X111.816 Y102.391 E53.07706
G1 X112.225 Y102.028 E53.09525
G1 X112.536 Y101.577 E53.11347
G1 X112.734 Y101.062 E53.13182
G1 X112.804 Y100.482 E53.15126
G1 X112.734 Y99.935 E53.1696
G1 X112.537 Y99.424 E53.18781
G1 X112.225 Y98.973 E53.20605
G1 X111.817 Y98.609 E53.22424
G1 X111.33 Y98.352 E53.24255
G1 X110.763 Y98.211 E53.26199
G1 X110.211 Y98.214 E53.28035
G1 X109.679 Y98.346 E53.29858
G1 X109.19 Y98.603 E53.31695
G1 X108.769 Y98.98 E53.33575
G1 X108.459 Y99.433 E53.354
G1 X108.263 Y99.946 E53.37227
G1 X108.197 Y100.488 E53.39043
G1 X108.258 Y101.036 E53.40877
G1 X108.468 Y101.582 E53.42822
G1 X108.781 Y102.033 E53.44648
G1 X109.191 Y102.398 E53.46474
G1 X109.678 Y102.653 E53.48302
G0 F2400 X109.643 Y102.746
G0 X103.52 Y114.558
G0 X103.426 Y114.525
G1 F1200 X103.556 Y114.028 E53.50011
G1 X103.6 Y113.519 E53.5171
G1 X103.562 Y113.01 E53.53408
G1 X103.439 Y112.51 E53.55121
G1 X103.237 Y112.041 E53.56819
G1 X102.959 Y111.609 E53.58528
G1 X102.613 Y111.231 E53.60232
G1 X102.211 Y110.913 E53.61937
G1 X101.762 Y110.669 E53.63637
G1 X101.28 Y110.498 E53.65338
G1 X100.774 Y110.412 E53.67045
G1 X100.264 Y110.409 E53.68741
G1 X99.757 Y110.488 E53.70448
G1 X99.271 Y110.654 E53.72156
G1 X98.819 Y110.893 E53.73856
G1 X98.414 Y111.207 E53.75561
G1 X98.064 Y111.58 E53.77262
G1 X97.782 Y112.008 E53.78967
G1 X97.574 Y112.475 E53.80667
G1 X97.444 Y112.972 E53.82376
G1 X97.4 Y113.481 E53.84075
G1 X97.438 Y113.99 E53.85773
G1 X97.561 Y114.49 E53.87485
G1 X97.763 Y114.959 E53.89184
G1 X98.041 Y115.391 E53.90892
G1 X98.387 Y115.769 E53.92597
G1 X98.789 Y116.087 E53.94302
G1 X99.238 Y116.331 E53.96001
G1 X99.72 Y116.502 E53.97702
G1 X100.226 Y116.588 E53.99409
G1 X100.736 Y116.591 E54.01106
G1 X101.243 Y116.512 E54.02812
G1 X101.729 Y116.346 E54.0452
G1 X102.181 Y116.107 E54.06221
G1 X102.586 Y115.793 E54.07925
G1 X102.936 Y115.42 E54.09627
G1 X103.218 Y114.992 E54.11331
G1 X103.426 Y114.525 E54.13032
G0 F2400 X103.52 Y114.558
G0 X101.637 Y118.504
G0 X101.602 Y118.597
G1 F1200 X100.873 Y118.418 E54.15528
G1 X100.127 Y118.418 E54.1801
G1 X99.398 Y118.597 E54.20506
G1 X98.736 Y118.945 E54.22994
G1 X98.176 Y119.441 E54.25482
G1 X97.751 Y120.057 E54.27971
G1 X97.486 Y120.758 E54.30464
G1 X97.396 Y121.5 E54.3295
G1 X97.486 Y122.242 E54.35436
G1 X97.751 Y122.943 E54.37928
G1 X98.176 Y123.559 E54.40417
G1 X98.736 Y124.055 E54.42906
G1 X99.398 Y124.403 E54.45393
G1 X100.127 Y124.582 E54.4789
G1 X100.873 Y124.582 E54.50371
G1 X101.602 Y124.403 E54.52868
G1 X102.264 Y124.055 E54.55355
G1 X102.824 Y123.559 E54.57843
G1 X103.249 Y122.943 E54.60332
G1 X103.514 Y122.242 E54.62825
G1 X103.604 Y121.5 E54.65311
G1 X103.514 Y120.758 E54.67797
G1 X103.249 Y120.057 E54.70289
G1 X102.824 Y119.441 E54.72779
G1 X102.264 Y118.945 E54.75267
G1 X101.602 Y118.597 E54.77754
G0 F2400 X101.637 Y118.504
G0 X102.286 Y118.913
G0 X102.853 Y119.415
G0 X103.201 Y119.919
G0 X108.371 Y131.387
G0 X108.459 Y131.433
G1 F1200 X108.263 Y131.946 E54.79581
G1 X108.197 Y132.488 E54.81397
G1 X108.258 Y133.036 E54.83231
G1 X108.468 Y133.582 E54.85176
G1 X108.781 Y134.033 E54.87002
G1 X109.191 Y134.398 E54.88828
G1 X109.678 Y134.653 E54.90656
G1 X110.213 Y134.785 E54.92489
G1 X110.796 Y134.784 E54.94428
G1 X111.33 Y134.649 E54.9626
G1 X111.816 Y134.391 E54.9809
G1 X112.225 Y134.028 E54.99909
G1 X112.536 Y133.577 E55.01731
G1 X112.734 Y133.062 E55.03566
G1 X112.804 Y132.482 E55.05509
G1 X112.734 Y131.935 E55.07344
G1 X112.537 Y131.424 E55.09165
G1 X112.225 Y130.973 E55.10989
G1 X111.817 Y130.609 E55.12808
G1 X111.33 Y130.352 E55.14639
G1 X110.763 Y130.211 E55.16583
G1 X110.211 Y130.214 E55.18418
G1 X109.679 Y130.346 E55.20242
G1 X109.19 Y130.603 E55.22079
G1 X108.769 Y130.98 E55.23959
G1 X108.459 Y131.433 E55.25784
G0 F2400 X108.371 Y131.387
G0 X108.739 Y130.954
G0 X109.168 Y130.571
G0 X109.665 Y130.309
G0 X110.207 Y130.175
G0 X110.767 Y130.172
G0 X111.344 Y130.315
G0 X115.837 Y133.067
G0 X115.891 Y132.983
G1 F1200 X118.331 Y134.317 E55.35033
G1 X120.918 Y135.286 E55.44222
G1 X121.059 Y135.325 E55.44708
G1 X123.7 Y135.9 E55.53698
G1 X126.472 Y136.099 E55.62941
G1 X129.245 Y135.908 E55.72186
G1 X131.939 Y135.326 E55.81353
G1 X132.081 Y135.287 E55.81843
G1 X134.668 Y134.318 E55.91031
G1 X137.108 Y132.984 E56.0028
G1 X139.332 Y131.317 E56.09525
G1 X141.298 Y129.353 E56.18768
G1 X142.968 Y127.13 E56.28015
G1 X144.293 Y124.712 E56.37186
G1 X144.356 Y124.578 E56.37678
G1 X145.315 Y121.989 E56.46861
G1 X145.904 Y119.273 E56.56104
G1 X146.102 Y116.5 E56.65351
