;FLAVOR:Marlin
;TIME:1264
;Filament used: 1.01624m
;Layer height: 0.2
;Generated with Cura_SteamEngine 3.6.0
M82 ;absolute extrusion mode
; Ender 4 CoreXY, Due RADDS, TMC2130 Custom Start G-code
M104 S200 ; Set Extruder temperature
M140 S60 ; Set Heat Bed temperature
;CoreXY Sensorless Homing Part #1
M914 X1 Y1 ; +TMCFINE+ Setup  StallGuard Sensitivity
G92 X0 Y0
G0 X5 Y5 F6000
G28 X
M190 S60 ; Wait for Heat Bed temperature
M109 S200 ; Wait for Extruder temperature
;End Part #1
; Identifier CALIBR, CALRES and CALMPE, surrounded by #, + or - can be used in post processing
; #CALIBR# M92 X320 Y320 Z400 E440; +CALIBR+ Steps per unit
; #CALIBR#M851 Z-2.1 ; +CALIBR+  Z Probe Offset
; #CALRESO# M201 X500 Y500 Z50 E500 ; +CALRESO+ Max Accelleration
; #CALRESO# M203 X300 Y300 Z2 E90 ; +CALRESO+ Max Feed
; #CALRESO# M205 X3.0 Y3.0 Z0.3 E5.0 ; +CALRESO+ Default Jerk
;CoreXY Sensorless Homing Part #2
G0 X10 F6000
G28 X
G92 X-3
G0 X10 F6000
G28 Y
G0 Y10 F6000
G28 Y
G92 Y-3
G0 Y10 F6000
G28 Z
G0 X0 Y0 F6000
G92 E20
G1 F300 E0
;End Part #2
; #MPE# G29 ; -MPE- Auto Bed Level, uses this if FW values are set correct.
M906 X950 Y950 Z800 E800
M914 X0 Y0 ; +TMCFINE+ Setup  StallGuard Sensitivity
G1 Z5.0 F3000 ; Move Z Axis up little to prevent scratching of Heat Bed
;G1 X15.1 Y20 Z0.3 F5000.0 ; Move to start position
;G1 X15.1 Y200.0 Z0.3 F1500.0 E15 ; Draw the first line
;G1 X15.4 Y200.0 Z0.3 F5000.0 ; Move to side a little
;G1 X15.4 Y20 Z0.3 F1500.0 E30 ; Draw the second line
G92 E0 ; Reset Extruder
G1 E25
G92 E0 ; Reset Extruder
G1 Z5.0 F3000 ; Move Z Axis up little to prevent scratching of Heat Bed
;END Custom Start Code
G92 E0
G1 F1200 E-3
;LAYER_COUNT:101
;LAYER:0
M107
G0 F2400 X102.971 Y102.996 Z0.2
;TYPE:SKIRT
G1 F1200 E0
G1 X103.503 Y102.517 E0.02381
G1 X104.085 Y102.102 E0.04758
G1 X104.71 Y101.753 E0.07139
G1 X105.37 Y101.477 E0.09519
G1 X106.056 Y101.276 E0.11896
G1 X106.761 Y101.153 E0.14277
G1 X107.509 Y101.109 E0.16769
G1 X127.491 Y101.11 E0.83229
G1 X128.205 Y101.15 E0.85608
G1 X128.911 Y101.269 E0.87989
G1 X129.598 Y101.467 E0.90367
G1 X130.259 Y101.74 E0.92745
G1 X130.886 Y102.085 E0.95126
G1 X131.47 Y102.497 E0.97503
G1 X132.005 Y102.973 E0.99885
G1 X132.483 Y103.505 E1.02263
G1 X132.898 Y104.087 E1.04641
G1 X133.247 Y104.711 E1.07019
G1 X133.523 Y105.371 E1.09398
G1 X133.724 Y106.058 E1.11779
G1 X133.847 Y106.762 E1.14156
G1 X133.891 Y107.51 E1.16648
G1 X133.891 Y127.491 E1.83105
G1 X133.851 Y128.205 E1.85484
G1 X133.732 Y128.91 E1.87862
G1 X133.534 Y129.598 E1.90243
G1 X133.261 Y130.259 E1.92621
G1 X132.917 Y130.886 E1.95
G1 X132.504 Y131.47 E1.97379
G1 X132.029 Y132.004 E1.99756
G1 X131.497 Y132.483 E2.02137
G1 X130.915 Y132.898 E2.04515
G1 X130.29 Y133.247 E2.06896
G1 X129.63 Y133.523 E2.09275
G1 X128.944 Y133.724 E2.11653
G1 X128.239 Y133.847 E2.14033
G1 X127.491 Y133.891 E2.16525
G1 X107.509 Y133.891 E2.82985
G1 X106.795 Y133.851 E2.85364
G1 X106.09 Y133.732 E2.87742
G1 X105.402 Y133.534 E2.90123
G1 X104.741 Y133.261 E2.92502
G1 X104.114 Y132.917 E2.9488
G1 X103.53 Y132.504 E2.97259
G1 X102.996 Y132.029 E2.99636
G1 X102.517 Y131.497 E3.02017
G1 X102.102 Y130.915 E3.04395
G1 X101.753 Y130.29 E3.06776
G1 X101.477 Y129.63 E3.09155
G1 X101.276 Y128.944 E3.11533
G1 X101.153 Y128.239 E3.13913
G1 X101.109 Y127.491 E3.16405
G1 X101.109 Y107.509 E3.82866
G1 X101.149 Y106.795 E3.85244
G1 X101.268 Y106.09 E3.87622
G1 X101.466 Y105.402 E3.90003
G1 X101.739 Y104.741 E3.92382
G1 X102.083 Y104.114 E3.9476
G1 X102.496 Y103.53 E3.97139
G1 X102.971 Y102.996 E3.99517
G0 F2400 X103.365 Y103.17
G1 F1200 X103.893 Y102.721 E4.01822
G1 X104.468 Y102.336 E4.04123
G1 X105.085 Y102.021 E4.06428
G1 X105.733 Y101.778 E4.08729
G1 X106.406 Y101.611 E4.11036
G1 X107.092 Y101.523 E4.13336
G1 X107.509 Y101.509 E4.14724
G1 X127.491 Y101.51 E4.81184
G1 X128.183 Y101.55 E4.8349
G1 X128.865 Y101.669 E4.85792
G1 X129.529 Y101.867 E4.88097
G1 X130.165 Y102.139 E4.90397
G1 X130.766 Y102.483 E4.92701
G1 X131.324 Y102.894 E4.95006
G1 X131.83 Y103.366 E4.97307
G1 X132.279 Y103.894 E4.99612
G1 X132.664 Y104.47 E5.01917
G1 X132.98 Y105.086 E5.04219
G1 X133.222 Y105.735 E5.06523
G1 X133.389 Y106.407 E5.08826
G1 X133.477 Y107.094 E5.1113
G1 X133.491 Y107.51 E5.12514
G1 X133.491 Y127.491 E5.78971
G1 X133.451 Y128.182 E5.81273
G1 X133.332 Y128.865 E5.83579
G1 X133.134 Y129.528 E5.85881
G1 X132.862 Y130.165 E5.88184
G1 X132.518 Y130.766 E5.90488
G1 X132.107 Y131.324 E5.92793
G1 X131.635 Y131.83 E5.95094
G1 X131.107 Y132.279 E5.97399
G1 X130.532 Y132.664 E5.99701
G1 X129.915 Y132.979 E6.02005
G1 X129.267 Y133.222 E6.04307
G1 X128.594 Y133.389 E6.06613
G1 X127.908 Y133.477 E6.08914
G1 X127.491 Y133.491 E6.10301
G1 X107.509 Y133.491 E6.76762
G1 X106.818 Y133.451 E6.79064
G1 X106.135 Y133.332 E6.8137
G1 X105.472 Y133.134 E6.83671
G1 X104.835 Y132.862 E6.85975
G1 X104.234 Y132.518 E6.88278
G1 X103.676 Y132.107 E6.90583
G1 X103.17 Y131.635 E6.92885
G1 X102.721 Y131.107 E6.9519
G1 X102.336 Y130.532 E6.97491
G1 X102.021 Y129.915 E6.99796
G1 X101.778 Y129.267 E7.02097
G1 X101.611 Y128.594 E7.04404
G1 X101.523 Y127.908 E7.06704
G1 X101.509 Y127.491 E7.08092
G1 X101.509 Y107.509 E7.74552
G1 X101.549 Y106.818 E7.76854
G1 X101.668 Y106.135 E7.7916
G1 X101.866 Y105.472 E7.81461
G1 X102.138 Y104.835 E7.83765
G1 X102.482 Y104.234 E7.86068
G1 X102.893 Y103.676 E7.88373
G1 X103.365 Y103.17 E7.90675
G0 F2400 X103.758 Y103.351
G1 F1200 X104.28 Y102.933 E7.92899
G1 X104.849 Y102.581 E7.95125
G1 X105.456 Y102.299 E7.97351
G1 X106.092 Y102.091 E7.99576
G1 X106.748 Y101.961 E8.01801
G1 X107.509 Y101.909 E8.04338
G1 X127.491 Y101.91 E8.70798
G1 X128.159 Y101.95 E8.73024
G1 X128.817 Y102.069 E8.75248
G1 X129.457 Y102.266 E8.77475
G1 X130.068 Y102.538 E8.79699
G1 X130.643 Y102.881 E8.81926
G1 X131.172 Y103.29 E8.8415
G1 X131.649 Y103.759 E8.86375
G1 X132.067 Y104.282 E8.88602
G1 X132.419 Y104.85 E8.90825
G1 X132.701 Y105.457 E8.93051
G1 X132.909 Y106.093 E8.95276
G1 X133.039 Y106.749 E8.97501
G1 X133.091 Y107.51 E9.00038
G1 X133.091 Y127.491 E9.66495
G1 X133.051 Y128.159 E9.6872
G1 X132.932 Y128.817 E9.70944
G1 X132.735 Y129.457 E9.73172
G1 X132.463 Y130.068 E9.75396
G1 X132.12 Y130.642 E9.7762
G1 X131.711 Y131.172 E9.79847
G1 X131.242 Y131.649 E9.82072
G1 X130.72 Y132.067 E9.84296
G1 X130.151 Y132.419 E9.86521
G1 X129.544 Y132.701 E9.88747
G1 X128.908 Y132.909 E9.90973
G1 X128.252 Y133.039 E9.93197
G1 X127.491 Y133.091 E9.95734
G1 X107.509 Y133.091 E10.62195
G1 X106.841 Y133.051 E10.6442
G1 X106.183 Y132.932 E10.66645
G1 X105.543 Y132.735 E10.68872
G1 X104.932 Y132.463 E10.71096
G1 X104.358 Y132.12 E10.7332
G1 X103.828 Y131.711 E10.75547
G1 X103.351 Y131.242 E10.77772
G1 X102.933 Y130.72 E10.79996
G1 X102.581 Y130.151 E10.82221
G1 X102.299 Y129.544 E10.84447
G1 X102.091 Y128.908 E10.86673
G1 X101.961 Y128.252 E10.88897
G1 X101.909 Y127.491 E10.91434
G1 X101.909 Y107.509 E11.57895
G1 X101.949 Y106.841 E11.60121
G1 X102.068 Y106.183 E11.62345
G1 X102.265 Y105.543 E11.64572
G1 X102.537 Y104.932 E11.66796
G1 X102.88 Y104.358 E11.6902
G1 X103.289 Y103.828 E11.71247
G1 X103.758 Y103.351 E11.73472
G0 F2400 X103.684 Y103.986
G1 F1200 X104.149 Y103.54 E11.75615
G1 X104.666 Y103.155 E11.77759
G1 X105.227 Y102.836 E11.79905
G1 X105.823 Y102.59 E11.8205
G1 X106.444 Y102.419 E11.84192
G1 X107.082 Y102.327 E11.86336
G1 X107.509 Y102.309 E11.87758
G1 X127.491 Y102.31 E12.54218
G1 X128.135 Y102.35 E12.56364
G1 X128.768 Y102.469 E12.58506
G1 X129.382 Y102.666 E12.60651
G1 X129.967 Y102.937 E12.62795
G1 X130.514 Y103.279 E12.64941
G1 X131.014 Y103.685 E12.67083
G1 X131.46 Y104.151 E12.69229
G1 X131.845 Y104.668 E12.71373
G1 X132.164 Y105.228 E12.73516
G1 X132.41 Y105.824 E12.75661
G1 X132.581 Y106.446 E12.77806
G1 X132.673 Y107.084 E12.7995
G1 X132.691 Y107.51 E12.81368
G1 X132.691 Y127.491 E13.47825
G1 X132.651 Y128.134 E13.49968
G1 X132.532 Y128.768 E13.52114
G1 X132.335 Y129.382 E13.54258
G1 X132.064 Y129.967 E13.56403
G1 X131.722 Y130.514 E13.58548
G1 X131.316 Y131.014 E13.60691
G1 X130.851 Y131.46 E13.62834
G1 X130.334 Y131.845 E13.64977
G1 X129.773 Y132.164 E13.67124
G1 X129.177 Y132.41 E13.69268
G1 X128.556 Y132.581 E13.71411
G1 X127.918 Y132.673 E13.73555
G1 X127.491 Y132.691 E13.74976
G1 X107.509 Y132.691 E14.41437
G1 X106.866 Y132.651 E14.43579
G1 X106.232 Y132.532 E14.45725
G1 X105.618 Y132.335 E14.4787
G1 X105.033 Y132.064 E14.50014
G1 X104.486 Y131.722 E14.5216
G1 X103.986 Y131.316 E14.54302
G1 X103.54 Y130.851 E14.56445
G1 X103.155 Y130.334 E14.58589
G1 X102.836 Y129.773 E14.60735
G1 X102.59 Y129.177 E14.6288
G1 X102.419 Y128.556 E14.65022
G1 X102.327 Y127.918 E14.67166
G1 X102.309 Y127.491 E14.68588
G1 X102.309 Y107.509 E15.35048
G1 X102.349 Y106.866 E15.37191
G1 X102.468 Y106.232 E15.39336
G1 X102.665 Y105.618 E15.41481
G1 X102.936 Y105.033 E15.43625
G1 X103.278 Y104.486 E15.45771
G1 X103.684 Y103.986 E15.47913
G1 F1200 E12.47913
G1 F300 Z0.8
;MESH:xyzCalibration_cube.stl
G0 F2400 X126.9 Y108.1 Z0.8
;TYPE:WALL-INNER
G1 F300 Z0.2
G1 F1200 E15.47913
G1 X126.9 Y126.9 E16.10442
G1 X108.1 Y126.9 E16.72971
G1 X108.1 Y108.1 E17.355
G1 X126.9 Y108.1 E17.98029
G0 F2400 X126.83 Y108.17
G0 X108.17 Y108.17
G0 X107.7 Y107.7
;TYPE:WALL-OUTER
G1 F1200 X127.3 Y107.7 E18.63219
G1 X127.3 Y127.3 E19.28409
G1 X107.7 Y127.3 E19.93599
G1 X107.7 Y107.7 E20.58789
G0 F2400 X107.9 Y107.7
G0 X108.17 Y108.17
G0 X108.49 Y108.49
;TYPE:SKIN
G1 F1200 X126.51 Y108.49 E21.18724
G1 X126.51 Y126.51 E21.78658
G1 X108.49 Y126.51 E22.38593
G1 X108.49 Y108.49 E22.98528
G0 F2400 X126.329 Y108.793
G1 F1200 X126.206 Y108.67 E22.99106
G0 F2400 X125.64 Y108.67
G1 F1200 X126.329 Y109.359 E23.02347
G0 F2400 X126.329 Y109.924
G1 F1200 X125.075 Y108.67 E23.08246
G0 F2400 X124.509 Y108.67
G1 F1200 X126.329 Y110.49 E23.16806
G0 F2400 X126.329 Y111.056
G1 F1200 X123.943 Y108.67 E23.28029
G0 F2400 X123.378 Y108.67
G1 F1200 X126.329 Y111.621 E23.4191
G0 F2400 X126.329 Y112.187
G1 F1200 X122.812 Y108.67 E23.58453
G0 F2400 X122.246 Y108.67
G1 F1200 X126.329 Y112.753 E23.77658
G0 F2400 X126.329 Y113.318
G1 F1200 X121.681 Y108.67 E23.99521
G0 F2400 X121.115 Y108.67
G1 F1200 X126.329 Y113.884 E24.24046
G0 F2400 X126.329 Y114.45
G1 F1200 X120.549 Y108.67 E24.51233
G0 F2400 X119.983 Y108.67
G1 F1200 X126.329 Y115.015 E24.81081
G0 F2400 X126.329 Y115.581
G1 F1200 X119.418 Y108.67 E25.13588
G0 F2400 X118.852 Y108.67
G1 F1200 X126.329 Y116.147 E25.48757
G0 F2400 X126.329 Y116.712
G1 F1200 X118.286 Y108.67 E25.86587
G0 F2400 X117.721 Y108.67
G1 F1200 X126.329 Y117.278 E26.27076
G0 F2400 X126.329 Y117.844
G1 F1200 X117.155 Y108.67 E26.70228
G0 F2400 X116.589 Y108.67
G1 F1200 X126.329 Y118.409 E27.16039
G0 F2400 X126.329 Y118.975
G1 F1200 X116.024 Y108.67 E27.64511
G0 F2400 X115.458 Y108.67
G1 F1200 X126.329 Y119.541 E28.15645
G0 F2400 X126.329 Y120.107
G1 F1200 X114.892 Y108.67 E28.69441
G0 F2400 X114.327 Y108.67
G1 F1200 X126.329 Y120.672 E29.25895
G0 F2400 X126.329 Y121.238
G1 F1200 X113.761 Y108.67 E29.85011
G0 F2400 X113.195 Y108.67
G1 F1200 X126.329 Y121.804 E30.46789
G0 F2400 X126.329 Y122.369
G1 F1200 X112.63 Y108.67 E31.11225
G0 F2400 X112.064 Y108.67
G1 F1200 X126.329 Y122.935 E31.78323
G0 F2400 X126.329 Y123.501
G1 F1200 X111.498 Y108.67 E32.48084
G0 F2400 X110.933 Y108.67
G1 F1200 X126.329 Y124.066 E33.20502
G0 F2400 X126.329 Y124.632
G1 F1200 X110.367 Y108.67 E33.95582
G0 F2400 X109.801 Y108.67
G1 F1200 X126.329 Y125.198 E34.73325
G0 F2400 X126.329 Y125.763
G1 F1200 X109.235 Y108.67 E35.53727
G0 F2400 X108.669 Y108.669
G1 F1200 X126.329 Y126.329 E36.36794
G0 F2400 X125.763 Y126.329
G1 F1200 X108.669 Y109.235 E37.17199
G0 F2400 X108.669 Y109.8
G1 F1200 X125.198 Y126.329 E37.94947
G0 F2400 X124.632 Y126.329
G1 F1200 X108.669 Y110.366 E38.70032
G0 F2400 X108.669 Y110.932
G1 F1200 X124.066 Y126.329 E39.42455
G0 F2400 X123.501 Y126.329
G1 F1200 X108.669 Y111.498 E40.12217
G0 F2400 X108.669 Y112.063
G1 F1200 X122.935 Y126.329 E40.7932
G0 F2400 X122.369 Y126.329
G1 F1200 X108.669 Y112.629 E41.43761
G0 F2400 X108.669 Y113.195
G1 F1200 X121.804 Y126.329 E42.05542
G0 F2400 X121.238 Y126.329
G1 F1200 X108.669 Y113.76 E42.64662
G0 F2400 X108.669 Y114.326
G1 F1200 X120.672 Y126.329 E43.21121
G0 F2400 X120.107 Y126.329
G1 F1200 X108.669 Y114.892 E43.74919
G0 F2400 X108.669 Y115.457
G1 F1200 X119.541 Y126.329 E44.26058
G0 F2400 X118.975 Y126.329
G1 F1200 X108.669 Y116.023 E44.74534
G0 F2400 X108.669 Y116.589
G1 F1200 X118.409 Y126.329 E45.20348
G0 F2400 X117.844 Y126.329
G1 F1200 X108.669 Y117.154 E45.63504
G0 F2400 X108.669 Y117.72
G1 F1200 X117.278 Y126.329 E46.03998
G0 F2400 X116.712 Y126.329
G1 F1200 X108.669 Y118.286 E46.4183
G0 F2400 X108.669 Y118.851
G1 F1200 X116.147 Y126.329 E46.77005
G0 F2400 X115.581 Y126.329
G1 F1200 X108.669 Y119.417 E47.09516
G0 F2400 X108.669 Y119.983
G1 F1200 X115.015 Y126.329 E47.39366
G0 F2400 X114.45 Y126.329
G1 F1200 X108.669 Y120.548 E47.66558
G0 F2400 X108.669 Y121.114
G1 F1200 X113.884 Y126.329 E47.91088
G0 F2400 X113.318 Y126.329
G1 F1200 X108.669 Y121.68 E48.12955
G0 F2400 X108.669 Y122.246
G1 F1200 X112.753 Y126.329 E48.32163
G0 F2400 X112.187 Y126.329
G1 F1200 X108.669 Y122.811 E48.4871
G0 F2400 X108.669 Y123.377
G1 F1200 X111.621 Y126.329 E48.62596
G0 F2400 X111.056 Y126.329
G1 F1200 X108.669 Y123.943 E48.73821
G0 F2400 X108.669 Y124.508
G1 F1200 X110.49 Y126.329 E48.82387
G0 F2400 X109.924 Y126.329
G1 F1200 X108.669 Y125.074 E48.8829
G0 F2400 X108.669 Y125.64
G1 F1200 X109.359 Y126.329 E48.91533
G0 F2400 X108.793 Y126.329
M104 S200
G1 F1200 X108.669 Y126.205 E48.92116
;MESH:NONMESH
G0 F2400 X126.83 Y108.17
G0 X126.9 Y108.1
;TIME_ELAPSED:86.115487
;LAYER:1
M140 S60
G1 F1200 E45.92116
M106 S127.5
;MESH:xyzCalibration_cube.stl
G0 F4800 X126.9 Y108.1 Z0.4
;TYPE:WALL-INNER
G1 F1200 E48.92116
G1 F2400 X126.9 Y126.9 E49.52769
G1 X108.1 Y126.9 E50.13423
G1 X108.1 Y108.1 E50.74076
G1 X126.9 Y108.1 E51.34729
G0 F4800 X126.83 Y108.17
G0 X108.17 Y108.17
G0 X107.7 Y107.7
;TYPE:WALL-OUTER
G1 F1500 X127.3 Y107.7 E51.97963
G1 X127.3 Y127.3 E52.61197
G1 X107.7 Y127.3 E53.24431
G1 X107.7 Y107.7 E53.87666
G0 F4800 X107.9 Y107.7
G0 X108.17 Y108.17
G0 X108.49 Y108.49
;TYPE:SKIN
G1 F1500 X126.51 Y108.49 E54.45802
G1 X126.51 Y126.51 E55.03939
G1 X108.49 Y126.51 E55.62076
G1 X108.49 Y108.49 E56.20212
G0 F4800 X108.67 Y109.118
G1 F1500 X109.119 Y108.669 E56.22261
G0 F4800 X109.684 Y108.669
G1 F1500 X108.67 Y109.684 E56.2689
G0 F4800 X108.67 Y110.249
G1 F1500 X110.25 Y108.669 E56.34099
G0 F4800 X110.816 Y108.669
G1 F1500 X108.67 Y110.815 E56.4389
G0 F4800 X108.67 Y111.381
G1 F1500 X111.382 Y108.669 E56.56264
G0 F4800 X111.947 Y108.669
G1 F1500 X108.67 Y111.947 E56.71218
G0 F4800 X108.67 Y112.512
G1 F1500 X112.513 Y108.669 E56.88752
G0 F4800 X113.079 Y108.669
G1 F1500 X108.67 Y113.078 E57.08868
G0 F4800 X108.67 Y113.644
G1 F1500 X113.644 Y108.669 E57.31565
G0 F4800 X114.21 Y108.669
G1 F1500 X108.67 Y114.209 E57.56841
G0 F4800 X108.67 Y114.775
G1 F1500 X114.776 Y108.669 E57.847
G0 F4800 X115.341 Y108.669
G1 F1500 X108.67 Y115.341 E58.1514
G0 F4800 X108.67 Y115.906
G1 F1500 X115.907 Y108.669 E58.48159
G0 F4800 X116.473 Y108.669
G1 F1500 X108.67 Y116.472 E58.83761
G0 F4800 X108.67 Y117.038
G1 F1500 X117.038 Y108.669 E59.21943
G0 F4800 X117.604 Y108.669
G1 F1500 X108.67 Y117.603 E59.62705
G0 F4800 X108.67 Y118.169
G1 F1500 X118.17 Y108.669 E60.0605
G0 F4800 X118.735 Y108.669
G1 F1500 X108.67 Y118.735 E60.51974
G0 F4800 X108.67 Y119.3
G1 F1500 X119.301 Y108.669 E61.00479
G0 F4800 X119.867 Y108.669
G1 F1500 X108.67 Y119.866 E61.51566
G0 F4800 X108.67 Y120.432
G1 F1500 X120.433 Y108.669 E62.05236
G0 F4800 X120.998 Y108.669
G1 F1500 X108.67 Y120.997 E62.61483
G0 F4800 X108.67 Y121.563
G1 F1500 X121.564 Y108.669 E63.20313
G0 F4800 X122.13 Y108.669
G1 F1500 X108.67 Y122.129 E63.81726
G0 F4800 X108.67 Y122.695
G1 F1500 X122.695 Y108.669 E64.45718
G0 F4800 X123.261 Y108.669
G1 F1500 X108.67 Y123.26 E65.12291
G0 F4800 X108.67 Y123.826
G1 F1500 X123.827 Y108.669 E65.81446
G0 F4800 X124.392 Y108.669
G1 F1500 X108.67 Y124.392 E66.53181
G0 F4800 X108.67 Y124.957
G1 F1500 X124.958 Y108.669 E67.27497
G0 F4800 X125.524 Y108.669
