;FLAVOR:Marlin
;TIME:7958
;Filament used: 6.15642m, 0m
;Layer height: 0.12
;POSTPROCESSED
;Generated with Cura_SteamEngine 3.6.0
T0
M140 S60
M105
M190 S60
M104 S200
M105
M109 S200
M82 ;absolute extrusion mode
; Printer start settings begin
; Calibration section to overwrite Firmware values
; Identifier CALIBR, CALRES and CALMPE, surrounded by #, + or - can be used in post processing
; #CALIBR# M92 X160 Y160 Z3200 ; +CALIBR+ Steps per unit
; #CALRESO# M201 X1000 Y1000 Z50 E1500 E1500 ; +CALRESO+ Max Accelleration
; #CALRESO# M203 X800 Y800 Z2 E90 E90 ; +CALRESO+ Max Feed
; #CALRESO# M205 X3.0 Y3.0 Z0.3 E5.0 ; +CALRESO+ Default Jerk
; #CALMPE#
M951 L32 R139 G32 N75 H300 D10 C0 ; +CALMPE+ Parking kinematic values / needs MPE kinematic to be compiled and activated in firmware
; #CALMPE#
M851 Z-0.55 ; +CALMPE+ System Z Probe Offset
; #CALMPE#
M218 T1 X0.75 Y0.0 Z0.25; +CALMPE+ T1 Nozzle offset values
; #CALMPE#
M206 X-32.00 Y0.00 Z0.00; +CALMPE+ Home Offset
; #REM#  M951 args: L: Left parking,R: Right parking, I: Grab Offset, J: Normal speed, H: High speed, D: Distance trav., C: Compenstion
; #CALMPE#
M951 L32 R140 I32 J4500 H9000 D10 C0 ; MPE Setup
; #CALMPE# M217 Z5.00 Z-Lift
G28 ;Home
G92 E5
G1 F1000 E0
; #MPE# G29 ; -MPE- Auto Bed Level, uses this if FW values are set correct.
; #MPE# G29 X3 Y3 L0 R109 F32 B168 ; +MPE+ Auto Bed Leveling, needed if not poroper defined in Firmware
G92 E-5
G1 E0 F400
G0 Z15.0 F100 ;Move the platform down 15mm
G0 X0 Y0 F9000 ;Move to front
T1
G0 X0 Y0 F9000 ;Move to front
G92 E-30
G1 F200 E0
T0
G0 X0 Y0 F9000 ;Move to front
G92 E-30
G1 F200 E0
; Printer start settings end
G92 E0
G1 F1500 E-6.5
;LAYER_COUNT:250
;LAYER:0
M107
G0 F3600 X19.102 Y74.036 Z0.2
;TYPE:SKIRT
G1 F1500 E0
G1 F1800 X19.702 Y73.881 E0.02061
G1 X20.043 Y73.828 E0.03209
G1 X24.636 Y73.287 E0.18591
G1 X30.037 Y72.432 E0.36778
G1 X32.578 Y71.92 E0.454
G1 X37.85 Y70.621 E0.63459
G1 X43.011 Y69.033 E0.81419
G1 X48.06 Y67.163 E0.99326
G1 X50.5 Y66.141 E1.08125
G1 X56.545 Y63.261 E1.30396
G1 X57.417 Y62.945 E1.33481
G1 X57.721 Y62.867 E1.34525
G1 X58.33 Y62.752 E1.36586
G1 X58.903 Y62.716 E1.38496
G1 X61.895 Y62.709 E1.48447
G1 X62.513 Y62.748 E1.50507
G1 X62.997 Y62.835 E1.52142
G1 X63.597 Y62.975 E1.54191
G1 X64.19 Y63.154 E1.56252
G1 X64.922 Y63.501 E1.58946
G1 X68.459 Y65.561 E1.7256
G1 X73.237 Y68.052 E1.90482
G1 X78.182 Y70.284 E2.08527
G1 X80.589 Y71.251 E2.17154
G1 X85.803 Y73.089 E2.35542
G1 X89.036 Y74.124 E2.46833
G1 X89.612 Y74.35 E2.48891
G1 X90.154 Y74.649 E2.50949
G1 X90.654 Y75.015 E2.5301
G1 X91.054 Y75.391 E2.54836
G1 X91.315 Y75.666 E2.56097
G1 X91.711 Y76.141 E2.58154
G1 X92.043 Y76.664 E2.60214
G1 X92.305 Y77.226 E2.62277
G1 X92.415 Y77.541 E2.63387
G1 X92.569 Y78.035 E2.65108
G1 X92.715 Y78.637 E2.67168
G1 X92.787 Y79.464 E2.69929
G1 X92.788 Y130.556 E4.39862
G1 X92.748 Y131.174 E4.41921
G1 X92.629 Y131.782 E4.43982
G1 X92.439 Y132.352 E4.4598
G1 X92.201 Y132.942 E4.48096
G1 X91.933 Y133.5 E4.50155
G1 X91.595 Y134.019 E4.52215
G1 X91.193 Y134.49 E4.54275
G1 X90.696 Y134.936 E4.56496
G1 X90.395 Y135.17 E4.57764
G1 X89.883 Y135.517 E4.59821
G1 X89.33 Y135.796 E4.61881
G1 X88.911 Y135.952 E4.63368
G1 X83.253 Y137.761 E4.83125
G1 X78.209 Y139.699 E5.01097
G1 X73.317 Y141.903 E5.18943
G1 X68.515 Y144.402 E5.36948
G1 X64.933 Y146.492 E5.50742
G1 X64.379 Y146.769 E5.52802
G1 X63.888 Y146.945 E5.54537
G1 X63.416 Y147.086 E5.56175
G1 X62.812 Y147.225 E5.58236
G1 X62.017 Y147.287 E5.60889
G1 X58.783 Y147.27 E5.71645
G1 X58.165 Y147.227 E5.73705
G1 X57.558 Y147.104 E5.75765
G1 X56.739 Y146.801 E5.7867
G1 X51.652 Y144.371 E5.97421
G1 X46.673 Y142.29 E6.15369
G1 X41.587 Y140.497 E6.33306
G1 X36.415 Y138.996 E6.51217
G1 X31.107 Y137.776 E6.69332
G1 X28.544 Y137.302 E6.78001
G1 X23.164 Y136.538 E6.96075
G1 X20.375 Y136.256 E7.05398
G1 X19.764 Y136.154 E7.07459
G1 X19.168 Y135.972 E7.09531
G1 X18.78 Y135.826 E7.1091
G1 X18.215 Y135.571 E7.12972
G1 X17.688 Y135.246 E7.15031
G1 X17.029 Y134.681 E7.17918
G1 X16.709 Y134.352 E7.19445
G1 X16.307 Y133.881 E7.21504
G1 X15.969 Y133.362 E7.23564
G1 X15.614 Y132.575 E7.26436
G1 X15.488 Y132.211 E7.27717
G1 X15.324 Y131.614 E7.29776
G1 X15.237 Y131.001 E7.31836
G1 X15.224 Y130.642 E7.3303
G1 X15.209 Y79.589 E9.02833
G1 X15.249 Y78.971 E9.04893
G1 X15.355 Y78.413 E9.06782
G1 X15.511 Y77.795 E9.08902
G1 X15.701 Y77.206 E9.10961
G1 X15.965 Y76.646 E9.1302
G1 X16.3 Y76.124 E9.15083
G1 X16.698 Y75.65 E9.17141
G1 X17.051 Y75.317 E9.18755
G1 X17.491 Y74.942 E9.20678
G1 X17.988 Y74.571 E9.22741
G1 X18.371 Y74.356 E9.24202
G0 F1620 X18.528 Y74.268
G0 X19.102 Y74.036
G0 F3600 X19.3 Y74.393
G1 F1500 E9.26863
G1 F1800 X20.09 Y74.225 E9.29549
G1 X24.693 Y73.683 E9.44964
G1 X30.109 Y72.826 E9.63202
G1 X32.661 Y72.311 E9.71861
G1 X37.959 Y71.006 E9.90009
G1 X43.142 Y69.411 E10.08046
G1 X48.213 Y67.533 E10.26032
G1 X50.665 Y66.506 E10.34873
G1 X56.718 Y63.622 E10.57174
G1 X57.516 Y63.332 E10.59998
G1 X57.82 Y63.254 E10.61042
G1 X58.403 Y63.146 E10.63014
G1 X58.904 Y63.116 E10.64683
G1 X61.896 Y63.109 E10.74635
G1 X62.487 Y63.148 E10.76605
G1 X62.906 Y63.224 E10.78021
G1 X63.506 Y63.364 E10.8007
G1 X64.073 Y63.537 E10.82042
G1 X64.721 Y63.847 E10.84431
G1 X68.253 Y65.904 E10.98026
G1 X73.08 Y68.421 E11.16132
G1 X78.008 Y70.645 E11.34114
G1 X80.447 Y71.625 E11.42857
G1 X85.685 Y73.471 E11.61329
G1 X88.914 Y74.505 E11.72606
G1 X89.465 Y74.723 E11.74577
G1 X89.982 Y75.014 E11.7655
G1 X90.455 Y75.371 E11.78521
G1 X90.763 Y75.666 E11.79939
G1 X91.024 Y75.941 E11.812
G1 X91.403 Y76.398 E11.83175
G1 X91.716 Y76.901 E11.85145
G1 X92.034 Y77.66 E11.87882
G1 X92.188 Y78.154 E11.89603
G1 X92.326 Y78.731 E11.91577
G1 X92.387 Y79.464 E11.94023
G1 X92.388 Y130.556 E13.63956
G1 X92.348 Y131.148 E13.65929
G1 X92.229 Y131.728 E13.67899
G1 X92.069 Y132.202 E13.69562
G1 X91.831 Y132.792 E13.71678
G1 X91.572 Y133.326 E13.73652
G1 X91.244 Y133.82 E13.75625
G1 X90.853 Y134.265 E13.77595
G1 X90.451 Y134.62 E13.79379
G1 X90.15 Y134.854 E13.80647
G1 X89.658 Y135.185 E13.82619
G1 X89.126 Y135.448 E13.84593
G1 X88.789 Y135.571 E13.85786
G1 X83.108 Y137.387 E14.05623
G1 X78.073 Y139.322 E14.23564
G1 X73.131 Y141.548 E14.41591
G1 X68.316 Y144.054 E14.59645
G1 X64.731 Y146.146 E14.73451
G1 X64.2 Y146.41 E14.75423
G1 X63.773 Y146.562 E14.7693
G1 X63.301 Y146.703 E14.78569
G1 X62.723 Y146.834 E14.8054
G1 X62.019 Y146.887 E14.82888
G1 X58.785 Y146.87 E14.93645
G1 X58.193 Y146.827 E14.95619
G1 X57.613 Y146.705 E14.9759
G1 X56.911 Y146.44 E15.00086
G1 X51.816 Y144.006 E15.18866
G1 X46.818 Y141.917 E15.36883
G1 X41.71 Y140.117 E15.54897
G1 X36.506 Y138.607 E15.72919
G1 X31.2 Y137.386 E15.91028
G1 X28.601 Y136.906 E15.99819
G1 X23.212 Y136.141 E16.17922
G1 X20.416 Y135.858 E16.27269
G1 X19.831 Y135.758 E16.29243
G1 X19.308 Y135.598 E16.31062
G1 X18.92 Y135.452 E16.32441
G1 X18.381 Y135.206 E16.34412
G1 X17.879 Y134.89 E16.36385
G1 X17.316 Y134.402 E16.38863
G1 X16.996 Y134.073 E16.40389
G1 X16.612 Y133.621 E16.42362
G1 X16.292 Y133.121 E16.44336
G1 X15.992 Y132.444 E16.46799
G1 X15.866 Y132.08 E16.4808
G1 X15.71 Y131.508 E16.50052
G1 X15.624 Y130.642 E16.52947
G1 X15.609 Y79.589 E18.2275
G1 X15.649 Y78.998 E18.2472
G1 X15.743 Y78.511 E18.2637
G1 X15.899 Y77.893 E18.2849
G1 X16.082 Y77.329 E18.30462
G1 X16.34 Y76.795 E18.32434
G1 X16.667 Y76.301 E18.34405
G1 X17.058 Y75.855 E18.36377
G1 X17.311 Y75.621 E18.37524
G1 X17.751 Y75.246 E18.39446
G1 X18.227 Y74.893 E18.41418
G1 X18.565 Y74.707 E18.42701
G0 F1620 X18.746 Y74.607
G0 X19.3 Y74.393
G0 F3600 X19.494 Y74.752
G1 F1500 E18.45361
G1 F1800 X20.137 Y74.622 E18.47543
G1 X24.753 Y74.078 E18.63003
G1 X30.177 Y73.22 E18.81267
G1 X32.745 Y72.703 E18.8998
G1 X38.079 Y71.388 E19.08252
G1 X43.261 Y69.794 E19.26284
G1 X48.358 Y67.906 E19.44363
G1 X50.829 Y66.871 E19.53273
G1 X56.89 Y63.983 E19.75603
G1 X57.616 Y63.72 E19.78172
G1 X57.92 Y63.642 E19.79216
G1 X58.476 Y63.54 E19.81096
G1 X58.905 Y63.516 E19.82525
G1 X61.897 Y63.509 E19.92476
G1 X62.461 Y63.548 E19.94357
G1 X62.815 Y63.614 E19.95554
G1 X63.415 Y63.754 E19.97603
G1 X63.955 Y63.921 E19.99483
G1 X64.519 Y64.193 E20.01566
G1 X68.053 Y66.252 E20.1517
G1 X72.895 Y68.775 E20.33329
G1 X77.875 Y71.023 E20.51502
G1 X80.306 Y72 E20.60216
G1 X85.505 Y73.833 E20.78552
G1 X88.792 Y74.885 E20.9003
G1 X89.316 Y75.095 E20.91908
G1 X89.807 Y75.377 E20.93791
G1 X90.252 Y75.725 E20.9567
G1 X90.473 Y75.941 E20.96698
G1 X90.734 Y76.216 E20.97959
G1 X91.094 Y76.653 E20.99842
G1 X91.388 Y77.136 E21.01723
G1 X91.652 Y77.78 E21.04038
G1 X91.806 Y78.274 E21.05759
G1 X91.935 Y78.824 E21.07638
G1 X91.987 Y79.464 E21.09773
G1 X91.988 Y130.556 E22.79706
G1 X91.948 Y131.12 E22.81587
G1 X91.829 Y131.672 E22.83465
G1 X91.698 Y132.052 E22.84802
G1 X91.46 Y132.642 E22.86918
G1 X91.212 Y133.15 E22.88798
G1 X90.894 Y133.618 E22.9068
G1 X90.514 Y134.037 E22.92561
G1 X90.205 Y134.304 E22.93919
G1 X89.904 Y134.538 E22.95188
G1 X89.434 Y134.853 E22.97069
G1 X88.667 Y135.19 E22.99856
G1 X82.985 Y137.006 E23.19696
G1 X77.908 Y138.957 E23.37786
G1 X72.962 Y141.186 E23.5583
G1 X68.133 Y143.699 E23.73936
G1 X64.53 Y145.801 E23.8781
G1 X64.023 Y146.051 E23.8969
G1 X63.659 Y146.179 E23.90973
G1 X63.187 Y146.32 E23.92612
G1 X62.635 Y146.443 E23.94493
G1 X62.021 Y146.487 E23.9654
G1 X58.787 Y146.47 E24.07297
G1 X58.223 Y146.427 E24.09178
G1 X57.671 Y146.305 E24.11058
G1 X57.084 Y146.079 E24.1315
G1 X51.988 Y143.645 E24.31934
G1 X46.968 Y141.546 E24.50031
G1 X41.827 Y139.734 E24.68161
G1 X36.601 Y138.218 E24.86259
G1 X31.27 Y136.992 E25.04453
G1 X28.679 Y136.513 E25.13217
G1 X23.259 Y135.743 E25.31425
G1 X20.456 Y135.46 E25.40795
G1 X19.899 Y135.363 E25.42676
G1 X19.449 Y135.224 E25.44242
G1 X19.061 Y135.078 E25.45621
G1 X18.548 Y134.842 E25.47499
G1 X18.072 Y134.536 E25.49381
G1 X17.603 Y134.123 E25.5146
G1 X17.283 Y133.794 E25.52986
G1 X16.918 Y133.362 E25.54867
G1 X16.618 Y132.883 E25.56747
G1 X16.37 Y132.313 E25.58815
G1 X16.244 Y131.949 E25.60096
G1 X16.097 Y131.403 E25.61976
G1 X16.024 Y130.642 E25.64519
G1 X16.009 Y79.589 E27.34322
G1 X16.049 Y79.025 E27.36203
G1 X16.131 Y78.609 E27.37613
G1 X16.287 Y77.991 E27.39733
G1 X16.463 Y77.454 E27.41612
G1 X16.714 Y76.947 E27.43494
G1 X17.034 Y76.481 E27.45374
G1 X17.57 Y75.926 E27.4794
G1 X18.01 Y75.551 E27.49863
G1 X18.465 Y75.215 E27.51745
G1 X18.756 Y75.058 E27.52844
G0 F1620 X18.963 Y74.947
G0 X19.494 Y74.752
G0 F3600 X19.685 Y75.115
G1 F1500 E27.55505
G1 F1800 X20.184 Y75.02 E27.57195
G1 X24.784 Y74.478 E27.726
G1 X30.249 Y73.613 E27.91003
G1 X32.844 Y73.09 E27.99808
G1 X38.175 Y71.776 E28.18069
G1 X43.392 Y70.172 E28.36223
G1 X48.512 Y68.275 E28.54383
G1 X50.985 Y67.239 E28.63301
G1 X57.062 Y64.344 E28.8569
G1 X57.715 Y64.107 E28.88
G1 X58.019 Y64.029 E28.89044
G1 X58.547 Y63.935 E28.90828
G1 X58.906 Y63.916 E28.92023
G1 X61.898 Y63.909 E29.01975
G1 X62.432 Y63.948 E29.03756
G1 X62.724 Y64.003 E29.04744
G1 X63.324 Y64.143 E29.06793
G1 X63.836 Y64.304 E29.08578
G1 X64.318 Y64.538 E29.1036
G1 X67.879 Y66.612 E29.24067
G1 X72.717 Y69.134 E29.42213
G1 X77.71 Y71.388 E29.60434
G1 X80.164 Y72.374 E29.6923
G1 X85.387 Y74.215 E29.87649
G1 X88.67 Y75.266 E29.99114
G1 X89.167 Y75.468 E30.00899
G1 X89.629 Y75.74 E30.02682
G1 X90.183 Y76.217 E30.05113
G1 X90.444 Y76.492 E30.06374
G1 X90.783 Y76.907 E30.08157
G1 X91.057 Y77.368 E30.0994
G1 X91.27 Y77.899 E30.11843
G1 X91.424 Y78.393 E30.13564
G1 X91.545 Y78.915 E30.15346
G1 X91.587 Y79.464 E30.17178
G1 X91.588 Y130.556 E31.8711
G1 X91.548 Y131.091 E31.88895
G1 X91.429 Y131.614 E31.90679
G1 X91.327 Y131.903 E31.91698
G1 X91.089 Y132.493 E31.93814
G1 X90.851 Y132.974 E31.95599
G1 X90.546 Y133.414 E31.9738
G1 X90.178 Y133.804 E31.99163
G1 X89.96 Y133.988 E32.00112
G1 X89.659 Y134.222 E32.0138
G1 X89.212 Y134.519 E32.03165
G1 X88.545 Y134.809 E32.05584
G1 X82.856 Y136.628 E32.25449
G1 X77.749 Y138.59 E32.43646
G1 X72.784 Y140.827 E32.61758
G1 X67.933 Y143.351 E32.79946
G1 X64.328 Y145.455 E32.93829
G1 X63.846 Y145.69 E32.95612
G1 X63.544 Y145.795 E32.96676
G1 X63.072 Y145.936 E32.98314
G1 X62.549 Y146.051 E33.00095
G1 X62.023 Y146.087 E33.01849
G1 X58.789 Y146.07 E33.12605
G1 X58.254 Y146.027 E33.14391
G1 X57.732 Y145.906 E33.16173
G1 X57.256 Y145.718 E33.17875
G1 X52.128 Y143.269 E33.36776
G1 X47.12 Y141.175 E33.5483
G1 X41.946 Y139.351 E33.73077
G1 X36.714 Y137.834 E33.91195
G1 X31.363 Y136.603 E34.09458
G1 X28.738 Y136.117 E34.18337
G1 X23.305 Y135.346 E34.36588
G1 X20.496 Y135.062 E34.45979
G1 X19.968 Y134.968 E34.47762
G1 X19.59 Y134.849 E34.4908
G1 X19.202 Y134.703 E34.50459
G1 X18.716 Y134.478 E34.52241
G1 X18.268 Y134.182 E34.54026
G1 X17.889 Y133.844 E34.55715
G1 X17.569 Y133.515 E34.57242
G1 X17.225 Y133.104 E34.59025
G1 X16.946 Y132.646 E34.60808
G1 X16.748 Y132.183 E34.62483
G1 X16.622 Y131.819 E34.63764
G1 X16.485 Y131.3 E34.6555
G1 X16.424 Y130.642 E34.67748
G1 X16.409 Y79.589 E36.3755
G1 X16.449 Y79.054 E36.39335
G1 X16.518 Y78.707 E36.40512
G1 X16.674 Y78.089 E36.42632
G1 X16.844 Y77.58 E36.44416
G1 X17.087 Y77.102 E36.462
G1 X17.399 Y76.666 E36.47983
G1 X17.83 Y76.23 E36.50022
G1 X18.27 Y75.855 E36.51945
G1 X18.703 Y75.539 E36.53728
G1 X18.945 Y75.412 E36.54637
G0 F1620 X19.178 Y75.29
G0 X19.685 Y75.115
G0 F3600 X19.39 Y75.635
G1 F1500 E36.57298
G1 F1800 X19.871 Y75.48 E36.58979
G1 X20.231 Y75.417 E36.60194
G1 X24.844 Y74.874 E36.75643
G1 X30.317 Y74.007 E36.94073
G1 X32.928 Y73.482 E37.02931
G1 X38.279 Y72.163 E37.21261
G1 X43.527 Y70.548 E37.39524
G1 X48.657 Y68.648 E37.57719
G1 X51.149 Y67.604 E37.66706
G1 X57.234 Y64.705 E37.89124
G1 X57.815 Y64.494 E37.9118
G1 X58.119 Y64.416 E37.92224
G1 X58.617 Y64.33 E37.93905
G1 X58.907 Y64.316 E37.9487
G1 X61.899 Y64.309 E38.04822
G1 X62.633 Y64.393 E38.07279
G1 X63.233 Y64.533 E38.09328
G1 X63.715 Y64.686 E38.1101
G1 X64.117 Y64.884 E38.12501
G1 X67.673 Y66.955 E38.26187
G1 X72.546 Y69.495 E38.44465
G1 X77.565 Y71.761 E38.62781
G1 X80.016 Y72.746 E38.71566
G1 X80.017 Y72.746 E38.7157
G1 X85.269 Y74.597 E38.90091
G1 X88.548 Y75.647 E39.01542
G1 X89.015 Y75.839 E39.03222
G1 X89.447 Y76.102 E39.04904
G1 X89.893 Y76.492 E39.06875
G1 X90.154 Y76.767 E39.08136
G1 X90.472 Y77.16 E39.09817
G1 X90.724 Y77.598 E39.11498
G1 X90.888 Y78.018 E39.12997
G1 X91.042 Y78.512 E39.14718
G1 X91.154 Y79.005 E39.164
G1 X91.187 Y79.464 E39.1793
G1 X91.188 Y130.556 E40.87863
G1 X91.148 Y131.06 E40.89545
G1 X90.956 Y131.753 E40.91937
G1 X90.718 Y132.343 E40.94053
G1 X90.492 Y132.796 E40.95736
G1 X90.198 Y133.207 E40.97417
G1 X89.714 Y133.672 E40.99649
G1 X89.413 Y133.906 E41.00917
G1 X88.991 Y134.184 E41.02598
G1 X88.423 Y134.428 E41.04654
G1 X82.718 Y136.252 E41.24575
G1 X77.607 Y138.215 E41.42785
G1 X72.613 Y140.465 E41.61003
G1 X67.743 Y143 E41.79264
G1 X64.127 Y145.11 E41.93189
G1 X63.671 Y145.329 E41.94871
G1 X63.43 Y145.412 E41.95719
G1 X62.958 Y145.553 E41.97358
G1 X62.464 Y145.659 E41.99038
G1 X62.025 Y145.687 E42.00501
G1 X58.791 Y145.67 E42.11258
G1 X58.287 Y145.627 E42.1294
G1 X57.797 Y145.506 E42.14619
G1 X57.429 Y145.357 E42.15939
G1 X52.3 Y142.907 E42.34845
G1 X47.265 Y140.802 E42.52996
G1 X42.069 Y138.971 E42.71319
G1 X36.823 Y137.449 E42.89487
G1 X31.434 Y136.209 E43.07879
G1 X28.798 Y135.722 E43.16795
G1 X23.352 Y134.949 E43.3509
G1 X20.536 Y134.664 E43.44504
G1 X20.039 Y134.573 E43.46185
G1 X19.731 Y134.475 E43.4726
G1 X19.343 Y134.329 E43.48638
G1 X18.885 Y134.114 E43.50321
G1 X18.467 Y133.83 E43.52002
G1 X18.176 Y133.565 E43.53311
G1 X17.856 Y133.236 E43.54838
G1 X17.533 Y132.847 E43.56519
G1 X17.276 Y132.412 E43.582
G1 X17.126 Y132.052 E43.59497
G1 X17 Y131.688 E43.60778
G1 X16.873 Y131.198 E43.62462
G1 X16.824 Y130.642 E43.64318
G1 X16.809 Y79.589 E45.34121
G1 X16.849 Y79.085 E45.35803
G1 X16.906 Y78.805 E45.36753
G1 X17.062 Y78.187 E45.38873
G1 X17.224 Y77.708 E45.40555
G1 X17.46 Y77.261 E45.42236
G1 X17.763 Y76.856 E45.43918
G1 X18.089 Y76.535 E45.4544
G1 X18.529 Y76.16 E45.47363
G1 X18.7 Y76.036 E45.48065
G0 F1620 X18.939 Y75.863
G0 X19.39 Y75.635
G1 F1500 E38.98065
;MESH:Z_Motor_Mount_1.0.stl
G0 F3600 X20.332 Y77.98
G0 X20.874 Y79.142
G0 X25.695 Y87.057
G0 X25.687 Y87.156
;TYPE:WALL-INNER
