;FLAVOR:UltiGCode
;TIME:1983
;MATERIAL:3221
;MATERIAL2:1509
;NOZZLE_DIAMETER:0.400000
;NOZZLE_DIAMETER2:0.400000

;Layer count: 100
;LAYER:0
M107
G0 F9000 X49.704 Y109.737 Z0.200
;TYPE:SKIRT
G1 F1200 X50.973 Y109.311 E0.10709
G1 X52.435 Y108.991 E0.22682
G1 X53.741 Y108.847 E0.33193
G1 X55.257 Y108.847 E0.45321
G1 X56.564 Y108.990 E0.55839
G1 X58.027 Y109.311 E0.67822
G1 X59.295 Y109.735 E0.78518
G1 X60.662 Y110.360 E0.90543
G1 X61.817 Y111.056 E1.01331
G1 X63.007 Y111.945 E1.13214
G1 X63.988 Y112.877 E1.24039
G1 X64.959 Y113.997 E1.35897
G1 X65.702 Y115.098 E1.46523
G1 X66.232 Y115.098 E1.50763
G1 X67.368 Y119.179 E1.84653
G1 X67.596 Y120.566 E1.95898
G1 X67.684 Y122.001 E2.07399
G1 X67.595 Y123.428 E2.18837
G1 X67.389 Y124.694 E2.29099
G1 X67.024 Y126.062 E2.40425
G1 X66.506 Y127.396 E2.51874
G1 X65.813 Y128.738 E2.63957
G1 X64.970 Y129.985 E2.75998
G1 X64.099 Y131.014 E2.86784
G1 X63.022 Y132.040 E2.98683
G1 X61.944 Y132.858 E3.09509
G1 X60.674 Y133.633 E3.21412
G1 X59.296 Y134.262 E3.33530
G1 X58.027 Y134.688 E3.44238
G1 X56.565 Y135.008 E3.56211
G1 X55.257 Y135.152 E3.66739
G1 X53.744 Y135.151 E3.78843
G1 X52.439 Y135.010 E3.89343
G1 X50.973 Y134.688 E4.01351
G1 X49.705 Y134.264 E4.12047
G1 X48.335 Y133.637 E4.24100
G1 X47.183 Y132.943 E4.34859
G1 X45.993 Y132.054 E4.46743
G1 X45.012 Y131.122 E4.57568
G1 X44.041 Y130.002 E4.69426
G1 X43.293 Y128.894 E4.80121
G1 X42.763 Y128.894 E4.84361
G1 X41.653 Y124.893 E5.17578
G1 X41.401 Y123.425 E5.29494
G1 X41.331 Y122.121 E5.39941
G1 X41.397 Y120.608 E5.52056
G1 X41.611 Y119.305 E5.62620
G1 X42.002 Y117.841 E5.74742
G1 X42.500 Y116.597 E5.85462
G1 X43.185 Y115.263 E5.97459
G1 X44.030 Y114.014 E6.09523
G1 X44.901 Y112.985 E6.20308
G1 X45.978 Y111.959 E6.32208
G1 X47.056 Y111.141 E6.43034
G1 X48.326 Y110.366 E6.54936
G1 X49.704 Y109.737 E6.67054
G0 F9000 X49.851 Y110.109
G1 F1200 X51.079 Y109.697 E6.77416
G1 X52.500 Y109.387 E6.89052
G1 X53.763 Y109.247 E6.99218
G1 X55.235 Y109.247 E7.10994
G1 X56.499 Y109.385 E7.21166
G1 X57.921 Y109.697 E7.32812
G1 X59.148 Y110.108 E7.43164
G1 X60.475 Y110.715 E7.54838
G1 X61.594 Y111.388 E7.65285
G1 X62.748 Y112.252 E7.76817
G1 X63.698 Y113.153 E7.87292
G1 X64.641 Y114.240 E7.98804
G1 X65.455 Y115.448 E8.10457
G1 X65.482 Y115.498 E8.10912
G1 X65.928 Y115.498 E8.14480
G1 X66.976 Y119.265 E8.45761
G1 X67.198 Y120.611 E8.56674
G1 X67.283 Y122.001 E8.67815
G1 X67.197 Y123.383 E8.78892
G1 X66.998 Y124.610 E8.88836
G1 X66.643 Y125.937 E8.99826
G1 X66.141 Y127.231 E9.10929
G1 X65.469 Y128.534 E9.22658
G1 X64.651 Y129.743 E9.34336
G1 X63.807 Y130.739 E9.44780
G1 X62.763 Y131.735 E9.56323
G1 X61.719 Y132.527 E9.66807
G1 X60.487 Y133.279 E9.78353
G1 X59.149 Y133.890 E9.90121
G1 X57.921 Y134.302 E10.00483
G1 X56.500 Y134.612 E10.12118
G1 X55.236 Y134.752 E10.22292
G1 X53.766 Y134.751 E10.34052
G1 X52.503 Y134.614 E10.44215
G1 X51.079 Y134.302 E10.55878
G1 X49.852 Y133.891 E10.66230
G1 X48.522 Y133.283 E10.77929
G1 X47.406 Y132.611 E10.88350
G1 X46.252 Y131.747 E10.99883
G1 X45.302 Y130.846 E11.10358
G1 X44.359 Y129.759 E11.21870
G1 X43.545 Y128.550 E11.33530
G1 X43.515 Y128.494 E11.34038
G1 X43.067 Y128.494 E11.37622
G1 X42.043 Y124.805 E11.68250
G1 X41.799 Y123.381 E11.79808
G1 X41.732 Y122.119 E11.89918
G1 X41.796 Y120.649 E12.01689
G1 X42.002 Y119.390 E12.11895
G1 X42.383 Y117.968 E12.23673
G1 X42.864 Y116.763 E12.34052
G1 X43.530 Y115.468 E12.45702
G1 X44.349 Y114.256 E12.57404
G1 X45.193 Y113.260 E12.67848
G1 X46.237 Y112.264 E12.79391
G1 X47.281 Y111.472 E12.89875
G1 X48.513 Y110.720 E13.01422
G1 X49.851 Y110.109 E13.13189
G0 F9000 X49.998 Y110.482
G1 F1200 X51.186 Y110.083 E13.23215
G1 X52.564 Y109.782 E13.34499
G1 X53.785 Y109.647 E13.44326
G1 X55.214 Y109.647 E13.55758
G1 X56.434 Y109.781 E13.65577
G1 X57.814 Y110.083 E13.76878
G1 X59.001 Y110.480 E13.86891
G1 X60.288 Y111.069 E13.98214
G1 X61.370 Y111.720 E14.08316
G1 X62.490 Y112.558 E14.19507
G1 X63.409 Y113.430 E14.29641
G1 X64.323 Y114.484 E14.40802
G1 X65.112 Y115.655 E14.52098
G1 X65.241 Y115.898 E14.54299
G1 X65.624 Y115.898 E14.57363
G1 X66.585 Y119.352 E14.86045
G1 X66.800 Y120.656 E14.96618
G1 X66.882 Y122.001 E15.07398
G1 X66.799 Y123.339 E15.18122
G1 X66.606 Y124.526 E15.27743
G1 X66.262 Y125.813 E15.38400
G1 X65.776 Y127.067 E15.49159
G1 X65.124 Y128.330 E15.60530
G1 X64.332 Y129.501 E15.71840
G1 X63.516 Y130.464 E15.81938
G1 X62.503 Y131.430 E15.93136
G1 X61.493 Y132.196 E16.03277
G1 X60.299 Y132.925 E16.14468
G1 X59.002 Y133.517 E16.25874
G1 X57.814 Y133.916 E16.35900
G1 X56.436 Y134.217 E16.47184
G1 X55.214 Y134.352 E16.57019
G1 X53.788 Y134.351 E16.68427
G1 X52.568 Y134.219 E16.78244
G1 X51.186 Y133.916 E16.89563
G1 X49.999 Y133.519 E16.99576
G1 X48.709 Y132.929 E17.10924
G1 X47.630 Y132.279 E17.21001
G1 X46.510 Y131.441 E17.32192
G1 X45.591 Y130.569 E17.42327
G1 X44.677 Y129.515 E17.53487
G1 X43.888 Y128.344 E17.64783
G1 X43.755 Y128.094 E17.67049
G1 X43.371 Y128.094 E17.70121
G1 X42.434 Y124.718 E17.98150
G1 X42.198 Y123.336 E18.09366
G1 X42.132 Y122.117 E18.19132
G1 X42.194 Y120.690 E18.30559
G1 X42.394 Y119.474 E18.40418
G1 X42.763 Y118.094 E18.51845
G1 X43.229 Y116.929 E18.61883
G1 X43.874 Y115.672 E18.73186
G1 X44.668 Y114.498 E18.84524
G1 X45.484 Y113.535 E18.94622
G1 X46.497 Y112.569 E19.05820
G1 X47.507 Y111.803 E19.15961
G1 X48.701 Y111.074 E19.27153
G1 X49.998 Y110.482 E19.38559
G10
G1 Z1.000
G0 F9000 X51.395 Y114.021
;TYPE:WALL-INNER
G1 Z0.200
G11
G1 F1200 X52.202 Y113.750 E19.45369
G1 X53.182 Y113.536 E19.53394
G1 X53.991 Y113.447 E19.59905
G1 X55.011 Y113.447 E19.68065
G1 X55.816 Y113.535 E19.74543
G1 X56.798 Y113.750 E19.82585
G1 X57.604 Y114.020 E19.89385
G1 X58.516 Y114.437 E19.97408
G1 X59.250 Y114.879 E20.04262
G1 X60.033 Y115.465 E20.12086
G1 X60.660 Y116.060 E20.19001
G1 X61.303 Y116.802 E20.26856
G1 X61.846 Y117.607 E20.34624
G1 X62.253 Y118.371 E20.41549
G1 X62.627 Y119.302 E20.49576
G1 X62.869 Y120.172 E20.56800
G1 X63.019 Y121.081 E20.64170
G1 X63.075 Y121.998 E20.71520
G1 X63.018 Y122.919 E20.78902
G1 X62.887 Y123.723 E20.85419
G1 X62.643 Y124.638 E20.92995
G1 X62.307 Y125.502 E21.00411
G1 X61.851 Y126.386 E21.08369
G1 X61.301 Y127.199 E21.16221
G1 X60.744 Y127.857 E21.23118
G1 X60.038 Y128.530 E21.30921
G1 X59.349 Y129.053 E21.37841
G1 X58.513 Y129.563 E21.45675
G1 X57.605 Y129.978 E21.53662
G1 X56.798 Y130.249 E21.60472
G1 X55.818 Y130.463 E21.68497
G1 X55.009 Y130.552 E21.75008
G1 X54.000 Y130.551 E21.83080
G1 X53.174 Y130.462 E21.89726
G1 X52.202 Y130.249 E21.97687
G1 X51.400 Y129.980 E22.04454
G1 X50.484 Y129.561 E22.12512
G1 X49.746 Y129.117 E22.19403
G1 X48.967 Y128.534 E22.27187
G1 X48.340 Y127.939 E22.34102
G1 X47.697 Y127.197 E22.41956
G1 X47.154 Y126.392 E22.49724
G1 X46.746 Y125.626 E22.56668
G1 X46.369 Y124.688 E22.64755
G1 X46.147 Y123.885 E22.71420
G1 X45.980 Y122.915 E22.79294
G1 X45.936 Y122.095 E22.85864
G1 X45.980 Y121.085 E22.93951
G1 X46.112 Y120.279 E23.00485
G1 X46.377 Y119.292 E23.08661
G1 X46.690 Y118.508 E23.15414
G1 X47.151 Y117.609 E23.23497
G1 X47.699 Y116.800 E23.31314
G1 X48.256 Y116.142 E23.38210
G1 X48.962 Y115.469 E23.46013
G1 X49.651 Y114.946 E23.52934
G1 X50.487 Y114.436 E23.60768
G1 X51.395 Y114.021 E23.68755
G0 F9000 X54.143 Y117.727
G1 F1200 X52.319 Y118.899 E23.86099
G1 X52.106 Y119.067 E23.88269
G1 X51.994 Y119.220 E23.89786
G1 X51.923 Y119.372 E23.91128
G1 X51.869 Y119.643 E23.93339
G1 X51.864 Y119.957 E23.95851
G1 X51.886 Y120.394 E23.99352
G1 X51.984 Y120.685 E24.01808
G1 X52.124 Y120.865 E24.03633
G1 X52.331 Y120.987 E24.05555
G1 X52.519 Y121.034 E24.07105
G1 X52.742 Y121.013 E24.08897
G1 X53.075 Y120.890 E24.11737
G1 X53.564 Y120.619 E24.16209
G1 X53.564 Y124.254 E24.45289
G1 X52.666 Y124.254 E24.52473
G1 X52.472 Y124.265 E24.54028
G1 X52.226 Y124.388 E24.56228
G1 X52.080 Y124.544 E24.57938
G1 X51.977 Y124.717 E24.59548
G1 X51.899 Y125.029 E24.62121
G1 X51.882 Y125.406 E24.65140
G1 X51.904 Y125.772 E24.68073
G1 X51.986 Y126.072 E24.70561
G1 X52.103 Y126.268 E24.72388
G1 X52.214 Y126.379 E24.73643
G1 X52.371 Y126.478 E24.75128
G1 X52.548 Y126.522 E24.76587
G1 X56.861 Y126.525 E25.11091
G1 X57.071 Y126.518 E25.12772
G1 X57.329 Y126.411 E25.15007
G1 X57.489 Y126.239 E25.16886
G1 X57.585 Y126.073 E25.18420
G1 X57.665 Y125.767 E25.20950
G1 X57.690 Y125.386 E25.24005
G1 X57.654 Y124.931 E25.27656
G1 X57.580 Y124.699 E25.29605
G1 X57.455 Y124.493 E25.31532
G1 X57.310 Y124.370 E25.33053
G1 X57.080 Y124.258 E25.35100
G1 X56.184 Y124.256 E25.42268
G1 X56.183 Y118.268 E25.90172
G1 X56.141 Y118.099 E25.91565
G1 X55.984 Y117.843 E25.93967
G1 X55.682 Y117.710 E25.96607
G1 X55.371 Y117.668 E25.99118
G1 X54.946 Y117.655 E26.02520
G1 X54.395 Y117.673 E26.06930
G1 X54.143 Y117.727 E26.08992
G10
G1 Z1.000
G0 F9000 X53.964 Y119.940
;TYPE:WALL-OUTER
G1 Z0.200
G11
G1 F1200 X53.964 Y124.654 E26.46704
G1 X52.677 Y124.654 E26.57000
G1 X52.577 Y124.660 E26.57801
G1 X52.469 Y124.713 E26.58764
G1 X52.402 Y124.785 E26.59550
G1 X52.351 Y124.871 E26.60350
G1 X52.297 Y125.087 E26.62131
G1 X52.283 Y125.403 E26.64662
G1 X52.301 Y125.707 E26.67098
G1 X52.357 Y125.913 E26.68806
G1 X52.421 Y126.020 E26.69803
G1 X52.465 Y126.064 E26.70301
G1 X52.530 Y126.105 E26.70916
G1 X52.597 Y126.122 E26.71469
G1 X56.854 Y126.125 E27.05525
G1 X56.985 Y126.121 E27.06574
G1 X57.095 Y126.075 E27.07527
G1 X57.165 Y126.000 E27.08348
G1 X57.212 Y125.919 E27.09097
G1 X57.268 Y125.703 E27.10882
G1 X57.289 Y125.389 E27.13400
G1 X57.259 Y125.008 E27.16457
G1 X57.213 Y124.866 E27.17652
G1 X57.147 Y124.756 E27.18678
G1 X57.090 Y124.708 E27.19274
G1 X56.987 Y124.658 E27.20190
G1 X55.784 Y124.655 E27.29814
G1 X55.783 Y118.317 E27.80518
G1 X55.768 Y118.256 E27.81020
G1 X55.708 Y118.158 E27.81940
G1 X55.573 Y118.099 E27.83118
G1 X55.338 Y118.067 E27.85016
G1 X54.946 Y118.055 E27.88153
G1 X54.444 Y118.072 E27.92172
G1 X54.298 Y118.103 E27.93366
G1 X52.551 Y119.226 E28.09980
G1 X52.397 Y119.347 E28.11547
G1 X52.340 Y119.425 E28.12320
G1 X52.306 Y119.498 E28.12964
G1 X52.268 Y119.686 E28.14498
G1 X52.264 Y119.950 E28.16611
G1 X52.283 Y120.319 E28.19566
G1 X52.341 Y120.493 E28.21034
G1 X52.393 Y120.559 E28.21706
G1 X52.484 Y120.613 E28.22553
G1 X52.550 Y120.629 E28.23096
G1 X52.653 Y120.620 E28.23923
G1 X52.908 Y120.525 E28.26100
G1 X53.964 Y119.940 E28.35758
G10
G1 Z1.000
G0 F9000 X52.099 Y113.363
G1 Z0.200
G11
G1 F1200 X53.110 Y113.142 E28.44037
G1 X53.974 Y113.047 E28.50990
G1 X55.026 Y113.047 E28.59406
G1 X55.889 Y113.141 E28.66351
G1 X56.900 Y113.363 E28.74632
G1 X57.754 Y113.649 E28.81837
G1 X58.703 Y114.083 E28.90185
G1 X59.467 Y114.543 E28.97319
G1 X60.293 Y115.160 E29.05567
G1 X60.950 Y115.784 E29.12816
G1 X61.617 Y116.554 E29.20966
G1 X62.193 Y117.408 E29.29207
G1 X62.615 Y118.201 E29.36393
G1 X63.004 Y119.166 E29.44717
G1 X63.262 Y120.092 E29.52407
G1 X63.416 Y121.026 E29.59980
G1 X63.475 Y121.999 E29.67778
G1 X63.415 Y122.967 E29.75537
G1 X63.278 Y123.810 E29.82369
G1 X63.026 Y124.756 E29.90201
G1 X62.676 Y125.658 E29.97941
G1 X62.194 Y126.592 E30.06350
G1 X61.618 Y127.445 E30.14584
G1 X61.038 Y128.128 E30.21752
G1 X60.293 Y128.840 E30.29996
G1 X59.578 Y129.382 E30.37174
G1 X58.700 Y129.917 E30.45399
G1 X57.755 Y130.349 E30.53712
G1 X56.901 Y130.636 E30.60919
G1 X55.890 Y130.857 E30.69198
G1 X55.026 Y130.952 E30.76152
G1 X53.975 Y130.951 E30.84560
G1 X53.111 Y130.858 E30.91512
G1 X52.100 Y130.636 E30.99793
G1 X51.246 Y130.350 E31.06997
G1 X50.295 Y129.915 E31.15364
G1 X49.533 Y129.456 E31.22480
G1 X48.707 Y128.839 E31.30728
G1 X48.050 Y128.215 E31.37977
G1 X47.383 Y127.445 E31.46127
G1 X46.807 Y126.591 E31.54367
G1 X46.384 Y125.796 E31.61572
G1 X45.992 Y124.824 E31.69956
G1 X45.756 Y123.972 E31.77029
G1 X45.583 Y122.960 E31.85242
G1 X45.536 Y122.099 E31.92141
G1 X45.583 Y121.035 E32.00661
G1 X45.721 Y120.193 E32.07487
G1 X45.994 Y119.171 E32.15949
G1 X46.327 Y118.337 E32.23134
G1 X46.804 Y117.410 E32.31474
G1 X47.382 Y116.554 E32.39737
G1 X47.962 Y115.871 E32.46905
G1 X48.707 Y115.159 E32.55149
G1 X49.422 Y114.617 E32.62327
G1 X50.300 Y114.082 E32.70552
G1 X51.245 Y113.650 E32.78865
G1 X52.099 Y113.363 E32.86072
G0 F9000 X52.458 Y113.835
;TYPE:SKIN
G1 F1200 X62.659 Y124.036 E34.01483
G0 F9000 X62.540 Y124.482
G1 F1200 X56.322 Y118.265 E34.71826
G0 F9000 X56.322 Y118.830
G1 F1200 X62.392 Y124.900 E35.40501
G0 F9000 X62.233 Y125.307
G1 F1200 X56.322 Y119.396 E36.07376
G0 F9000 X56.322 Y119.962
G1 F1200 X62.051 Y125.691 E36.72192
G0 F9000 X61.859 Y126.064
G1 F1200 X56.322 Y120.527 E37.34836
G0 F9000 X56.322 Y121.093
G1 F1200 X61.654 Y126.425 E37.95161
G0 F9000 X61.427 Y126.763
G1 F1200 X56.323 Y121.659 E38.52906
G0 F9000 X56.323 Y122.225
G1 F1200 X61.198 Y127.101 E39.08066
G0 F9000 X60.940 Y127.408
G1 F1200 X56.323 Y122.791 E39.60301
G0 F9000 X56.323 Y123.356
G1 F1200 X57.082 Y124.116 E39.68894
G0 F9000 X56.516 Y124.115
G1 F1200 X56.323 Y123.922 E39.71078
G0 F9000 X57.756 Y124.790
G1 F1200 X60.681 Y127.714 E40.04165
G0 F9000 X60.395 Y127.994
G1 F1200 X57.827 Y125.427 E40.33213
G0 F9000 X57.766 Y125.931
G1 F1200 X60.106 Y128.271 E40.59687
G0 F9000 X62.769 Y123.580
G1 F1200 X52.923 Y113.734 E41.71081
G0 F9000 X53.406 Y113.651
G1 F1200 X62.848 Y123.093 E42.77905
G0 F9000 X62.898 Y122.578
G1 F1200 X53.916 Y113.595 E43.79531
G0 F9000 X54.471 Y113.586
G1 F1200 X62.931 Y122.045 E44.75239
G0 F9000 X62.901 Y121.449
G1 F1200 X55.042 Y113.591 E45.64148
G0 F9000 X55.677 Y113.660
G1 F1200 X62.834 Y120.817 E46.45120
G0 F9000 X62.712 Y120.129
G1 F1200 X56.384 Y113.801 E47.16713
G0 F9000 X57.171 Y114.023
G1 F1200 X62.493 Y119.344 E47.76919
G0 F9000 X62.101 Y118.387
G1 F1200 X58.127 Y114.413 E48.21880
G0 F9000 X59.578 Y115.298
G1 F1200 X61.243 Y116.963 E48.40717
G0 F9000 X55.616 Y117.558
G1 F1200 X52.016 Y113.959 E48.81441
G0 F9000 X51.594 Y114.102
G1 F1200 X55.007 Y117.515 E49.20055
G0 F9000 X54.456 Y117.530
G1 F1200 X51.193 Y114.267 E49.56971
G0 F9000 X50.805 Y114.445
G1 F1200 X54.006 Y117.646 E49.93186
G0 F9000 X53.662 Y117.867
G1 F1200 X50.430 Y114.635 E50.29752
G0 F9000 X50.078 Y114.849
G1 F1200 X53.317 Y118.088 E50.66397
G0 F9000 X52.973 Y118.310
G1 F1200 X49.726 Y115.063 E51.03133
G0 F9000 X49.404 Y115.307
G1 F1200 X52.629 Y118.531 E51.39614
G0 F9000 X52.284 Y118.752
G1 F1200 X49.083 Y115.551 E51.75829
G0 F9000 X48.791 Y115.824
G1 F1200 X51.975 Y119.008 E52.11852
G0 F9000 X51.779 Y119.378
G1 F1200 X48.501 Y116.101 E52.48933
G0 F9000 X48.226 Y116.391
G1 F1200 X51.725 Y119.890 E52.88519
G0 F9000 X51.777 Y120.507
G1 F1200 X47.967 Y116.698 E53.31619
G0 F9000 X47.719 Y117.016
G1 F1200 X53.424 Y122.720 E53.96158
G0 F9000 X53.424 Y123.286
G1 F1200 X47.491 Y117.353 E54.63282
G0 F9000 X47.264 Y117.692
G1 F1200 X53.424 Y123.851 E55.32969
G0 F9000 X53.119 Y124.113
G1 F1200 X47.072 Y118.066 E56.01383
G0 F9000 X46.880 Y118.439
G1 F1200 X52.559 Y124.119 E56.65639
G0 F9000 X52.145 Y124.270
G1 F1200 X46.709 Y118.834 E57.27141
G0 F9000 X46.548 Y119.238
G1 F1200 X51.893 Y124.584 E57.87618
G0 F9000 X51.759 Y125.015
G1 F1200 X46.418 Y119.674 E58.48045
G0 F9000 X46.298 Y120.120
G1 F1200 X51.752 Y125.574 E59.09750
G0 F9000 X52.373 Y126.474
G0 X52.839 Y126.661
G1 F1200 X56.375 Y130.197 E59.49755
G0 F9000 X56.832 Y130.088
G1 F1200 X53.406 Y126.662 E59.88516
G0 F9000 X53.972 Y126.662
G1 F1200 X57.255 Y129.946 E60.25664
G0 F9000 X57.668 Y129.793
G1 F1200 X54.538 Y126.663 E60.61076
G0 F9000 X55.104 Y126.663
G1 F1200 X58.056 Y129.615 E60.94474
G0 F9000 X58.444 Y129.438
G1 F1200 X55.670 Y126.664 E61.25858
G0 F9000 X56.236 Y126.664
G1 F1200 X58.796 Y129.224 E61.54821
G0 F9000 X59.148 Y129.010
G1 F1200 X56.802 Y126.664 E61.81363
G0 F9000 X57.284 Y126.581
G1 F1200 X59.480 Y128.776 E62.06203
G0 F9000 X59.802 Y128.532
G1 F1200 X57.596 Y126.327 E62.31155
G0 F9000 X55.910 Y130.298
G1 F1200 X46.201 Y120.589 E63.41000
G0 F9000 X46.122 Y121.075
G1 F1200 X55.412 Y130.365 E64.46104
G0 F9000 X54.891 Y130.410
G1 F1200 X46.096 Y121.616 E65.45603
G0 F9000 X46.079 Y122.164
G1 F1200 X54.325 Y130.410 E66.38895
G0 F9000 X53.729 Y130.379
G1 F1200 X46.112 Y122.762 E67.25072
G0 F9000 X46.209 Y123.425
G1 F1200 X53.081 Y130.297 E68.02820
G0 F9000 X52.357 Y130.139
