;FLAVOR:Marlin
;TIME:7128
;Filament used: 1.48537m
;Layer height: 0.1
;Generated with Cura_SteamEngine 3.6.0
M82 ;absolute extrusion mode
; Ender 4 CoreXY, Due RADDS, TMC2130 Custom Start G-code
M104 S200.0 ; Set Extruder temperature
M140 S60.0 ; Set Heat Bed temperature
;CoreXY Sensorless Homing Part #1
M914 X1 Y1 ; +TMCFINE+ Setup  StallGuard Sensitivity
G92 X0 Y0
G0 X5 Y5 F6000
G28 X
M190 S60.0 ; Wait for Heat Bed temperature
M109 S200.0 ; Wait for Extruder temperature
;End Part #1
; Identifier CALIBR, CALRES and CALMPE, surrounded by #, + or - can be used in post processing
; #CALIBR# M92 X320 Y320 Z400 E440; +CALIBR+ Steps per unit
; #CALIBR#M851 Z-2.1 ; +CALIBR+  Z Probe Offset
; #CALRESO# M201 X500 Y500 Z50 E500 ; +CALRESO+ Max Accelleration
; #CALRESO# M203 X300 Y300 Z2 E90 ; +CALRESO+ Max Feed
; #CALRESO# M205 X3.0 Y3.0 Z0.3 E5.0 ; +CALRESO+ Default Jerk
;CoreXY Sensorless Homing Part #2
G0 X10 F6000
G28 X
G92 X-3
G0 X10 F6000
G28 Y
G0 Y10 F6000
G28 Y
G92 Y-3
G0 Y10 F6000
G28 Z
G0 X0 Y0 F6000
G92 E20
G1 F300 E0
;End Part #2
; #MPE# G29 ; -MPE- Auto Bed Level, uses this if FW values are set correct.
M906 X950 Y950 Z800 E800
M914 X8 Y8 ; +TMCFINE+ Setup  StallGuard Sensitivity
G1 Z5.0 F3000 ; Move Z Axis up little to prevent scratching of Heat Bed
;G1 X15.1 Y20 Z0.3 F5000.0 ; Move to start position
;G1 X15.1 Y200.0 Z0.3 F1500.0 E15 ; Draw the first line
;G1 X15.4 Y200.0 Z0.3 F5000.0 ; Move to side a little
;G1 X15.4 Y20 Z0.3 F1500.0 E30 ; Draw the second line
G92 E0 ; Reset Extruder
G1 Z5.0 F3000 ; Move Z Axis up little to prevent scratching of Heat Bed
;END Custom Start Code
G92 E0
G1 F1500 E-6.5
;LAYER_COUNT:49
;LAYER:0
M107
G0 F3600 X64.735 Y61.62 Z0.3
;TYPE:SKIRT
G1 F1500 E0
G1 F1800 X65.12 Y61.292 E0.00951
G1 X65.551 Y61.028 E0.01902
G1 X66.019 Y60.836 E0.02854
G1 X66.511 Y60.719 E0.03805
G1 X67.015 Y60.682 E0.04756
G1 X67.571 Y60.734 E0.05806
G1 X71.22 Y61.397 E0.12782
G1 X76.698 Y62.133 E0.23179
G1 X82.14 Y62.554 E0.33447
G1 X86.899 Y62.67 E0.42401
G1 X145.875 Y62.63 E1.53338
G1 X151.339 Y62.32 E1.63633
G1 X156.785 Y61.702 E1.73943
G1 X162.437 Y60.73 E1.84731
G1 X162.941 Y60.684 E1.85683
G1 X163.445 Y60.718 E1.86633
G1 X163.938 Y60.831 E1.87584
G1 X164.407 Y61.02 E1.88536
G1 X164.84 Y61.28 E1.89486
G1 X165.24 Y61.618 E1.90471
G1 X169.241 Y65.609 E2.01101
G1 X169.57 Y65.994 E2.02054
G1 X169.834 Y66.425 E2.03004
G1 X170.026 Y66.892 E2.03954
G1 X170.143 Y67.384 E2.04905
G1 X170.181 Y67.888 E2.05856
G1 X170.137 Y68.405 E2.06832
G1 X169.053 Y74.858 E2.19141
G1 X168.479 Y80.288 E2.29412
G1 X168.211 Y85.766 E2.39728
G1 X168.19 Y143.967 E3.49208
G1 X168.346 Y149.492 E3.59605
G1 X168.811 Y154.958 E3.69924
G1 X169.585 Y160.391 E3.80247
G1 X170.122 Y163.274 E3.85763
G1 X170.175 Y163.777 E3.86714
G1 X170.148 Y164.282 E3.87666
G1 X170.042 Y164.776 E3.88616
G1 X169.859 Y165.248 E3.89568
G1 X169.605 Y165.685 E3.90519
G1 X169.242 Y166.12 E3.91585
G1 X165.253 Y170.119 E4.0221
G1 X164.868 Y170.448 E4.03162
G1 X164.437 Y170.712 E4.04113
G1 X163.97 Y170.904 E4.05063
G1 X163.478 Y171.021 E4.06014
G1 X162.974 Y171.059 E4.06965
G1 X162.415 Y171.007 E4.08021
G1 X158.761 Y170.343 E4.15007
G1 X153.282 Y169.607 E4.25406
G1 X147.84 Y169.186 E4.35673
G1 X143.081 Y169.07 E4.44628
G1 X84.105 Y169.11 E5.55565
G1 X78.641 Y169.42 E5.6586
G1 X73.195 Y170.038 E5.7617
G1 X67.543 Y171.01 E5.86957
G1 X67.039 Y171.056 E5.87909
G1 X66.535 Y171.022 E5.8886
G1 X66.042 Y170.909 E5.89811
G1 X65.573 Y170.72 E5.90762
G1 X65.14 Y170.46 E5.91712
G1 X64.74 Y170.122 E5.92697
G1 X60.742 Y166.135 E6.03318
G1 X60.414 Y165.751 E6.04268
G1 X60.15 Y165.32 E6.05219
G1 X59.957 Y164.852 E6.06171
G1 X59.84 Y164.36 E6.07122
G1 X59.802 Y163.856 E6.08073
G1 X59.846 Y163.341 E6.09045
G1 X60.926 Y156.888 E6.21353
G1 X61.501 Y151.452 E6.31635
G1 X61.769 Y145.974 E6.41952
G1 X61.79 Y87.773 E7.51431
G1 X61.634 Y82.248 E7.61828
G1 X61.169 Y76.782 E7.72147
G1 X60.395 Y71.349 E7.8247
G1 X59.858 Y68.466 E7.87986
G1 X59.805 Y67.963 E7.88938
G1 X59.832 Y67.458 E7.89889
G1 X59.938 Y66.964 E7.9084
G1 X60.121 Y66.492 E7.91792
G1 X60.375 Y66.055 E7.92743
G1 X60.74 Y65.618 E7.93814
G1 X64.735 Y61.62 E8.04445
G1 F1500 E1.54445
;MESH:YACS.stl
G0 F3600 X67.648 Y63.43
G0 X67.643 Y65.217
G0 X66.376 Y66.484
G0 X114.982 Y114.742
G0 X114.982 Y114.641
;TYPE:WALL-INNER
G1 F1500 E8.04445
G1 F1800 X158.627 Y71.011 E9.2053
G1 X158.321 Y70.27 E9.22038
G1 X71.659 Y70.27 E10.85054
G1 X71.353 Y71.011 E10.86562
G1 X114.982 Y114.641 E12.02626
G0 F3600 X114.982 Y114.742
G0 X113.861 Y115.863
G0 X113.76 Y115.863
G1 F1800 X70.131 Y72.233 E13.1869
G1 X69.39 Y72.539 E13.20198
G1 X69.39 Y159.201 E14.83214
G1 X70.131 Y159.507 E14.84722
G1 X113.76 Y115.863 E16.00805
G0 F3600 X113.861 Y115.863
G0 X114.997 Y116.999
G0 X114.997 Y117.1
G1 F1800 X71.353 Y160.729 E17.16887
G1 X71.659 Y161.47 E17.18395
G1 X158.321 Y161.47 E18.81411
G1 X158.627 Y160.729 E18.82919
G1 X114.997 Y117.1 E19.98983
G0 F3600 X114.997 Y116.999
G0 X116.118 Y115.878
G0 X116.219 Y115.878
G1 F1800 X159.849 Y159.507 E21.15047
G1 X160.59 Y159.201 E21.16555
G1 X160.59 Y72.539 E22.79571
G1 X159.849 Y72.233 E22.81079
G1 X116.219 Y115.878 E23.97164
G0 F3600 X116.118 Y115.878
G0 X164.32 Y67.2
G0 X164.39 Y67.27
G1 F1800 X164.39 Y164.47 E25.80003
G1 X165.06 Y164.47 E25.81263
G1 X165.062 Y164.47 E25.81267
G1 X165.542 Y164.47 E25.8217
G1 X165.202 Y164.81 E25.82656
G1 X163.93 Y166.082 E25.8604
G1 X163.59 Y166.422 E25.86945
G1 X163.59 Y165.942 E25.8743
G1 X163.59 Y165.94 E25.87434
G1 X163.59 Y165.27 E25.88694
G1 X66.39 Y165.27 E27.71533
G1 X66.39 Y165.94 E27.72793
G1 X66.39 Y165.942 E27.72797
G1 X66.39 Y166.422 E27.737
G1 X66.05 Y166.082 E27.74187
G1 X64.778 Y164.81 E27.7757
G1 X64.438 Y164.47 E27.78475
G1 X64.918 Y164.47 E27.78961
G1 X64.92 Y164.47 E27.78964
G1 X65.59 Y164.47 E27.80225
G1 X65.59 Y67.27 E29.63063
G1 X64.92 Y67.27 E29.64324
G1 X64.918 Y67.27 E29.64327
G1 X64.438 Y67.27 E29.6523
G1 X64.778 Y66.93 E29.65717
G1 X66.05 Y65.658 E29.69101
G1 X66.39 Y65.318 E29.70005
G1 X66.39 Y65.798 E29.70491
G1 X66.39 Y65.8 E29.70495
G1 X66.39 Y66.47 E29.71755
G1 X163.59 Y66.47 E31.54594
G1 X163.59 Y65.8 E31.55854
G1 X163.59 Y65.798 E31.55858
G1 X163.59 Y65.318 E31.56761
G1 X163.93 Y65.658 E31.57247
G1 X165.202 Y66.93 E31.60631
G1 X165.542 Y67.27 E31.61536
G1 X165.062 Y67.27 E31.62021
G1 X165.06 Y67.27 E31.62025
G1 X164.39 Y67.27 E31.63285
G0 F3600 X164.79 Y67.67
;TYPE:WALL-OUTER
G1 F1800 X164.79 Y164.07 E33.44619
G1 X166.026 Y164.07 E33.46944
G1 X166.028 Y164.07 E33.46948
G1 X166.508 Y164.07 E33.47851
G1 X166.168 Y164.41 E33.48337
G1 X163.53 Y167.048 E33.55355
G1 X163.19 Y167.388 E33.5626
G1 X163.19 Y166.908 E33.56745
G1 X163.19 Y166.906 E33.56749
G1 X163.19 Y165.67 E33.59074
G1 X66.79 Y165.67 E35.40408
G1 X66.79 Y166.906 E35.42733
G1 X66.79 Y166.908 E35.42737
G1 X66.79 Y167.388 E35.4364
G1 X66.45 Y167.048 E35.44126
G1 X63.812 Y164.41 E35.51144
G1 X63.472 Y164.07 E35.52048
G1 X63.952 Y164.07 E35.52534
G1 X63.954 Y164.07 E35.52538
G1 X65.19 Y164.07 E35.54863
G1 X65.19 Y67.67 E37.36197
G1 X63.954 Y67.67 E37.38522
G1 X63.952 Y67.67 E37.38525
G1 X63.472 Y67.67 E37.39428
G1 X63.812 Y67.33 E37.39915
G1 X66.45 Y64.692 E37.46932
G1 X66.79 Y64.352 E37.47837
G1 X66.79 Y64.832 E37.48323
G1 X66.79 Y64.834 E37.48326
G1 X66.79 Y66.07 E37.50651
G1 X163.19 Y66.07 E39.31985
G1 X163.19 Y64.834 E39.3431
G1 X163.19 Y64.832 E39.34314
G1 X163.19 Y64.352 E39.35217
G1 X163.53 Y64.692 E39.35704
G1 X166.168 Y67.33 E39.42721
G1 X166.508 Y67.67 E39.43626
G1 X166.028 Y67.67 E39.44111
G1 X166.026 Y67.67 E39.44115
G1 X164.79 Y67.67 E39.4644
G0 F3600 X164.79 Y67.87
G0 X164.29 Y67.87
G0 X160.687 Y71.371
G0 X116.431 Y115.525
G0 X116.785 Y115.878
G1 F1800 X159.83 Y158.922 E40.60948
G1 X159.943 Y159.035 E40.61248
G1 X160.19 Y158.933 E40.61751
G1 X160.19 Y158.773 E40.62006
G1 X160.19 Y72.967 E42.23412
G1 X160.19 Y72.807 E42.23713
G1 X159.943 Y72.705 E42.24215
G1 X159.83 Y72.818 E42.2447
G1 X116.785 Y115.878 E43.38999
G0 F3600 X116.926 Y116.019
G0 X116.572 Y116.372
G0 X115.351 Y117.313
G0 X114.997 Y117.666
G1 F1800 X71.938 Y160.71 E44.53525
G1 X71.825 Y160.823 E44.53825
G1 X71.927 Y161.07 E44.54328
G1 X72.087 Y161.07 E44.54583
G1 X157.893 Y161.07 E46.15989
G1 X158.053 Y161.07 E46.1629
G1 X158.155 Y160.823 E46.16792
G1 X158.042 Y160.71 E46.17047
G1 X114.997 Y117.666 E47.31554
G0 F3600 X114.856 Y117.807
G0 X114.503 Y117.453
G0 X113.547 Y116.217
G0 X113.194 Y115.863
G1 F1800 X70.15 Y72.818 E48.46062
G1 X70.037 Y72.705 E48.46362
G1 X69.79 Y72.807 E48.46865
G1 X69.79 Y72.967 E48.4712
G1 X69.79 Y158.773 E50.08526
G1 X69.79 Y158.933 E50.08827
G1 X70.037 Y159.035 E50.09329
G1 X70.15 Y158.922 E50.09584
G1 X113.194 Y115.863 E51.2411
G0 F3600 X113.053 Y115.722
G0 X113.407 Y115.369
G0 X114.628 Y114.428
G0 X114.982 Y114.075
G1 F1800 X158.042 Y71.03 E52.38639
G1 X158.155 Y70.917 E52.38939
G1 X158.053 Y70.67 E52.39442
G1 X157.893 Y70.67 E52.39697
G1 X72.087 Y70.67 E54.01103
G1 X71.927 Y70.67 E54.01404
G1 X71.825 Y70.917 E54.01906
G1 X71.938 Y71.03 E54.02161
G1 X114.982 Y114.075 E55.16668
G0 F3600 X115.123 Y113.934
G0 X115.476 Y114.288
G0 X114.982 Y115.193
;TYPE:SKIN
G1 F1800 X159.087 Y71.103 E56.33977
G1 X158.582 Y69.88 E56.36466
G1 X71.398 Y69.88 E58.00464
G1 X70.893 Y71.103 E58.02953
G1 X114.982 Y115.193 E59.2024
G0 F3600 X114.312 Y115.863
G1 F1800 X70.223 Y71.773 E60.37528
G1 X69 Y72.278 E60.40017
G1 X69 Y159.462 E62.04015
G1 X70.223 Y159.967 E62.06504
G1 X114.312 Y115.863 E63.2381
G0 F3600 X114.997 Y116.548
G1 F1800 X70.893 Y160.637 E64.41116
G1 X71.398 Y161.86 E64.43605
G1 X158.582 Y161.86 E66.07603
G1 X159.087 Y160.637 E66.10092
G1 X114.997 Y116.548 E67.27379
G0 F3600 X115.667 Y115.878
G1 F1800 X159.757 Y159.967 E68.44667
G1 X160.98 Y159.462 E68.47156
G1 X160.98 Y72.278 E70.11154
G1 X159.757 Y71.773 E70.13643
G1 X115.667 Y115.878 E71.30952
G0 F3600 X163.98 Y66.86
G1 F1800 X163.98 Y66.258 E71.32084
G1 X164.602 Y66.88 E71.33739
G1 X164 Y66.88 E71.34871
G1 X164 Y164.86 E73.19177
G1 X164.602 Y164.86 E73.20309
G1 X163.98 Y165.482 E73.21964
G1 X163.98 Y164.88 E73.23096
G1 X66 Y164.88 E75.07402
G1 X66 Y165.482 E75.08535
G1 X65.378 Y164.86 E75.10189
G1 X65.98 Y164.86 E75.11322
G1 X65.98 Y66.88 E76.95627
G1 X65.378 Y66.88 E76.9676
G1 X66 Y66.258 E76.98415
G1 X66 Y66.86 E76.99547
G1 X163.98 Y66.86 E78.83853
G0 F3600 X163.819 Y67.653
G1 F1800 X163.206 Y67.04 E78.85483
G0 F3600 X162.64 Y67.04
G1 F1800 X163.819 Y68.218 E78.88619
G0 F3600 X163.819 Y68.784
G1 F1800 X162.075 Y67.04 E78.93258
G0 F3600 X161.509 Y67.04
G1 F1800 X163.819 Y69.35 E78.99403
G0 F3600 X163.819 Y69.915
G1 F1800 X160.943 Y67.04 E79.07052
G0 F3600 X160.378 Y67.04
G1 F1800 X163.819 Y70.481 E79.16206
G0 F3600 X163.819 Y71.047
G1 F1800 X159.812 Y67.04 E79.26866
G0 F3600 X159.246 Y67.04
G1 F1800 X163.819 Y71.612 E79.3903
G0 F3600 X163.819 Y72.178
G1 F1800 X158.681 Y67.04 E79.52698
G0 F3600 X158.115 Y67.04
G1 F1800 X163.819 Y72.744 E79.67872
G0 F3600 X163.819 Y73.31
G1 F1800 X157.549 Y67.04 E79.84551
G0 F3600 X156.984 Y67.04
G1 F1800 X163.819 Y73.875 E80.02734
G0 F3600 X163.819 Y74.441
G1 F1800 X156.418 Y67.04 E80.22422
G0 F3600 X155.852 Y67.04
G1 F1800 X158.512 Y69.699 E80.29497
G0 F3600 X158.835 Y70.022
G1 F1800 X160.836 Y72.023 E80.3482
G0 F3600 X161.159 Y72.346
G1 F1800 X163.819 Y75.007 E80.41897
G0 F3600 X163.819 Y75.572
G1 F1800 X161.159 Y72.912 E80.48974
G0 F3600 X161.159 Y73.478
G1 F1800 X163.819 Y76.138 E80.5605
G0 F3600 X163.819 Y76.704
G1 F1800 X161.159 Y74.043 E80.63127
G0 F3600 X161.159 Y74.609
G1 F1800 X163.819 Y77.269 E80.70203
G0 F3600 X163.819 Y77.835
G1 F1800 X161.159 Y75.175 E80.7728
G0 F3600 X161.159 Y75.741
G1 F1800 X163.819 Y78.401 E80.84356
G0 F3600 X163.819 Y78.966
G1 F1800 X161.159 Y76.306 E80.91432
G0 F3600 X161.159 Y76.872
G1 F1800 X163.819 Y79.532 E80.98508
G0 F3600 X163.819 Y80.098
G1 F1800 X161.159 Y77.438 E81.05584
G0 F3600 X161.159 Y78.003
G1 F1800 X163.819 Y80.663 E81.1266
G0 F3600 X163.819 Y81.229
G1 F1800 X161.159 Y78.569 E81.19737
G0 F3600 X161.159 Y79.135
G1 F1800 X163.819 Y81.795 E81.26813
G0 F3600 X163.819 Y82.36
G1 F1800 X161.159 Y79.7 E81.33889
G0 F3600 X161.159 Y80.266
G1 F1800 X163.819 Y82.926 E81.40965
G0 F3600 X163.819 Y83.492
G1 F1800 X161.159 Y80.832 E81.48041
G0 F3600 X161.159 Y81.397
G1 F1800 X163.819 Y84.058 E81.55119
G0 F3600 X163.819 Y84.623
G1 F1800 X161.159 Y81.963 E81.62195
G0 F3600 X161.159 Y82.529
G1 F1800 X163.819 Y85.189 E81.69271
G0 F3600 X163.819 Y85.755
G1 F1800 X161.159 Y83.094 E81.76349
G0 F3600 X161.159 Y83.66
G1 F1800 X163.819 Y86.32 E81.83425
G0 F3600 X163.819 Y86.886
G1 F1800 X161.159 Y84.226 E81.90501
G0 F3600 X161.159 Y84.792
G1 F1800 X163.819 Y87.452 E81.97577
G0 F3600 X163.819 Y88.017
G1 F1800 X161.159 Y85.357 E82.04653
G0 F3600 X161.159 Y85.923
G1 F1800 X163.819 Y88.583 E82.1173
G0 F3600 X163.819 Y89.149
G1 F1800 X161.159 Y86.489 E82.18806
G0 F3600 X161.159 Y87.054
G1 F1800 X163.819 Y89.714 E82.25882
G0 F3600 X163.819 Y90.28
G1 F1800 X161.159 Y87.62 E82.32958
G0 F3600 X161.159 Y88.186
G1 F1800 X163.819 Y90.846 E82.40034
G0 F3600 X163.819 Y91.411
G1 F1800 X161.159 Y88.751 E82.4711
G0 F3600 X161.159 Y89.317
G1 F1800 X163.819 Y91.977 E82.54187
G0 F3600 X163.819 Y92.543
G1 F1800 X161.159 Y89.883 E82.61263
G0 F3600 X161.159 Y90.448
G1 F1800 X163.819 Y93.108 E82.68339
G0 F3600 X163.819 Y93.674
G1 F1800 X161.159 Y91.014 E82.75415
G0 F3600 X161.159 Y91.58
G1 F1800 X163.819 Y94.24 E82.82491
G0 F3600 X163.819 Y94.806
G1 F1800 X161.159 Y92.145 E82.89569
G0 F3600 X161.159 Y92.711
G1 F1800 X163.819 Y95.371 E82.96645
G0 F3600 X163.819 Y95.937
G1 F1800 X161.159 Y93.277 E83.03721
G0 F3600 X161.159 Y93.842
G1 F1800 X163.819 Y96.503 E83.10799
G0 F3600 X163.819 Y97.068
G1 F1800 X161.159 Y94.408 E83.17875
G0 F3600 X161.159 Y94.974
G1 F1800 X163.819 Y97.634 E83.24951
G0 F3600 X163.819 Y98.2
G1 F1800 X161.159 Y95.54 E83.32027
G0 F3600 X161.159 Y96.105
G1 F1800 X163.819 Y98.765 E83.39103
G0 F3600 X163.819 Y99.331
G1 F1800 X161.159 Y96.671 E83.46179
G0 F3600 X161.159 Y97.237
G1 F1800 X163.819 Y99.897 E83.53256
G0 F3600 X163.819 Y100.462
G1 F1800 X161.159 Y97.802 E83.60332
G0 F3600 X161.159 Y98.368
G1 F1800 X163.819 Y101.028 E83.67408
G0 F3600 X163.819 Y101.594
G1 F1800 X161.159 Y98.934 E83.74484
G0 F3600 X161.159 Y99.499
G1 F1800 X163.819 Y102.159 E83.8156
G0 F3600 X163.819 Y102.725
G1 F1800 X161.159 Y100.065 E83.88636
G0 F3600 X161.159 Y100.631
G1 F1800 X163.819 Y103.291 E83.95713
G0 F3600 X163.819 Y103.857
G1 F1800 X161.159 Y101.196 E84.0279
G0 F3600 X161.159 Y101.762
G1 F1800 X163.819 Y104.422 E84.09866
G0 F3600 X163.819 Y104.988
G1 F1800 X161.159 Y102.328 E84.16942
G0 F3600 X161.159 Y102.893
G1 F1800 X163.819 Y105.554 E84.2402
G0 F3600 X163.819 Y106.119
G1 F1800 X161.159 Y103.459 E84.31096
G0 F3600 X161.159 Y104.025
G1 F1800 X163.819 Y106.685 E84.38172
G0 F3600 X163.819 Y107.251
G1 F1800 X161.159 Y104.59 E84.4525
G0 F3600 X161.159 Y105.156
G1 F1800 X163.819 Y107.816 E84.52326
G0 F3600 X163.819 Y108.382
G1 F1800 X161.159 Y105.722 E84.59402
G0 F3600 X161.159 Y106.288
G1 F1800 X163.819 Y108.948 E84.66478
G0 F3600 X163.819 Y109.513
G1 F1800 X161.159 Y106.853 E84.73554
G0 F3600 X161.159 Y107.419
G1 F1800 X163.819 Y110.079 E84.80631
G0 F3600 X163.819 Y110.645
G1 F1800 X161.159 Y107.985 E84.87707
G0 F3600 X161.159 Y108.55
G1 F1800 X163.819 Y111.21 E84.94783
G0 F3600 X163.819 Y111.776
G1 F1800 X161.159 Y109.116 E85.01859
G0 F3600 X161.159 Y109.682
G1 F1800 X163.819 Y112.342 E85.08935
G0 F3600 X163.819 Y112.907
G1 F1800 X161.159 Y110.247 E85.16011
G0 F3600 X161.159 Y110.813
G1 F1800 X163.819 Y113.473 E85.23088
G0 F3600 X163.819 Y114.039
G1 F1800 X161.159 Y111.379 E85.30164
G0 F3600 X161.159 Y111.944
G1 F1800 X163.819 Y114.605 E85.37241
G0 F3600 X163.819 Y115.17
G1 F1800 X161.159 Y112.51 E85.44317
G0 F3600 X161.159 Y113.076
G1 F1800 X163.819 Y115.736 E85.51394
G0 F3600 X163.819 Y116.302
G1 F1800 X161.159 Y113.641 E85.58471
G0 F3600 X161.159 Y114.207
G1 F1800 X163.819 Y116.867 E85.65547
G0 F3600 X163.819 Y117.433
G1 F1800 X161.159 Y114.773 E85.72624
G0 F3600 X161.159 Y115.339
G1 F1800 X163.819 Y117.999 E85.797
G0 F3600 X163.819 Y118.564
G1 F1800 X161.159 Y115.904 E85.86776
