;FLAVOR:Marlin
;TIME:3548
;Filament used: 3.52398m
;Layer height: 0.2
;Generated with Cura_SteamEngine 3.6.0
M82 ;absolute extrusion mode
; Ender 4 CoreXY, Due RADDS, TMC2130 Custom Start G-code
M104 S200 ; Set Extruder temperature
M140 S60 ; Set Heat Bed temperature
;CoreXY Sensorless Homing Part #1
M914 X1 Y1 ; +TMCFINE+ Setup  StallGuard Sensitivity
G92 X0 Y0
G0 X5 Y5 F6000
G28 X
M190 S60 ; Wait for Heat Bed temperature
M109 S200 ; Wait for Extruder temperature
;End Part #1
; Identifier CALIBR, CALRES and CALMPE, surrounded by #, + or - can be used in post processing
; #CALIBR# M92 X320 Y320 Z400 E440; +CALIBR+ Steps per unit
; #CALIBR#M851 Z-2.1 ; +CALIBR+  Z Probe Offset
; #CALRESO# M201 X500 Y500 Z50 E500 ; +CALRESO+ Max Accelleration
; #CALRESO# M203 X300 Y300 Z2 E90 ; +CALRESO+ Max Feed
; #CALRESO# M205 X3.0 Y3.0 Z0.3 E5.0 ; +CALRESO+ Default Jerk
;CoreXY Sensorless Homing Part #2
G0 X10 F6000
G28 X
G92 X-3
G0 X10 F6000
G28 Y
G0 Y10 F6000
G28 Y
G92 Y-3
G0 Y10 F6000
G28 Z
G0 X0 Y0 F6000
G92 E20
G1 F300 E0
;End Part #2
; #MPE# G29 ; -MPE- Auto Bed Level, uses this if FW values are set correct.
M906 X950 Y950 Z800 E800
M914 X0 Y0 ; +TMCFINE+ Setup  StallGuard Sensitivity
G1 Z5.0 F3000 ; Move Z Axis up little to prevent scratching of Heat Bed
;G1 X15.1 Y20 Z0.3 F5000.0 ; Move to start position
;G1 X15.1 Y200.0 Z0.3 F1500.0 E15 ; Draw the first line
;G1 X15.4 Y200.0 Z0.3 F5000.0 ; Move to side a little
;G1 X15.4 Y20 Z0.3 F1500.0 E30 ; Draw the second line
G92 E0 ; Reset Extruder
G1 E25
G92 E0 ; Reset Extruder
G1 Z5.0 F3000 ; Move Z Axis up little to prevent scratching of Heat Bed
;END Custom Start Code
G92 E0
G1 F1200 E-3
;LAYER_COUNT:26
;LAYER:0
M107
G0 F2400 X64.982 Y60.988 Z0.2
;TYPE:SKIRT
G1 F1200 E0
G1 X65.515 Y60.511 E0.03569
G1 X66.098 Y60.097 E0.07136
G1 X66.723 Y59.75 E0.10702
G1 X67.384 Y59.475 E0.14274
G1 X68.071 Y59.276 E0.17842
G1 X68.775 Y59.154 E0.21407
G1 X69.489 Y59.112 E0.24975
G1 X70.204 Y59.15 E0.28548
G1 X70.654 Y59.215 E0.30816
G1 X74.255 Y59.87 E0.49076
G1 X79.527 Y60.578 E0.75614
G1 X84.822 Y60.987 E1.0211
G1 X89.445 Y61.1 E1.25181
G1 X148.291 Y61.06 E4.18765
G1 X153.59 Y60.76 E4.45244
G1 X158.846 Y60.163 E4.71635
G1 X164.405 Y59.207 E4.99776
G1 X165.115 Y59.125 E5.03342
G1 X165.831 Y59.123 E5.06914
G1 X166.542 Y59.201 E5.10483
G1 X167.24 Y59.358 E5.14052
G1 X167.916 Y59.591 E5.17619
G1 X168.561 Y59.899 E5.21185
G1 X169.169 Y60.277 E5.24757
G1 X169.73 Y60.72 E5.28323
G1 X170.01 Y60.983 E5.3024
G1 X174.011 Y64.974 E5.58434
G1 X174.488 Y65.506 E5.61998
G1 X174.903 Y66.089 E5.65569
G1 X175.251 Y66.714 E5.69138
G1 X175.526 Y67.374 E5.72705
G1 X175.726 Y68.061 E5.76275
G1 X175.848 Y68.766 E5.79844
G1 X175.891 Y69.48 E5.83413
G1 X175.854 Y70.194 E5.8698
G1 X175.803 Y70.565 E5.88848
G1 X174.734 Y76.93 E6.21048
G1 X174.18 Y82.163 E6.47301
G1 X173.921 Y87.47 E6.7381
G1 X173.9 Y145.578 E9.63712
G1 X174.052 Y150.937 E9.90458
G1 X174.501 Y156.218 E10.169
G1 X175.254 Y161.503 E10.43534
G1 X175.778 Y164.319 E10.57824
G1 X175.869 Y165.028 E10.6139
G1 X175.881 Y165.743 E10.64958
G1 X175.813 Y166.455 E10.68526
G1 X175.666 Y167.155 E10.72095
G1 X175.441 Y167.834 E10.75663
G1 X175.142 Y168.484 E10.79233
G1 X174.773 Y169.097 E10.82803
G1 X174.337 Y169.664 E10.86371
G1 X174.017 Y170.01 E10.88722
G1 X170.028 Y174.009 E11.16902
G1 X169.496 Y174.486 E11.20467
G1 X168.913 Y174.901 E11.24037
G1 X168.288 Y175.249 E11.27606
G1 X167.628 Y175.524 E11.31173
G1 X166.941 Y175.724 E11.34743
G1 X166.236 Y175.846 E11.38312
G1 X165.522 Y175.889 E11.41881
G1 X164.808 Y175.852 E11.45448
G1 X164.353 Y175.786 E11.47742
G1 X160.749 Y175.131 E11.66017
G1 X155.473 Y174.422 E11.92575
G1 X150.178 Y174.013 E12.19071
G1 X145.555 Y173.9 E12.42142
G1 X86.709 Y173.94 E15.35726
G1 X81.41 Y174.24 E15.62205
G1 X76.154 Y174.837 E15.88596
G1 X70.595 Y175.793 E16.16737
G1 X69.885 Y175.875 E16.20303
G1 X69.169 Y175.877 E16.23875
G1 X68.458 Y175.799 E16.27444
G1 X67.76 Y175.642 E16.31013
G1 X67.084 Y175.409 E16.3458
G1 X66.439 Y175.101 E16.38146
G1 X65.831 Y174.723 E16.41718
G1 X65.27 Y174.28 E16.45284
G1 X64.991 Y174.018 E16.47194
G1 X60.993 Y170.031 E16.75363
G1 X60.515 Y169.498 E16.78935
G1 X60.1 Y168.916 E16.82501
G1 X59.753 Y168.29 E16.86072
G1 X59.477 Y167.63 E16.89641
G1 X59.277 Y166.944 E16.93206
G1 X59.155 Y166.239 E16.96775
G1 X59.112 Y165.525 E17.00344
G1 X59.149 Y164.811 E17.03911
G1 X59.2 Y164.442 E17.05769
G1 X60.265 Y158.08 E17.37951
G1 X60.82 Y152.837 E17.64255
G1 X61.079 Y147.53 E17.90763
G1 X61.1 Y89.422 E20.80665
G1 X60.948 Y84.063 E21.07412
G1 X60.499 Y78.782 E21.33854
G1 X59.746 Y73.497 E21.60487
G1 X59.222 Y70.681 E21.74777
G1 X59.131 Y69.972 E21.78344
G1 X59.119 Y69.257 E21.81911
G1 X59.187 Y68.545 E21.8548
G1 X59.334 Y67.845 E21.89048
G1 X59.559 Y67.166 E21.92617
G1 X59.858 Y66.516 E21.96186
G1 X60.227 Y65.903 E21.99756
G1 X60.663 Y65.336 E22.03324
G1 X60.987 Y64.986 E22.05704
G1 X64.982 Y60.988 E22.33901
G0 F2400 X65.265 Y61.271
G1 F1200 X65.782 Y60.81 E22.37357
G1 X66.348 Y60.412 E22.40809
G1 X66.957 Y60.082 E22.44265
G1 X67.6 Y59.824 E22.47721
G1 X68.268 Y59.642 E22.51176
G1 X68.953 Y59.538 E22.54632
G1 X69.645 Y59.514 E22.58087
G1 X70.582 Y59.609 E22.62785
G1 X74.171 Y60.261 E22.80984
G1 X79.497 Y60.977 E23.07795
G1 X84.8 Y61.387 E23.3433
G1 X89.435 Y61.5 E23.57461
G1 X148.315 Y61.46 E26.51215
G1 X153.605 Y61.16 E26.77649
G1 X158.908 Y60.558 E27.04276
G1 X164.473 Y59.601 E27.32447
G1 X165.161 Y59.523 E27.35902
G1 X165.853 Y59.525 E27.39354
G1 X166.541 Y59.607 E27.42811
G1 X167.215 Y59.767 E27.46267
G1 X167.865 Y60.004 E27.49719
G1 X168.485 Y60.315 E27.53179
G1 X169.064 Y60.694 E27.56632
G1 X169.727 Y61.266 E27.61
G1 X173.728 Y65.257 E27.89194
G1 X174.19 Y65.774 E27.92653
G1 X174.588 Y66.34 E27.96105
G1 X174.919 Y66.948 E27.99559
G1 X175.177 Y67.591 E28.03016
G1 X175.36 Y68.259 E28.06471
G1 X175.465 Y68.943 E28.09924
G1 X175.49 Y69.636 E28.13383
G1 X175.408 Y70.499 E28.17708
G1 X174.34 Y76.855 E28.49863
G1 X173.782 Y82.136 E28.76357
G1 X173.521 Y87.472 E29.0301
G1 X173.5 Y145.554 E31.92782
G1 X173.654 Y150.982 E32.19873
G1 X174.102 Y156.255 E32.46275
G1 X174.858 Y161.563 E32.73024
G1 X175.385 Y164.392 E32.87381
G1 X175.472 Y165.079 E32.90836
G1 X175.479 Y165.771 E32.94288
G1 X175.407 Y166.46 E32.97745
G1 X175.256 Y167.136 E33.012
G1 X175.028 Y167.79 E33.04656
G1 X174.726 Y168.413 E33.0811
G1 X174.354 Y168.997 E33.11564
G1 X173.734 Y169.727 E33.16342
G1 X169.745 Y173.726 E33.44522
G1 X169.228 Y174.188 E33.47981
G1 X168.662 Y174.586 E33.51434
G1 X168.054 Y174.917 E33.54887
G1 X167.411 Y175.175 E33.58344
G1 X166.743 Y175.358 E33.61799
G1 X166.059 Y175.463 E33.65252
G1 X165.366 Y175.488 E33.68711
G1 X164.424 Y175.392 E33.73435
G1 X160.829 Y174.739 E33.91664
G1 X155.503 Y174.023 E34.18475
G1 X150.2 Y173.613 E34.45011
G1 X145.565 Y173.5 E34.68142
G1 X86.685 Y173.54 E37.61895
G1 X81.395 Y173.84 E37.88329
G1 X76.092 Y174.442 E38.14956
G1 X70.527 Y175.399 E38.43128
G1 X69.839 Y175.477 E38.46582
G1 X69.147 Y175.475 E38.50034
G1 X68.459 Y175.393 E38.53491
G1 X67.785 Y175.233 E38.56947
G1 X67.135 Y174.996 E38.60399
G1 X66.515 Y174.685 E38.63859
G1 X65.936 Y174.306 E38.67312
G1 X65.273 Y173.734 E38.71681
G1 X61.275 Y169.747 E38.9985
G1 X60.814 Y169.231 E39.03302
G1 X60.415 Y168.665 E39.06757
G1 X60.084 Y168.056 E39.10215
G1 X59.826 Y167.414 E39.13667
G1 X59.643 Y166.746 E39.17122
G1 X59.538 Y166.061 E39.2058
G1 X59.513 Y165.369 E39.24034
G1 X59.594 Y164.508 E39.28349
G1 X60.66 Y158.138 E39.60571
G1 X61.218 Y152.864 E39.8703
G1 X61.479 Y147.528 E40.13683
G1 X61.5 Y89.446 E43.03455
G1 X61.346 Y84.018 E43.30547
G1 X60.898 Y78.745 E43.56948
G1 X60.142 Y73.437 E43.83697
G1 X59.615 Y70.608 E43.98054
G1 X59.528 Y69.921 E44.01509
G1 X59.521 Y69.229 E44.04962
G1 X59.593 Y68.54 E44.08418
G1 X59.744 Y67.864 E44.11873
G1 X59.972 Y67.21 E44.15329
G1 X60.274 Y66.587 E44.18783
G1 X60.646 Y66.003 E44.22237
G1 X61.27 Y65.269 E44.27044
G1 X65.265 Y61.271 E44.55241
G0 F2400 X65.548 Y61.554
G1 F1200 X66.048 Y61.11 E44.58577
G1 X66.598 Y60.728 E44.61918
G1 X67.189 Y60.415 E44.65255
G1 X67.813 Y60.175 E44.6859
G1 X68.462 Y60.011 E44.7193
G1 X69.126 Y59.925 E44.7527
G1 X69.795 Y59.919 E44.78608
G1 X70.51 Y60.002 E44.82199
G1 X74.13 Y60.66 E45.00555
G1 X79.448 Y61.374 E45.27325
G1 X84.78 Y61.787 E45.54006
G1 X89.426 Y61.9 E45.77192
G1 X148.319 Y61.86 E48.7101
G1 X153.655 Y61.558 E48.97674
G1 X158.952 Y60.956 E49.24271
G1 X164.541 Y59.995 E49.52564
G1 X165.205 Y59.921 E49.55897
G1 X165.874 Y59.927 E49.59235
G1 X166.538 Y60.013 E49.62576
G1 X167.187 Y60.177 E49.65915
G1 X167.811 Y60.418 E49.69253
G1 X168.402 Y60.731 E49.72589
G1 X168.952 Y61.112 E49.75927
G1 X169.445 Y61.549 E49.79214
G1 X173.446 Y65.54 E50.07408
G1 X173.89 Y66.04 E50.10744
G1 X174.272 Y66.59 E50.14085
G1 X174.586 Y67.181 E50.17424
G1 X174.827 Y67.805 E50.20761
G1 X174.991 Y68.453 E50.24096
G1 X175.078 Y69.117 E50.27437
G1 X175.084 Y69.786 E50.30774
G1 X175.014 Y70.433 E50.34021
G1 X173.942 Y76.813 E50.66297
G1 X173.382 Y82.111 E50.92876
G1 X173.121 Y87.452 E51.19555
G1 X173.1 Y145.566 E54.09486
G1 X173.254 Y150.992 E54.36568
G1 X173.706 Y156.311 E54.632
G1 X174.465 Y161.642 E54.90065
G1 X174.991 Y164.465 E55.04391
G1 X175.074 Y165.129 E55.0773
G1 X175.078 Y165.798 E55.11067
G1 X175.001 Y166.463 E55.14407
G1 X174.846 Y167.113 E55.17741
G1 X174.614 Y167.741 E55.21081
G1 X174.309 Y168.336 E55.24417
G1 X173.935 Y168.891 E55.27756
G1 X173.451 Y169.445 E55.31426
G1 X169.462 Y173.444 E55.59606
G1 X168.962 Y173.888 E55.62942
G1 X168.412 Y174.27 E55.66283
G1 X167.821 Y174.584 E55.69621
G1 X167.197 Y174.825 E55.72959
G1 X166.549 Y174.989 E55.76294
G1 X165.885 Y175.076 E55.79635
G1 X165.216 Y175.082 E55.82972
G1 X164.496 Y174.999 E55.86588
G1 X160.87 Y174.34 E56.04975
G1 X155.552 Y173.626 E56.31744
G1 X150.22 Y173.213 E56.58426
G1 X145.574 Y173.1 E56.81611
G1 X86.681 Y173.14 E59.7543
G1 X81.345 Y173.442 E60.02094
G1 X76.048 Y174.044 E60.28691
G1 X70.459 Y175.005 E60.56984
G1 X69.795 Y175.079 E60.60317
G1 X69.126 Y175.073 E60.63655
G1 X68.462 Y174.987 E60.66995
G1 X67.813 Y174.823 E60.70335
G1 X67.189 Y174.582 E60.73672
G1 X66.598 Y174.269 E60.77008
G1 X66.048 Y173.888 E60.80346
G1 X65.556 Y173.451 E60.8363
G1 X61.558 Y169.464 E61.11799
G1 X61.113 Y168.964 E61.15138
G1 X60.731 Y168.415 E61.18475
G1 X60.417 Y167.824 E61.21814
G1 X60.177 Y167.2 E61.25149
G1 X60.012 Y166.552 E61.28485
G1 X59.926 Y165.888 E61.31826
G1 X59.919 Y165.219 E61.35164
G1 X59.989 Y164.574 E61.384
G1 X61.057 Y158.197 E61.70658
G1 X61.618 Y152.889 E61.97288
G1 X61.879 Y147.548 E62.23966
G1 X61.9 Y89.434 E65.13898
G1 X61.746 Y84.008 E65.40979
G1 X61.294 Y78.689 E65.67611
G1 X60.535 Y73.358 E65.94476
G1 X60.009 Y70.535 E66.08802
G1 X59.926 Y69.871 E66.12141
G1 X59.922 Y69.202 E66.15479
G1 X59.999 Y68.537 E66.18818
G1 X60.154 Y67.887 E66.22152
G1 X60.386 Y67.259 E66.25492
G1 X60.691 Y66.664 E66.28828
G1 X61.065 Y66.109 E66.32167
G1 X61.553 Y65.552 E66.35862
G1 X65.548 Y61.554 E66.64059
G0 F2400 X65.831 Y61.836
G1 F1200 X66.314 Y61.41 E66.67272
G1 X66.846 Y61.046 E66.70488
G1 X67.419 Y60.75 E66.73706
G1 X68.024 Y60.528 E66.76921
G1 X68.652 Y60.383 E66.80136
G1 X69.294 Y60.316 E66.83357
G1 X69.938 Y60.33 E66.8657
G1 X70.439 Y60.396 E66.89091
G1 X74.053 Y61.053 E67.07417
G1 X79.398 Y61.771 E67.34323
G1 X84.777 Y62.187 E67.61239
G1 X89.417 Y62.3 E67.84395
G1 X148.324 Y62.26 E70.78283
G1 X153.689 Y61.956 E71.05092
G1 X159.009 Y61.352 E71.31804
G1 X164.608 Y60.389 E71.60148
G1 X165.249 Y60.32 E71.63365
G1 X165.894 Y60.33 E71.66583
G1 X166.532 Y60.42 E71.69797
G1 X167.155 Y60.588 E71.73017
G1 X167.751 Y60.831 E71.76228
G1 X168.313 Y61.147 E71.79444
G1 X168.832 Y61.53 E71.82662
G1 X169.162 Y61.832 E71.84894
G1 X173.163 Y65.823 E72.13088
G1 X173.591 Y66.306 E72.16308
G1 X173.955 Y66.838 E72.19524
G1 X174.251 Y67.411 E72.22741
G1 X174.473 Y68.016 E72.25956
G1 X174.619 Y68.644 E72.29173
G1 X174.686 Y69.285 E72.32388
G1 X174.674 Y69.93 E72.35607
G1 X174.619 Y70.366 E72.37799
G1 X173.546 Y76.752 E72.70106
G1 X172.984 Y82.066 E72.96765
G1 X172.721 Y87.453 E73.23673
G1 X172.7 Y145.577 E76.13655
G1 X172.854 Y151.02 E76.40821
G1 X173.307 Y156.347 E76.67494
G1 X174.07 Y161.702 E76.9448
G1 X174.598 Y164.538 E77.08872
G1 X174.677 Y165.178 E77.12089
G1 X174.675 Y165.823 E77.15307
G1 X174.594 Y166.462 E77.1852
G1 X174.435 Y167.087 E77.21738
G1 X174.199 Y167.687 E77.24954
G1 X173.891 Y168.253 E77.28169
G1 X173.515 Y168.777 E77.31387
G1 X173.168 Y169.162 E77.33973
G1 X169.179 Y173.161 E77.62152
G1 X168.696 Y173.589 E77.65372
G1 X168.164 Y173.953 E77.68588
G1 X167.591 Y174.249 E77.71806
G1 X166.986 Y174.471 E77.75021
G1 X166.358 Y174.617 E77.78238
G1 X165.717 Y174.684 E77.81453
G1 X165.072 Y174.672 E77.84671
G1 X164.567 Y174.605 E77.87213
G1 X160.947 Y173.947 E78.05569
G1 X155.602 Y173.229 E78.32475
G1 X150.223 Y172.813 E78.59391
G1 X145.583 Y172.7 E78.82547
G1 X86.676 Y172.74 E81.76435
G1 X81.311 Y173.044 E82.03244
G1 X75.991 Y173.648 E82.29956
G1 X70.392 Y174.611 E82.583
G1 X69.751 Y174.68 E82.61516
G1 X69.106 Y174.67 E82.64735
G1 X68.468 Y174.58 E82.67949
G1 X67.845 Y174.412 E82.71168
G1 X67.249 Y174.169 E82.7438
G1 X66.687 Y173.853 E82.77596
G1 X66.168 Y173.47 E82.80814
G1 X65.838 Y173.168 E82.83046
G1 X61.84 Y169.181 E83.11215
G1 X61.413 Y168.698 E83.14432
G1 X61.048 Y168.167 E83.17646
G1 X60.753 Y167.594 E83.20862
G1 X60.53 Y166.989 E83.24078
G1 X60.384 Y166.361 E83.27295
G1 X60.317 Y165.72 E83.3051
G1 X60.329 Y165.075 E83.33729
G1 X60.383 Y164.64 E83.35916
G1 X61.455 Y158.239 E83.68295
G1 X62.016 Y152.934 E83.9491
G1 X62.279 Y147.547 E84.21818
G1 X62.3 Y89.423 E87.11799
G1 X62.146 Y83.98 E87.38965
G1 X61.693 Y78.653 E87.65638
G1 X60.93 Y73.298 E87.92624
G1 X60.402 Y70.462 E88.07016
G1 X60.323 Y69.822 E88.10233
G1 X60.325 Y69.177 E88.13451
G1 X60.406 Y68.538 E88.16665
G1 X60.565 Y67.913 E88.19882
G1 X60.801 Y67.313 E88.23099
G1 X61.109 Y66.747 E88.26313
G1 X61.485 Y66.223 E88.29531
G1 X61.836 Y65.834 E88.32145
G1 X65.831 Y61.836 E88.60343
G1 F1200 E85.60343
;MESH:YACS.stl
G0 F2400 X67.993 Y66.067
G0 X68.893 Y66.966
G0 X67.43 Y68.8
G0 X67.43 Y68.9
;TYPE:WALL-INNER
G1 F1200 E88.60343
G1 X67.428 Y68.9 E88.60353
G1 X66.948 Y68.9 E88.62747
G1 X67.288 Y68.56 E88.64038
G1 X68.56 Y67.288 E88.73013
G1 X68.9 Y66.948 E88.75411
G1 X68.9 Y67.428 E88.767
G1 X68.9 Y67.43 E88.7671
G1 X68.9 Y68.1 E88.80052
G1 X166.1 Y68.1 E93.64985
G1 X166.1 Y67.43 E93.68328
G1 X166.1 Y67.428 E93.68338
G1 X166.1 Y66.948 E93.70733
G1 X166.44 Y67.288 E93.72023
G1 X167.712 Y68.56 E93.80998
G1 X168.052 Y68.9 E93.83397
G1 X167.572 Y68.9 E93.84685
G1 X167.57 Y68.9 E93.84695
G1 X166.9 Y68.9 E93.88038
G1 X166.9 Y166.1 E98.72971
G1 X167.57 Y166.1 E98.76313
G1 X167.572 Y166.1 E98.76323
G1 X168.052 Y166.1 E98.78718
G1 X167.712 Y166.44 E98.80009
G1 X166.44 Y167.712 E98.88983
G1 X166.1 Y168.052 E98.91382
G1 X166.1 Y167.572 E98.92671
G1 X166.1 Y167.57 E98.9268
G1 X166.1 Y166.9 E98.96023
G1 X68.9 Y166.9 E103.80956
G1 X68.9 Y167.57 E103.84299
G1 X68.9 Y167.572 E103.84309
G1 X68.9 Y168.052 E103.86703
G1 X68.56 Y167.712 E103.87994
G1 X67.288 Y166.44 E103.96969
G1 X66.948 Y166.1 E103.99367
G1 X67.428 Y166.1 E104.00656
G1 X67.43 Y166.1 E104.00666
G1 X68.1 Y166.1 E104.04008
G1 X68.1 Y68.9 E108.88941
G1 X67.43 Y68.9 E108.92284
G0 F2400 X67.43 Y68.8
G0 X68.128 Y68.872
G0 X72.661 Y73.765
G0 X72.641 Y73.863
G1 F1200 X71.9 Y74.169 E108.96284
G1 X71.9 Y160.831 E113.28642
G1 X72.641 Y161.137 E113.32642
G1 X116.27 Y117.492 E116.40524
G1 X72.641 Y73.863 E119.4835
G0 F2400 X72.661 Y73.765
G0 X117.508 Y118.629
G0 X117.508 Y118.73
G1 F1200 X73.863 Y162.359 E122.56233
G1 X74.169 Y163.1 E122.60233
G1 X160.831 Y163.1 E126.92591
G1 X161.137 Y162.359 E126.96591
G1 X117.508 Y118.73 E130.04417
G0 F2400 X117.508 Y118.629
G0 X118.66 Y117.437
G0 X118.73 Y117.508
G1 F1200 X162.359 Y161.137 E133.12243
G1 X163.1 Y160.831 E133.16243
G1 X163.1 Y74.169 E137.48601
G1 X162.359 Y73.863 E137.52601
G1 X118.73 Y117.508 E140.60484
G0 F2400 X118.66 Y117.437
G0 X161.176 Y72.649
G0 X160.886 Y71.817
G0 X160.831 Y71.9
G1 F1200 X74.169 Y71.9 E144.92842
G1 X73.863 Y72.641 E144.96842
G1 X117.492 Y116.27 E148.04668
