;FLAVOR:Marlin
;TIME:3619
;Filament used: 3.6483m
;Layer height: 0.2
;Generated with Cura_SteamEngine 3.6.0
M82 ;absolute extrusion mode
; Ender 4 CoreXY, Due RADDS, TMC2130 Custom Start G-code
M104 S200 ; Set Extruder temperature
M140 S60 ; Set Heat Bed temperature
;CoreXY Sensorless Homing Part #1
M914 X1 Y1 ; +TMCFINE+ Setup  StallGuard Sensitivity
G92 X0 Y0
G0 X5 Y5 F6000
G28 X
M190 S60 ; Wait for Heat Bed temperature
M109 S200 ; Wait for Extruder temperature
;End Part #1
; Identifier CALIBR, CALRES and CALMPE, surrounded by #, + or - can be used in post processing
; #CALIBR# M92 X320 Y320 Z400 E440; +CALIBR+ Steps per unit
; #CALIBR#M851 Z-2.1 ; +CALIBR+  Z Probe Offset
; #CALRESO# M201 X500 Y500 Z50 E500 ; +CALRESO+ Max Accelleration
; #CALRESO# M203 X300 Y300 Z2 E90 ; +CALRESO+ Max Feed
; #CALRESO# M205 X3.0 Y3.0 Z0.3 E5.0 ; +CALRESO+ Default Jerk
;CoreXY Sensorless Homing Part #2
G0 X10 F6000
G28 X
G92 X-3
G0 X10 F6000
G28 Y
G0 Y10 F6000
G28 Y
G92 Y-3
G0 Y10 F6000
G28 Z
G0 X0 Y0 F6000
G92 E20
G1 F300 E0
;End Part #2
; #MPE# G29 ; -MPE- Auto Bed Level, uses this if FW values are set correct.
M906 X950 Y950 Z800 E800
M914 X0 Y0 ; +TMCFINE+ Setup  StallGuard Sensitivity
G1 Z5.0 F3000 ; Move Z Axis up little to prevent scratching of Heat Bed
;G1 X15.1 Y20 Z0.3 F5000.0 ; Move to start position
;G1 X15.1 Y200.0 Z0.3 F1500.0 E15 ; Draw the first line
;G1 X15.4 Y200.0 Z0.3 F5000.0 ; Move to side a little
;G1 X15.4 Y20 Z0.3 F1500.0 E30 ; Draw the second line
G92 E0 ; Reset Extruder
G1 E25
G92 E0 ; Reset Extruder
G1 Z5.0 F3000 ; Move Z Axis up little to prevent scratching of Heat Bed
;END Custom Start Code
G92 E0
G1 F1200 E-3
;LAYER_COUNT:26
;LAYER:0
M107
G0 F2400 X64.982 Y60.988 Z0.2
;TYPE:SKIRT
G1 F1200 E0
G1 X65.515 Y60.511 E0.02379
G1 X66.098 Y60.097 E0.04757
G1 X66.723 Y59.75 E0.07135
G1 X67.384 Y59.475 E0.09516
G1 X68.071 Y59.276 E0.11895
G1 X68.775 Y59.154 E0.14271
G1 X69.489 Y59.112 E0.1665
G1 X70.204 Y59.15 E0.19032
G1 X70.654 Y59.215 E0.20544
G1 X74.255 Y59.87 E0.32717
G1 X79.527 Y60.578 E0.5041
G1 X84.822 Y60.987 E0.68073
G1 X89.445 Y61.1 E0.83454
G1 X148.291 Y61.06 E2.79177
G1 X153.59 Y60.76 E2.96829
G1 X158.846 Y60.163 E3.14423
G1 X164.405 Y59.207 E3.33184
G1 X165.115 Y59.125 E3.35561
G1 X165.831 Y59.123 E3.37943
G1 X166.542 Y59.201 E3.40322
G1 X167.24 Y59.358 E3.42701
G1 X167.916 Y59.591 E3.45079
G1 X168.561 Y59.899 E3.47457
G1 X169.169 Y60.277 E3.49838
G1 X169.73 Y60.72 E3.52215
G1 X170.01 Y60.983 E3.53493
G1 X174.011 Y64.974 E3.72289
G1 X174.488 Y65.506 E3.74666
G1 X174.903 Y66.089 E3.77046
G1 X175.251 Y66.714 E3.79425
G1 X175.526 Y67.374 E3.81803
G1 X175.726 Y68.061 E3.84183
G1 X175.848 Y68.766 E3.86563
G1 X175.891 Y69.48 E3.88942
G1 X175.854 Y70.194 E3.9132
G1 X175.803 Y70.565 E3.92565
G1 X174.734 Y76.93 E4.14032
G1 X174.18 Y82.163 E4.31534
G1 X173.921 Y87.47 E4.49206
G1 X173.9 Y145.578 E6.42474
G1 X174.052 Y150.937 E6.60306
G1 X174.501 Y156.218 E6.77934
G1 X175.254 Y161.503 E6.95689
G1 X175.778 Y164.319 E7.05216
G1 X175.869 Y165.028 E7.07593
G1 X175.881 Y165.743 E7.09972
G1 X175.813 Y166.455 E7.12351
G1 X175.666 Y167.155 E7.1473
G1 X175.441 Y167.834 E7.17109
G1 X175.142 Y168.484 E7.19489
G1 X174.773 Y169.097 E7.21868
G1 X174.337 Y169.664 E7.24247
G1 X174.017 Y170.01 E7.25815
G1 X170.028 Y174.009 E7.44601
G1 X169.496 Y174.486 E7.46978
G1 X168.913 Y174.901 E7.49358
G1 X168.288 Y175.249 E7.51737
G1 X167.628 Y175.524 E7.54115
G1 X166.941 Y175.724 E7.56495
G1 X166.236 Y175.846 E7.58875
G1 X165.522 Y175.889 E7.61254
G1 X164.808 Y175.852 E7.63632
G1 X164.353 Y175.786 E7.65161
G1 X160.749 Y175.131 E7.77344
G1 X155.473 Y174.422 E7.9505
G1 X150.178 Y174.013 E8.12714
G1 X145.555 Y173.9 E8.28095
G1 X86.709 Y173.94 E10.23817
G1 X81.41 Y174.24 E10.4147
G1 X76.154 Y174.837 E10.59064
G1 X70.595 Y175.793 E10.77825
G1 X69.885 Y175.875 E10.80202
G1 X69.169 Y175.877 E10.82583
G1 X68.458 Y175.799 E10.84962
G1 X67.76 Y175.642 E10.87342
G1 X67.084 Y175.409 E10.8972
G1 X66.439 Y175.101 E10.92097
G1 X65.831 Y174.723 E10.94479
G1 X65.27 Y174.28 E10.96856
G1 X64.991 Y174.018 E10.98129
G1 X60.993 Y170.031 E11.16909
G1 X60.515 Y169.498 E11.1929
G1 X60.1 Y168.916 E11.21667
G1 X59.753 Y168.29 E11.24048
G1 X59.477 Y167.63 E11.26427
G1 X59.277 Y166.944 E11.28804
G1 X59.155 Y166.239 E11.31184
G1 X59.112 Y165.525 E11.33563
G1 X59.149 Y164.811 E11.35941
G1 X59.2 Y164.442 E11.3718
G1 X60.265 Y158.08 E11.58634
G1 X60.82 Y152.837 E11.7617
G1 X61.079 Y147.53 E11.93842
G1 X61.1 Y89.422 E13.8711
G1 X60.948 Y84.063 E14.04941
G1 X60.499 Y78.782 E14.22569
G1 X59.746 Y73.497 E14.40325
G1 X59.222 Y70.681 E14.49852
G1 X59.131 Y69.972 E14.52229
G1 X59.119 Y69.257 E14.54608
G1 X59.187 Y68.545 E14.56986
G1 X59.334 Y67.845 E14.59365
G1 X59.559 Y67.166 E14.61745
G1 X59.858 Y66.516 E14.64124
G1 X60.227 Y65.903 E14.66504
G1 X60.663 Y65.336 E14.68883
G1 X60.987 Y64.986 E14.70469
G1 X64.982 Y60.988 E14.89268
G0 F2400 X65.265 Y61.271
G1 F1200 X65.782 Y60.81 E14.91571
G1 X66.348 Y60.412 E14.93873
G1 X66.957 Y60.082 E14.96177
G1 X67.6 Y59.824 E14.98481
G1 X68.268 Y59.642 E15.00784
G1 X68.953 Y59.538 E15.03088
G1 X69.645 Y59.514 E15.05391
G1 X70.582 Y59.609 E15.08524
G1 X74.171 Y60.261 E15.20656
G1 X79.497 Y60.977 E15.3853
G1 X84.8 Y61.387 E15.5622
G1 X89.435 Y61.5 E15.71641
G1 X148.315 Y61.46 E17.67477
G1 X153.605 Y61.16 E17.85099
G1 X158.908 Y60.558 E18.02851
G1 X164.473 Y59.601 E18.21632
G1 X165.161 Y59.523 E18.23935
G1 X165.853 Y59.525 E18.26236
G1 X166.541 Y59.607 E18.28541
G1 X167.215 Y59.767 E18.30845
G1 X167.865 Y60.004 E18.33146
G1 X168.485 Y60.315 E18.35453
G1 X169.064 Y60.694 E18.37754
G1 X169.727 Y61.266 E18.40667
G1 X173.728 Y65.257 E18.59463
G1 X174.19 Y65.774 E18.61769
G1 X174.588 Y66.34 E18.6407
G1 X174.919 Y66.948 E18.66373
G1 X175.177 Y67.591 E18.68677
G1 X175.36 Y68.259 E18.70981
G1 X175.465 Y68.943 E18.73282
G1 X175.49 Y69.636 E18.75589
G1 X175.408 Y70.499 E18.78472
G1 X174.34 Y76.855 E18.99909
G1 X173.782 Y82.136 E19.17571
G1 X173.521 Y87.472 E19.3534
G1 X173.5 Y145.554 E21.28521
G1 X173.654 Y150.982 E21.46582
G1 X174.102 Y156.255 E21.64184
G1 X174.858 Y161.563 E21.82016
G1 X175.385 Y164.392 E21.91587
G1 X175.472 Y165.079 E21.93891
G1 X175.479 Y165.771 E21.96192
G1 X175.407 Y166.46 E21.98496
G1 X175.256 Y167.136 E22.008
G1 X175.028 Y167.79 E22.03104
G1 X174.726 Y168.413 E22.05406
G1 X174.354 Y168.997 E22.07709
G1 X173.734 Y169.727 E22.10895
G1 X169.745 Y173.726 E22.29682
G1 X169.228 Y174.188 E22.31988
G1 X168.662 Y174.586 E22.34289
G1 X168.054 Y174.917 E22.36591
G1 X167.411 Y175.175 E22.38896
G1 X166.743 Y175.358 E22.41199
G1 X166.059 Y175.463 E22.43501
G1 X165.366 Y175.488 E22.45808
G1 X164.424 Y175.392 E22.48957
G1 X160.829 Y174.739 E22.6111
G1 X155.503 Y174.023 E22.78983
G1 X150.2 Y173.613 E22.96674
G1 X145.565 Y173.5 E23.12094
G1 X86.685 Y173.54 E25.0793
G1 X81.395 Y173.84 E25.25553
G1 X76.092 Y174.442 E25.43304
G1 X70.527 Y175.399 E25.62085
G1 X69.839 Y175.477 E25.64388
G1 X69.147 Y175.475 E25.6669
G1 X68.459 Y175.393 E25.68994
G1 X67.785 Y175.233 E25.71298
G1 X67.135 Y174.996 E25.73599
G1 X66.515 Y174.685 E25.75906
G1 X65.936 Y174.306 E25.78208
G1 X65.273 Y173.734 E25.8112
G1 X61.275 Y169.747 E25.999
G1 X60.814 Y169.231 E26.02201
G1 X60.415 Y168.665 E26.04505
G1 X60.084 Y168.056 E26.0681
G1 X59.826 Y167.414 E26.09111
G1 X59.643 Y166.746 E26.11415
G1 X59.538 Y166.061 E26.1372
G1 X59.513 Y165.369 E26.16023
G1 X59.594 Y164.508 E26.18899
G1 X60.66 Y158.138 E26.40381
G1 X61.218 Y152.864 E26.5802
G1 X61.479 Y147.528 E26.75789
G1 X61.5 Y89.446 E28.6897
G1 X61.346 Y84.018 E28.87031
G1 X60.898 Y78.745 E29.04632
G1 X60.142 Y73.437 E29.22465
G1 X59.615 Y70.608 E29.32036
G1 X59.528 Y69.921 E29.34339
G1 X59.521 Y69.229 E29.36641
G1 X59.593 Y68.54 E29.38945
G1 X59.744 Y67.864 E29.41249
G1 X59.972 Y67.21 E29.43553
G1 X60.274 Y66.587 E29.45855
G1 X60.646 Y66.003 E29.48158
G1 X61.27 Y65.269 E29.51363
G1 X65.265 Y61.271 E29.70161
G0 F2400 X65.548 Y61.554
G1 F1200 X66.048 Y61.11 E29.72385
G1 X66.598 Y60.728 E29.74612
G1 X67.189 Y60.415 E29.76837
G1 X67.813 Y60.175 E29.7906
G1 X68.462 Y60.011 E29.81287
G1 X69.126 Y59.925 E29.83514
G1 X69.795 Y59.919 E29.85739
G1 X70.51 Y60.002 E29.88133
G1 X74.13 Y60.66 E30.0037
G1 X79.448 Y61.374 E30.18217
G1 X84.78 Y61.787 E30.36004
G1 X89.426 Y61.9 E30.51461
G1 X148.319 Y61.86 E32.4734
G1 X153.655 Y61.558 E32.65116
G1 X158.952 Y60.956 E32.82848
G1 X164.541 Y59.995 E33.01709
G1 X165.205 Y59.921 E33.03932
G1 X165.874 Y59.927 E33.06157
G1 X166.538 Y60.013 E33.08384
G1 X167.187 Y60.177 E33.1061
G1 X167.811 Y60.418 E33.12835
G1 X168.402 Y60.731 E33.15059
G1 X168.952 Y61.112 E33.17285
G1 X169.445 Y61.549 E33.19476
G1 X173.446 Y65.54 E33.38272
G1 X173.89 Y66.04 E33.40496
G1 X174.272 Y66.59 E33.42723
G1 X174.586 Y67.181 E33.44949
G1 X174.827 Y67.805 E33.47174
G1 X174.991 Y68.453 E33.49397
G1 X175.078 Y69.117 E33.51624
G1 X175.084 Y69.786 E33.5385
G1 X175.014 Y70.433 E33.56014
G1 X173.942 Y76.813 E33.77532
G1 X173.382 Y82.111 E33.95251
G1 X173.121 Y87.452 E34.13036
G1 X173.1 Y145.566 E36.06324
G1 X173.254 Y150.992 E36.24379
G1 X173.706 Y156.311 E36.42133
G1 X174.465 Y161.642 E36.60043
G1 X174.991 Y164.465 E36.69594
G1 X175.074 Y165.129 E36.7182
G1 X175.078 Y165.798 E36.74045
G1 X175.001 Y166.463 E36.76271
G1 X174.846 Y167.113 E36.78494
G1 X174.614 Y167.741 E36.80721
G1 X174.309 Y168.336 E36.82945
G1 X173.935 Y168.891 E36.8517
G1 X173.451 Y169.445 E36.87617
G1 X169.462 Y173.444 E37.06404
G1 X168.962 Y173.888 E37.08628
G1 X168.412 Y174.27 E37.10855
G1 X167.821 Y174.584 E37.13081
G1 X167.197 Y174.825 E37.15306
G1 X166.549 Y174.989 E37.17529
G1 X165.885 Y175.076 E37.19756
G1 X165.216 Y175.082 E37.21982
G1 X164.496 Y174.999 E37.24392
G1 X160.87 Y174.34 E37.3665
G1 X155.552 Y173.626 E37.54496
G1 X150.22 Y173.213 E37.72284
G1 X145.574 Y173.1 E37.87741
G1 X86.681 Y173.14 E39.8362
G1 X81.345 Y173.442 E40.01396
G1 X76.048 Y174.044 E40.19127
G1 X70.459 Y175.005 E40.37989
G1 X69.795 Y175.079 E40.40211
G1 X69.126 Y175.073 E40.42436
G1 X68.462 Y174.987 E40.44663
G1 X67.813 Y174.823 E40.4689
G1 X67.189 Y174.582 E40.49115
G1 X66.598 Y174.269 E40.51339
G1 X66.048 Y173.888 E40.53564
G1 X65.556 Y173.451 E40.55753
G1 X61.558 Y169.464 E40.74533
G1 X61.113 Y168.964 E40.76759
G1 X60.731 Y168.415 E40.78983
G1 X60.417 Y167.824 E40.81209
G1 X60.177 Y167.2 E40.83433
G1 X60.012 Y166.552 E40.85657
G1 X59.926 Y165.888 E40.87884
G1 X59.919 Y165.219 E40.90109
G1 X59.989 Y164.574 E40.92267
G1 X61.057 Y158.197 E41.13772
G1 X61.618 Y152.889 E41.31525
G1 X61.879 Y147.548 E41.49311
G1 X61.9 Y89.434 E43.42598
G1 X61.746 Y84.008 E43.60653
G1 X61.294 Y78.689 E43.78408
G1 X60.535 Y73.358 E43.96317
G1 X60.009 Y70.535 E44.05868
G1 X59.926 Y69.871 E44.08094
G1 X59.922 Y69.202 E44.10319
G1 X59.999 Y68.537 E44.12546
G1 X60.154 Y67.887 E44.14768
G1 X60.386 Y67.259 E44.16995
G1 X60.691 Y66.664 E44.19219
G1 X61.065 Y66.109 E44.21445
G1 X61.553 Y65.552 E44.23908
G1 X65.548 Y61.554 E44.42706
G0 F2400 X65.831 Y61.836
G1 F1200 X66.314 Y61.41 E44.44848
G1 X66.846 Y61.046 E44.46992
G1 X67.419 Y60.75 E44.49137
G1 X68.024 Y60.528 E44.5128
G1 X68.652 Y60.383 E44.53424
G1 X69.294 Y60.316 E44.55571
G1 X69.938 Y60.33 E44.57714
G1 X70.439 Y60.396 E44.59394
G1 X74.053 Y61.053 E44.71611
G1 X79.398 Y61.771 E44.89549
G1 X84.777 Y62.187 E45.07493
G1 X89.417 Y62.3 E45.2293
G1 X148.324 Y62.26 E47.18856
G1 X153.689 Y61.956 E47.36728
G1 X159.009 Y61.352 E47.54536
G1 X164.608 Y60.389 E47.73432
G1 X165.249 Y60.32 E47.75576
G1 X165.894 Y60.33 E47.77722
G1 X166.532 Y60.42 E47.79865
G1 X167.155 Y60.588 E47.82011
G1 X167.751 Y60.831 E47.84152
G1 X168.313 Y61.147 E47.86296
G1 X168.832 Y61.53 E47.88442
G1 X169.162 Y61.832 E47.89929
G1 X173.163 Y65.823 E48.08725
G1 X173.591 Y66.306 E48.10872
G1 X173.955 Y66.838 E48.13016
G1 X174.251 Y67.411 E48.15161
G1 X174.473 Y68.016 E48.17304
G1 X174.619 Y68.644 E48.19449
G1 X174.686 Y69.285 E48.21592
G1 X174.674 Y69.93 E48.23738
G1 X174.619 Y70.366 E48.252
G1 X173.546 Y76.752 E48.46737
G1 X172.984 Y82.066 E48.6451
G1 X172.721 Y87.453 E48.82449
G1 X172.7 Y145.577 E50.7577
G1 X172.854 Y151.02 E50.93881
G1 X173.307 Y156.347 E51.11662
G1 X174.07 Y161.702 E51.29653
G1 X174.598 Y164.538 E51.39248
G1 X174.677 Y165.178 E51.41393
G1 X174.675 Y165.823 E51.43538
G1 X174.594 Y166.462 E51.4568
G1 X174.435 Y167.087 E51.47825
G1 X174.199 Y167.687 E51.4997
G1 X173.891 Y168.253 E51.52113
G1 X173.515 Y168.777 E51.54258
G1 X173.168 Y169.162 E51.55982
G1 X169.179 Y173.161 E51.74768
G1 X168.696 Y173.589 E51.76915
G1 X168.164 Y173.953 E51.79059
G1 X167.591 Y174.249 E51.81204
G1 X166.986 Y174.471 E51.83347
G1 X166.358 Y174.617 E51.85492
G1 X165.717 Y174.684 E51.87635
G1 X165.072 Y174.672 E51.89781
G1 X164.567 Y174.605 E51.91475
G1 X160.947 Y173.947 E52.03713
G1 X155.602 Y173.229 E52.2165
G1 X150.223 Y172.813 E52.39594
G1 X145.583 Y172.7 E52.55031
G1 X86.676 Y172.74 E54.50957
G1 X81.311 Y173.044 E54.68829
G1 X75.991 Y173.648 E54.86638
G1 X70.392 Y174.611 E55.05533
G1 X69.751 Y174.68 E55.07678
G1 X69.106 Y174.67 E55.09823
G1 X68.468 Y174.58 E55.11966
G1 X67.845 Y174.412 E55.14112
G1 X67.249 Y174.169 E55.16253
G1 X66.687 Y173.853 E55.18397
G1 X66.168 Y173.47 E55.20543
G1 X65.838 Y173.168 E55.22031
G1 X61.84 Y169.181 E55.4081
G1 X61.413 Y168.698 E55.42954
G1 X61.048 Y168.167 E55.45098
G1 X60.753 Y167.594 E55.47241
G1 X60.53 Y166.989 E55.49386
G1 X60.384 Y166.361 E55.5153
G1 X60.317 Y165.72 E55.53674
G1 X60.329 Y165.075 E55.55819
G1 X60.383 Y164.64 E55.57277
G1 X61.455 Y158.239 E55.78864
G1 X62.016 Y152.934 E55.96606
G1 X62.279 Y147.547 E56.14545
G1 X62.3 Y89.423 E58.07866
G1 X62.146 Y83.98 E58.25977
G1 X61.693 Y78.653 E58.43759
G1 X60.93 Y73.298 E58.61749
G1 X60.402 Y70.462 E58.71344
G1 X60.323 Y69.822 E58.73489
G1 X60.325 Y69.177 E58.75634
G1 X60.406 Y68.538 E58.77776
G1 X60.565 Y67.913 E58.79921
G1 X60.801 Y67.313 E58.82066
G1 X61.109 Y66.747 E58.84209
G1 X61.485 Y66.223 E58.86354
G1 X61.836 Y65.834 E58.88097
G1 X65.831 Y61.836 E59.06895
G1 F1200 E56.06895
G1 F300 Z0.8
;MESH:YACS.stl
G0 F2400 X67.43 Y68.9 Z0.8
;TYPE:WALL-INNER
G1 F300 Z0.2
G1 F1200 E59.06895
G1 X67.428 Y68.9 E59.06902
G1 X66.948 Y68.9 E59.08498
G1 X67.288 Y68.56 E59.09359
G1 X68.56 Y67.288 E59.15342
G1 X68.9 Y66.948 E59.16941
G1 X68.9 Y67.428 E59.178
G1 X68.9 Y67.43 E59.17807
G1 X68.9 Y68.1 E59.20035
G1 X166.1 Y68.1 E62.43323
G1 X166.1 Y67.43 E62.45552
G1 X166.1 Y67.428 E62.45559
G1 X166.1 Y66.948 E62.47155
G1 X166.44 Y67.288 E62.48015
G1 X167.712 Y68.56 E62.53999
G1 X168.052 Y68.9 E62.55598
G1 X167.572 Y68.9 E62.56457
G1 X167.57 Y68.9 E62.56463
G1 X166.9 Y68.9 E62.58692
G1 X166.9 Y166.1 E65.8198
G1 X167.57 Y166.1 E65.84209
G1 X167.572 Y166.1 E65.84215
G1 X168.052 Y166.1 E65.85812
G1 X167.712 Y166.44 E65.86672
G1 X166.44 Y167.712 E65.92655
G1 X166.1 Y168.052 E65.94255
G1 X166.1 Y167.572 E65.95114
G1 X166.1 Y167.57 E65.9512
G1 X166.1 Y166.9 E65.97349
G1 X68.9 Y166.9 E69.20637
G1 X68.9 Y167.57 E69.22866
G1 X68.9 Y167.572 E69.22872
G1 X68.9 Y168.052 E69.24469
G1 X68.56 Y167.712 E69.25329
G1 X67.288 Y166.44 E69.31312
G1 X66.948 Y166.1 E69.32912
G1 X67.428 Y166.1 E69.33771
G1 X67.43 Y166.1 E69.33777
G1 X68.1 Y166.1 E69.36006
G1 X68.1 Y68.9 E72.59294
G1 X67.43 Y68.9 E72.61523
G0 F2400 X67.43 Y68.8
G0 X68.128 Y68.872
G0 X72.661 Y73.765
G0 X72.641 Y73.863
G1 F1200 X71.9 Y74.169 E72.64189
G1 X71.9 Y160.831 E75.52428
G1 X72.641 Y161.137 E75.55094
G1 X116.27 Y117.492 E77.6035
G1 X72.641 Y73.863 E79.65567
G0 F2400 X72.661 Y73.765
G0 X117.508 Y118.629
G0 X117.508 Y118.73
G1 F1200 X73.863 Y162.359 E81.70822
G1 X74.169 Y163.1 E81.73489
G1 X160.831 Y163.1 E84.61727
G1 X161.137 Y162.359 E84.64394
G1 X117.508 Y118.73 E86.69611
G0 F2400 X117.508 Y118.629
G0 X118.66 Y117.437
G0 X118.73 Y117.508
G1 F1200 X162.359 Y161.137 E88.74829
G1 X163.1 Y160.831 E88.77495
G1 X163.1 Y74.169 E91.65734
G1 X162.359 Y73.863 E91.68401
G1 X118.73 Y117.508 E93.73656
G0 F2400 X118.66 Y117.437
G0 X161.176 Y72.649
G0 X160.886 Y71.817
G0 X160.831 Y71.9
G1 F1200 X74.169 Y71.9 E96.61895
G1 X73.863 Y72.641 E96.64561
G1 X117.492 Y116.27 E98.69779
G1 X161.137 Y72.641 E100.75034
G1 X160.831 Y71.9 E100.777
G0 F2400 X160.563 Y72.3
;TYPE:WALL-OUTER
