;FLAVOR:Marlin
;TIME:2862
;Filament used: 1.74093m, 0.747908m
;Layer height: 0.2
;MINX:27.911
;MINY:93.4
;MINZ:0.3
;MAXX:84.414
;MAXY:199.414
;MAXZ:20.9
;Generated with Cura_SteamEngine 4.2.1
T0
M140 S60
M105
M190 S60
M104 S200
M104 T1 S175
M105
M109 S200
M105
M109 T1 S175
M82 ;absolute extrusion mode

G21        ;metric values
G90        ;absolute positioning
M82        ;set extruder to absolute mode
M107       ;start with the fan off
G28 X0 Y0  ;move X/Y to min endstops
G28 Z0     ;move Z to min endstops
G1 X0 Y0 Z15.0 F120 ;move the platform down 15mm
G92 E0                  ;zero the extruded length
G1 F200 E25              ;extrude 3mm of feed stock
G92 E0                  ;zero the extruded length again
G1 F120
M117 Printing...
G92 E0
G92 E0
G1 F1500 E-6.5
;LAYER_COUNT:99
;LAYER:0
M107
G0 F3600 X58.665 Y165.355 Z0.3
;TYPE:SKIRT
G1 F1500 E0
G1 F1350 X59.369 Y165.105 E0.03727
G1 X60.776 Y164.679 E0.11061
G1 X61.542 Y164.488 E0.15
G1 X62.272 Y164.381 E0.18681
G1 X63.736 Y164.237 E0.2602
G1 X64.525 Y164.2 E0.29961
G1 X65.264 Y164.238 E0.33652
G1 X66.727 Y164.382 E0.40987
G1 X67.508 Y164.499 E0.44927
G1 X68.223 Y164.679 E0.48605
G1 X69.63 Y165.105 E0.55939
G1 X70.374 Y165.371 E0.59881
G1 X71.048 Y165.692 E0.63606
G1 X72.344 Y166.385 E0.70938
G1 X73.021 Y166.792 E0.74879
G1 X73.614 Y167.233 E0.78566
G1 X74.751 Y168.166 E0.85904
G1 X75.335 Y168.697 E0.89841
G1 X75.833 Y169.248 E0.93547
G1 X76.766 Y170.385 E1.00885
G1 X77.235 Y171.02 E1.04823
G1 X77.614 Y171.655 E1.08512
G1 X78.307 Y172.951 E1.15845
G1 X78.644 Y173.665 E1.19784
G1 X78.894 Y174.369 E1.23511
G1 X79.32 Y175.776 E1.30845
G1 X79.511 Y176.542 E1.34784
G1 X79.617 Y177.267 E1.38439
G1 X79.762 Y178.731 E1.45779
G1 X79.8 Y179.52 E1.4972
G1 X79.762 Y180.269 E1.53461
G1 X79.617 Y181.732 E1.60796
G1 X79.499 Y182.513 E1.64737
G1 X79.32 Y183.223 E1.6839
G1 X78.894 Y184.63 E1.75724
G1 X78.628 Y185.374 E1.79666
G1 X78.307 Y186.048 E1.8339
G1 X77.614 Y187.344 E1.90722
G1 X77.207 Y188.021 E1.94663
G1 X76.766 Y188.614 E1.9835
G1 X75.833 Y189.751 E2.05688
G1 X75.302 Y190.335 E2.09626
G1 X74.751 Y190.833 E2.13331
G1 X73.614 Y191.766 E2.20669
G1 X72.979 Y192.235 E2.24608
G1 X72.344 Y192.614 E2.28297
G1 X71.048 Y193.307 E2.35629
G1 X70.334 Y193.644 E2.39568
G1 X69.63 Y193.894 E2.43295
G1 X68.223 Y194.32 E2.5063
G1 X67.457 Y194.511 E2.54568
G1 X66.732 Y194.617 E2.58224
G1 X65.269 Y194.762 E2.65558
G1 X64.481 Y194.8 E2.69494
G1 X63.731 Y194.762 E2.73241
G1 X62.267 Y194.617 E2.8058
G1 X61.486 Y194.5 E2.8452
G1 X60.776 Y194.32 E2.88175
G1 X59.369 Y193.894 E2.95509
G1 X58.625 Y193.628 E2.99451
G1 X57.951 Y193.307 E3.03175
G1 X56.655 Y192.614 E3.10507
G1 X55.978 Y192.207 E3.14448
G1 X55.385 Y191.766 E3.18135
G1 X54.248 Y190.833 E3.25473
G1 X53.664 Y190.302 E3.29411
G1 X53.166 Y189.751 E3.33116
G1 X52.233 Y188.614 E3.40454
G1 X51.764 Y187.979 E3.44393
G1 X51.385 Y187.344 E3.48082
G1 X50.692 Y186.048 E3.55414
G1 X50.355 Y185.334 E3.59353
G1 X50.105 Y184.63 E3.6308
G1 X49.679 Y183.223 E3.70415
G1 X49.488 Y182.457 E3.74353
G1 X49.382 Y181.727 E3.78033
G1 X49.238 Y180.264 E3.85368
G1 X49.2 Y179.475 E3.89308
G1 X49.237 Y178.736 E3.93
G1 X49.381 Y177.272 E4.00339
G1 X49.498 Y176.492 E4.04274
G1 X49.679 Y175.776 E4.07959
G1 X50.105 Y174.369 E4.15293
G1 X50.371 Y173.625 E4.19235
G1 X50.692 Y172.951 E4.22959
G1 X51.385 Y171.655 E4.30291
G1 X51.792 Y170.978 E4.34232
G1 X52.233 Y170.385 E4.37919
G1 X53.166 Y169.248 E4.45257
G1 X53.697 Y168.664 E4.49195
G1 X54.248 Y168.166 E4.529
G1 X55.385 Y167.233 E4.60238
G1 X56.02 Y166.764 E4.64177
G1 X56.655 Y166.385 E4.67866
G1 X57.951 Y165.692 E4.75198
G1 X58.665 Y165.355 E4.79137
G0 F3600 X58.836 Y165.717
G1 F1350 X59.485 Y165.488 E4.82571
G1 X60.892 Y165.062 E4.89905
G1 X61.638 Y164.877 E4.9374
G1 X62.312 Y164.78 E4.97137
G1 X63.776 Y164.636 E5.04476
G1 X64.544 Y164.6 E5.08312
G1 X65.225 Y164.636 E5.11714
G1 X66.688 Y164.78 E5.19048
G1 X67.448 Y164.895 E5.22883
G1 X68.107 Y165.062 E5.26275
G1 X69.514 Y165.488 E5.33609
G1 X70.238 Y165.748 E5.37447
G1 X70.859 Y166.044 E5.40879
G1 X72.155 Y166.737 E5.48211
G1 X72.814 Y167.135 E5.52052
G1 X73.36 Y167.542 E5.55449
G1 X74.497 Y168.475 E5.62787
G1 X75.066 Y168.994 E5.6663
G1 X75.524 Y169.502 E5.70042
G1 X76.457 Y170.639 E5.7738
G1 X76.913 Y171.258 E5.81216
G1 X77.262 Y171.844 E5.84618
G1 X77.955 Y173.14 E5.9195
G1 X78.282 Y173.836 E5.95787
G1 X78.511 Y174.485 E5.9922
G1 X78.937 Y175.892 E6.06555
G1 X79.122 Y176.638 E6.10389
G1 X79.219 Y177.307 E6.13762
G1 X79.364 Y178.771 E6.21101
G1 X79.4 Y179.539 E6.24937
G1 X79.364 Y180.23 E6.28389
G1 X79.219 Y181.693 E6.35724
G1 X79.103 Y182.453 E6.3956
G1 X78.937 Y183.107 E6.42926
G1 X78.511 Y184.514 E6.5026
G1 X78.251 Y185.238 E6.54098
G1 X77.955 Y185.859 E6.5753
G1 X77.262 Y187.155 E6.64862
G1 X76.864 Y187.814 E6.68703
G1 X76.457 Y188.36 E6.72101
G1 X75.524 Y189.497 E6.79438
G1 X75.005 Y190.066 E6.83281
G1 X74.497 Y190.524 E6.86693
G1 X73.36 Y191.457 E6.94031
G1 X72.741 Y191.913 E6.97867
G1 X72.155 Y192.262 E7.01269
G1 X70.859 Y192.955 E7.08602
G1 X70.163 Y193.282 E7.12438
G1 X69.514 Y193.511 E7.15872
G1 X68.107 Y193.937 E7.23206
G1 X67.361 Y194.122 E7.2704
G1 X66.693 Y194.219 E7.30408
G1 X65.23 Y194.364 E7.37743
G1 X64.462 Y194.4 E7.41578
G1 X63.771 Y194.364 E7.45031
G1 X62.307 Y194.219 E7.5237
G1 X61.546 Y194.103 E7.56211
G1 X60.892 Y193.937 E7.59577
G1 X59.485 Y193.511 E7.66911
G1 X58.761 Y193.251 E7.70749
G1 X58.14 Y192.955 E7.74181
G1 X56.844 Y192.262 E7.81513
G1 X56.185 Y191.864 E7.85354
G1 X55.639 Y191.457 E7.88752
G1 X54.502 Y190.524 E7.9609
G1 X53.933 Y190.005 E7.99932
G1 X53.475 Y189.497 E8.03344
G1 X52.542 Y188.36 E8.10682
G1 X52.086 Y187.741 E8.14518
G1 X51.737 Y187.155 E8.17921
G1 X51.044 Y185.859 E8.25253
G1 X50.717 Y185.163 E8.29089
G1 X50.488 Y184.514 E8.32523
G1 X50.062 Y183.107 E8.39857
G1 X49.877 Y182.361 E8.43692
G1 X49.78 Y181.688 E8.47084
G1 X49.636 Y180.225 E8.54418
G1 X49.6 Y179.457 E8.58254
G1 X49.636 Y178.776 E8.61656
G1 X49.78 Y177.312 E8.68995
G1 X49.895 Y176.551 E8.72835
G1 X50.062 Y175.892 E8.76227
G1 X50.488 Y174.485 E8.83561
G1 X50.748 Y173.761 E8.87399
G1 X51.044 Y173.14 E8.90831
G1 X51.737 Y171.844 E8.98163
G1 X52.135 Y171.185 E9.02004
G1 X52.542 Y170.639 E9.05401
G1 X53.475 Y169.502 E9.12739
G1 X53.994 Y168.933 E9.16582
G1 X54.502 Y168.475 E9.19994
G1 X55.639 Y167.542 E9.27332
G1 X56.258 Y167.086 E9.31168
G1 X56.844 Y166.737 E9.3457
G1 X58.14 Y166.044 E9.41902
G1 X58.836 Y165.717 E9.45739
G0 F3600 X59.006 Y166.08
G1 F1350 X59.601 Y165.87 E9.48887
G1 X61.008 Y165.444 E9.56221
G1 X61.734 Y165.266 E9.5995
G1 X62.351 Y165.178 E9.6306
G1 X63.815 Y165.034 E9.70399
G1 X64.562 Y165 E9.7413
G1 X65.186 Y165.034 E9.77247
G1 X66.649 Y165.178 E9.84582
G1 X67.388 Y165.291 E9.88311
G1 X67.991 Y165.444 E9.91415
G1 X69.398 Y165.87 E9.98749
G1 X70.102 Y166.125 E10.02485
G1 X70.671 Y166.397 E10.05631
G1 X71.967 Y167.09 E10.12963
G1 X72.607 Y167.478 E10.16697
G1 X73.106 Y167.852 E10.19808
G1 X74.243 Y168.785 E10.27146
G1 X74.796 Y169.289 E10.30879
G1 X75.214 Y169.756 E10.34006
G1 X76.147 Y170.893 E10.41344
G1 X76.59 Y171.495 E10.45073
G1 X76.909 Y172.032 E10.48189
G1 X77.602 Y173.328 E10.55521
G1 X77.919 Y174.006 E10.59255
G1 X78.129 Y174.601 E10.62403
G1 X78.555 Y176.008 E10.69737
G1 X78.733 Y176.734 E10.73467
G1 X78.821 Y177.346 E10.76551
G1 X78.966 Y178.81 E10.83891
G1 X79 Y179.557 E10.87622
G1 X78.966 Y180.19 E10.90784
G1 X78.821 Y181.653 E10.98119
G1 X78.707 Y182.393 E11.01854
G1 X78.555 Y182.991 E11.04933
G1 X78.129 Y184.398 E11.12267
G1 X77.874 Y185.102 E11.16002
G1 X77.602 Y185.671 E11.19149
G1 X76.909 Y186.967 E11.26481
G1 X76.521 Y187.607 E11.30215
G1 X76.147 Y188.106 E11.33326
G1 X75.214 Y189.243 E11.40664
G1 X74.71 Y189.796 E11.44397
G1 X74.243 Y190.214 E11.47524
G1 X73.106 Y191.147 E11.54861
G1 X72.504 Y191.59 E11.5859
G1 X71.967 Y191.909 E11.61707
G1 X70.671 Y192.602 E11.69039
G1 X69.993 Y192.919 E11.72773
G1 X69.398 Y193.129 E11.75921
G1 X67.991 Y193.555 E11.83255
G1 X67.265 Y193.733 E11.86984
G1 X66.653 Y193.821 E11.90069
G1 X65.19 Y193.966 E11.97404
G1 X64.443 Y194 E12.01134
G1 X63.81 Y193.966 E12.04297
G1 X62.346 Y193.821 E12.11637
G1 X61.607 Y193.708 E12.15366
G1 X61.008 Y193.555 E12.18451
G1 X59.601 Y193.129 E12.25785
G1 X58.897 Y192.874 E12.2952
G1 X58.328 Y192.602 E12.32667
G1 X57.032 Y191.909 E12.39999
G1 X56.392 Y191.521 E12.43733
G1 X55.893 Y191.147 E12.46844
G1 X54.756 Y190.214 E12.54182
G1 X54.203 Y189.71 E12.57915
G1 X53.785 Y189.243 E12.61042
G1 X52.852 Y188.106 E12.68379
G1 X52.409 Y187.504 E12.72108
G1 X52.09 Y186.967 E12.75225
G1 X51.397 Y185.671 E12.82557
G1 X51.08 Y184.993 E12.86291
G1 X50.87 Y184.398 E12.89439
G1 X50.444 Y182.991 E12.96773
G1 X50.266 Y182.265 E13.00502
G1 X50.178 Y181.649 E13.03607
G1 X50.034 Y180.186 E13.10941
G1 X50 Y179.438 E13.14676
G1 X50.034 Y178.815 E13.17789
G1 X50.178 Y177.351 E13.25128
G1 X50.291 Y176.611 E13.28863
G1 X50.444 Y176.008 E13.31967
G1 X50.87 Y174.601 E13.39301
G1 X51.125 Y173.897 E13.43037
G1 X51.397 Y173.328 E13.46183
G1 X52.09 Y172.032 E13.53515
G1 X52.478 Y171.392 E13.57249
G1 X52.852 Y170.893 E13.6036
G1 X53.785 Y169.756 E13.67698
G1 X54.289 Y169.203 E13.71431
G1 X54.756 Y168.785 E13.74558
G1 X55.893 Y167.852 E13.81896
G1 X56.495 Y167.409 E13.85625
G1 X57.032 Y167.09 E13.88741
G1 X58.328 Y166.397 E13.96073
G1 X59.006 Y166.08 E13.99807
G0 F3600 X59.175 Y166.443
G1 F1350 X59.716 Y166.253 E14.02668
G1 X61.123 Y165.827 E14.10002
G1 X61.829 Y165.655 E14.13627
G1 X62.39 Y165.576 E14.16454
G1 X63.854 Y165.432 E14.23793
G1 X64.58 Y165.4 E14.27418
G1 X65.146 Y165.432 E14.30247
G1 X66.609 Y165.576 E14.37581
G1 X67.327 Y165.687 E14.41205
G1 X67.876 Y165.827 E14.44032
G1 X69.283 Y166.253 E14.51366
G1 X69.965 Y166.502 E14.54988
G1 X70.482 Y166.75 E14.57849
G1 X71.778 Y167.443 E14.65181
G1 X72.399 Y167.82 E14.68806
G1 X72.853 Y168.161 E14.71638
G1 X73.99 Y169.094 E14.78976
G1 X74.525 Y169.585 E14.82599
G1 X74.905 Y170.009 E14.8544
G1 X75.838 Y171.146 E14.92778
G1 X76.267 Y171.732 E14.96401
G1 X76.556 Y172.221 E14.99235
G1 X77.249 Y173.517 E15.06567
G1 X77.556 Y174.175 E15.10189
G1 X77.746 Y174.716 E15.1305
G1 X78.172 Y176.123 E15.20384
G1 X78.344 Y176.829 E15.2401
G1 X78.423 Y177.385 E15.26811
G1 X78.568 Y178.849 E15.34151
G1 X78.6 Y179.575 E15.37776
G1 X78.568 Y180.151 E15.40655
G1 X78.423 Y181.614 E15.47989
G1 X78.312 Y182.332 E15.51614
G1 X78.172 Y182.876 E15.54416
G1 X77.746 Y184.283 E15.61751
G1 X77.497 Y184.965 E15.65373
G1 X77.249 Y185.482 E15.68234
G1 X76.556 Y186.778 E15.75566
G1 X76.179 Y187.399 E15.7919
G1 X75.838 Y187.853 E15.82023
G1 X74.905 Y188.99 E15.89361
G1 X74.414 Y189.525 E15.92984
G1 X73.99 Y189.905 E15.95824
G1 X72.853 Y190.838 E16.03162
G1 X72.267 Y191.267 E16.06785
G1 X71.778 Y191.556 E16.09619
G1 X70.482 Y192.249 E16.16951
G1 X69.824 Y192.556 E16.20574
G1 X69.283 Y192.746 E16.23434
G1 X67.876 Y193.172 E16.30769
G1 X67.17 Y193.344 E16.34394
G1 X66.614 Y193.423 E16.37196
G1 X65.151 Y193.568 E16.4453
G1 X64.425 Y193.6 E16.48156
G1 X63.849 Y193.568 E16.51034
G1 X62.385 Y193.423 E16.58374
G1 X61.668 Y193.312 E16.61993
G1 X61.123 Y193.172 E16.64801
G1 X59.716 Y192.746 E16.72135
G1 X59.034 Y192.497 E16.75757
G1 X58.517 Y192.249 E16.78618
G1 X57.221 Y191.556 E16.8595
G1 X56.6 Y191.179 E16.89574
G1 X56.146 Y190.838 E16.92407
G1 X55.009 Y189.905 E16.99745
G1 X54.474 Y189.414 E17.03368
G1 X54.094 Y188.99 E17.06208
G1 X53.161 Y187.853 E17.13546
G1 X52.732 Y187.267 E17.1717
G1 X52.443 Y186.778 E17.20003
G1 X51.75 Y185.482 E17.27335
G1 X51.443 Y184.824 E17.30958
G1 X51.253 Y184.283 E17.33819
G1 X50.827 Y182.876 E17.41153
G1 X50.655 Y182.17 E17.44778
G1 X50.576 Y181.609 E17.47605
G1 X50.432 Y180.146 E17.54939
G1 X50.4 Y179.421 E17.58559
G1 X50.432 Y178.854 E17.61393
G1 X50.576 Y177.39 E17.68732
G1 X50.686 Y176.672 E17.72356
G1 X50.827 Y176.123 E17.75184
G1 X51.253 Y174.716 E17.82518
G1 X51.502 Y174.034 E17.8614
G1 X51.75 Y173.517 E17.89001
G1 X52.443 Y172.221 E17.96333
G1 X52.82 Y171.6 E17.99957
G1 X53.161 Y171.146 E18.0279
G1 X54.094 Y170.009 E18.10128
G1 X54.585 Y169.474 E18.13751
G1 X55.009 Y169.094 E18.16591
G1 X56.146 Y168.161 E18.23929
G1 X56.732 Y167.732 E18.27552
G1 X57.221 Y167.443 E18.30386
G1 X58.517 Y166.75 E18.37718
G1 X59.175 Y166.443 E18.41341
G0 F3600 X59.344 Y166.806
G1 F1350 X59.832 Y166.636 E18.43919
G1 X61.239 Y166.21 E18.51253
G1 X61.924 Y166.045 E18.54768
G1 X62.429 Y165.974 E18.57313
G1 X63.893 Y165.83 E18.64652
G1 X64.596 Y165.801 E18.68162
G1 X65.107 Y165.83 E18.70716
G1 X66.57 Y165.974 E18.7805
G1 X67.266 Y166.082 E18.81564
G1 X67.76 Y166.21 E18.8411
G1 X69.167 Y166.636 E18.91444
G1 X69.828 Y166.878 E18.94956
G1 X70.294 Y167.103 E18.97537
G1 X71.59 Y167.796 E19.0487
G1 X72.191 Y168.162 E19.0838
G1 X72.599 Y168.47 E19.10931
G1 X73.736 Y169.403 E19.18268
G1 X74.254 Y169.88 E19.21782
G1 X74.596 Y170.263 E19.24343
G1 X75.529 Y171.4 E19.31681
G1 X75.944 Y171.969 E19.35195
G1 X76.203 Y172.409 E19.37742
G1 X76.896 Y173.705 E19.45074
G1 X77.193 Y174.344 E19.4859
G1 X77.363 Y174.832 E19.51168
G1 X77.789 Y176.239 E19.58502
G1 X77.954 Y176.924 E19.62017
G1 X78.025 Y177.425 E19.64542
G1 X78.17 Y178.889 E19.71881
G1 X78.199 Y179.592 E19.75392
G1 X78.17 Y180.111 E19.77985
G1 X78.025 Y181.574 E19.8532
G1 X77.916 Y182.27 E19.88834
G1 X77.789 Y182.76 E19.9136
G1 X77.363 Y184.167 E19.98694
G1 X77.121 Y184.828 E20.02206
G1 X76.896 Y185.294 E20.04787
G1 X76.203 Y186.59 E20.1212
G1 X75.837 Y187.191 E20.1563
G1 X75.529 Y187.599 E20.18181
G1 X74.596 Y188.736 E20.25518
G1 X74.119 Y189.254 E20.29032
G1 X73.736 Y189.596 E20.31593
G1 X72.599 Y190.529 E20.38931
G1 X72.03 Y190.944 E20.42445
G1 X71.59 Y191.203 E20.44992
G1 X70.294 Y191.896 E20.52324
G1 X69.655 Y192.193 E20.5584
G1 X69.167 Y192.363 E20.58418
G1 X67.76 Y192.789 E20.65752
G1 X67.075 Y192.954 E20.69267
G1 X66.574 Y193.025 E20.71792
G1 X65.111 Y193.17 E20.79126
G1 X64.408 Y193.199 E20.82637
G1 X63.889 Y193.17 E20.8523
G1 X62.425 Y193.025 E20.9257
G1 X61.729 Y192.916 E20.96084
G1 X61.239 Y192.789 E20.9861
G1 X59.832 Y192.363 E21.05944
G1 X59.171 Y192.121 E21.09456
G1 X58.705 Y191.896 E21.12037
G1 X57.409 Y191.203 E21.1937
G1 X56.808 Y190.837 E21.2288
G1 X56.4 Y190.529 E21.25431
G1 X55.263 Y189.596 E21.32768
G1 X54.745 Y189.119 E21.36282
G1 X54.403 Y188.736 E21.38843
G1 X53.47 Y187.599 E21.46181
G1 X53.055 Y187.03 E21.49695
G1 X52.796 Y186.59 E21.52242
G1 X52.103 Y185.294 E21.59574
G1 X51.806 Y184.655 E21.6309
G1 X51.636 Y184.167 E21.65668
G1 X51.21 Y182.76 E21.73002
G1 X51.045 Y182.075 E21.76517
G1 X50.974 Y181.57 E21.79061
G1 X50.83 Y180.107 E21.86396
G1 X50.801 Y179.404 E21.89906
G1 X50.83 Y178.893 E21.92459
G1 X50.974 Y177.429 E21.99799
G1 X51.082 Y176.734 E22.03308
G1 X51.21 Y176.239 E22.05858
G1 X51.636 Y174.832 E22.13193
G1 X51.878 Y174.171 E22.16704
G1 X52.103 Y173.705 E22.19286
G1 X52.796 Y172.409 E22.26618
G1 X53.162 Y171.808 E22.30129
G1 X53.47 Y171.4 E22.32679
G1 X54.403 Y170.263 E22.40017
G1 X54.88 Y169.745 E22.4353
G1 X55.263 Y169.403 E22.46092
G1 X56.4 Y168.47 E22.5343
G1 X56.969 Y168.055 E22.56943
G1 X57.409 Y167.796 E22.59491
G1 X58.705 Y167.103 E22.66823
G1 X59.344 Y166.806 E22.70338
G0 F3600 X59.512 Y167.17
G1 F1350 X59.948 Y167.019 E22.7264
G1 X61.355 Y166.593 E22.79974
G1 X62.017 Y166.434 E22.83371
G1 X62.468 Y166.372 E22.85642
G1 X63.932 Y166.228 E22.92981
G1 X64.613 Y166.201 E22.96382
G1 X65.068 Y166.228 E22.98656
G1 X66.531 Y166.372 E23.0599
G1 X67.204 Y166.478 E23.09389
G1 X67.644 Y166.593 E23.11658
G1 X69.051 Y167.019 E23.18992
G1 X69.69 Y167.254 E23.22389
G1 X70.105 Y167.455 E23.24689
G1 X71.401 Y168.148 E23.32021
G1 X71.981 Y168.504 E23.35417
G1 X72.345 Y168.779 E23.37693
G1 X73.482 Y169.712 E23.4503
G1 X73.982 Y170.174 E23.48427
G1 X74.287 Y170.517 E23.50717
G1 X75.22 Y171.654 E23.58055
G1 X75.62 Y172.205 E23.61452
G1 X75.851 Y172.598 E23.63726
G1 X76.544 Y173.894 E23.71058
G1 X76.829 Y174.512 E23.74453
G1 X76.98 Y174.948 E23.76755
G1 X77.406 Y176.355 E23.84089
G1 X77.565 Y177.017 E23.87486
G1 X77.627 Y177.464 E23.89738
G1 X77.772 Y178.928 E23.97077
G1 X77.799 Y179.609 E24.00477
G1 X77.772 Y180.072 E24.02791
G1 X77.627 Y181.535 E24.10126
G1 X77.52 Y182.207 E24.13521
