;FLAVOR:UltiGCode
;TIME:2447
;MATERIAL:4430
;MATERIAL2:1911
;NOZZLE_DIAMETER:0.4
;MINX:78.411
;MINY:138.4
;MINZ:0.3
;MAXX:134.414
;MAXY:214.413
;MAXZ:20.9
;Generated with Cura_SteamEngine 4.1.0
M82 ;absolute extrusion mode
G28 ;Home
G1 Z15.0 F6000 ;Move the platform down 15mm
;Prime the extruder
G92 E0
G1 F200 E3
G92 E0
G92 E0
;Start E0
G92 E0
G10
;LAYER_COUNT:99
;LAYER:0
M107
G0 F3600 X102.768 Y176.806 Z0.3
;TYPE:SKIRT
G11
G1 F1800 X104.497 Y175.882 E0.23525
G1 X105.211 Y175.545 E0.32999
G1 X105.909 Y175.297 E0.41888
G1 X107.785 Y174.728 E0.65413
G1 X108.551 Y174.537 E0.74886
G1 X109.285 Y174.429 E0.83789
G1 X111.236 Y174.237 E1.07314
G1 X112.025 Y174.2 E1.16793
G1 X112.764 Y174.238 E1.25673
G1 X114.714 Y174.43 E1.49186
G1 X115.495 Y174.547 E1.58662
G1 X116.214 Y174.728 E1.67559
G1 X118.09 Y175.297 E1.91084
G1 X118.833 Y175.564 E2.00558
G1 X119.502 Y175.882 E2.09447
G1 X121.231 Y176.806 E2.32972
G1 X121.908 Y177.213 E2.42451
G1 X122.501 Y177.653 E2.51312
G1 X124.017 Y178.896 E2.74837
G1 X124.601 Y179.427 E2.84309
G1 X125.103 Y179.982 E2.93289
G1 X126.346 Y181.498 E3.16815
G1 X126.815 Y182.134 E3.26297
G1 X127.193 Y182.768 E3.35155
G1 X128.117 Y184.497 E3.5868
G1 X128.454 Y185.211 E3.68154
G1 X128.702 Y185.909 E3.77043
G1 X129.271 Y187.785 E4.00568
G1 X129.462 Y188.551 E4.10041
G1 X129.569 Y189.281 E4.18895
G1 X129.762 Y191.232 E4.42421
G1 X129.8 Y192.021 E4.519
G1 X129.762 Y192.768 E4.60876
G1 X129.569 Y194.718 E4.8439
G1 X129.452 Y195.499 E4.93867
G1 X129.271 Y196.214 E5.02717
G1 X128.702 Y198.09 E5.26242
G1 X128.435 Y198.833 E5.35716
G1 X128.117 Y199.502 E5.44605
G1 X127.193 Y201.231 E5.6813
G1 X126.786 Y201.908 E5.77609
G1 X126.346 Y202.501 E5.8647
G1 X125.103 Y204.017 E6.09995
G1 X124.572 Y204.601 E6.19467
G1 X124.017 Y205.103 E6.28447
G1 X122.501 Y206.346 E6.51972
G1 X121.865 Y206.815 E6.61455
G1 X121.231 Y207.193 E6.70313
G1 X119.502 Y208.117 E6.93838
G1 X118.788 Y208.454 E7.03312
G1 X118.09 Y208.702 E7.12201
G1 X116.214 Y209.271 E7.35726
G1 X115.448 Y209.462 E7.45199
G1 X114.718 Y209.569 E7.54053
G1 X112.768 Y209.762 E7.77567
G1 X111.979 Y209.8 E7.87046
G1 X111.232 Y209.762 E7.96022
G1 X109.281 Y209.569 E8.19548
G1 X108.5 Y209.452 E8.29025
G1 X107.785 Y209.271 E8.37875
G1 X105.909 Y208.702 E8.614
G1 X105.166 Y208.435 E8.70874
G1 X104.497 Y208.117 E8.79763
G1 X102.768 Y207.193 E9.03288
G1 X102.091 Y206.786 E9.12767
G1 X101.498 Y206.346 E9.21628
G1 X99.982 Y205.103 E9.45153
G1 X99.398 Y204.572 E9.54625
G1 X98.896 Y204.017 E9.63605
G1 X97.653 Y202.501 E9.8713
G1 X97.184 Y201.865 E9.96613
G1 X96.806 Y201.231 E10.05471
G1 X95.882 Y199.502 E10.28996
G1 X95.545 Y198.788 E10.3847
G1 X95.297 Y198.09 E10.47359
G1 X94.728 Y196.214 E10.70884
G1 X94.537 Y195.448 E10.80357
G1 X94.43 Y194.714 E10.89258
G1 X94.238 Y192.764 E11.12771
G1 X94.2 Y191.976 E11.22238
G1 X94.237 Y191.236 E11.31129
G1 X94.429 Y189.285 E11.54655
G1 X94.547 Y188.504 E11.64133
G1 X94.728 Y187.785 E11.7303
G1 X95.297 Y185.909 E11.96555
G1 X95.564 Y185.166 E12.06029
G1 X95.882 Y184.497 E12.14918
G1 X96.806 Y182.768 E12.38443
G1 X97.213 Y182.091 E12.47922
G1 X97.653 Y181.498 E12.56783
G1 X98.896 Y179.982 E12.80308
G1 X99.427 Y179.398 E12.8978
G1 X99.982 Y178.896 E12.9876
G1 X101.498 Y177.653 E13.22285
G1 X102.134 Y177.184 E13.31768
G1 X102.768 Y176.806 E13.40625
G0 F3600 X102.956 Y177.159
G1 F1800 X104.685 Y176.235 E13.6415
G1 X105.381 Y175.908 E13.73378
G1 X106.025 Y175.68 E13.81576
G1 X107.901 Y175.111 E14.05101
G1 X108.648 Y174.926 E14.14336
G1 X109.324 Y174.828 E14.22533
G1 X111.275 Y174.636 E14.46058
G1 X112.044 Y174.6 E14.55296
G1 X112.725 Y174.636 E14.63479
G1 X114.675 Y174.828 E14.86992
G1 X115.436 Y174.943 E14.96228
G1 X116.098 Y175.111 E15.04424
G1 X117.974 Y175.68 E15.27949
G1 X118.697 Y175.941 E15.37173
G1 X119.314 Y176.235 E15.45374
G1 X121.043 Y177.159 E15.68899
G1 X121.701 Y177.556 E15.78121
G1 X122.247 Y177.963 E15.86293
G1 X123.763 Y179.206 E16.09818
G1 X124.332 Y179.724 E16.19052
G1 X124.793 Y180.236 E16.27319
G1 X126.036 Y181.752 E16.50845
G1 X126.493 Y182.371 E16.60078
G1 X126.84 Y182.956 E16.6824
G1 X127.764 Y184.685 E16.91765
G1 X128.091 Y185.381 E17.00993
G1 X128.319 Y186.025 E17.09191
G1 X128.888 Y187.901 E17.32715
G1 X129.073 Y188.648 E17.4195
G1 X129.171 Y189.321 E17.50111
G1 X129.364 Y191.272 E17.73638
G1 X129.4 Y192.04 E17.82864
G1 X129.364 Y192.729 E17.91143
G1 X129.171 Y194.679 E18.14657
G1 X129.056 Y195.439 E18.23881
G1 X128.888 Y196.098 E18.32042
G1 X128.319 Y197.974 E18.55567
G1 X128.058 Y198.697 E18.64791
G1 X127.764 Y199.314 E18.72992
G1 X126.84 Y201.043 E18.96517
G1 X126.443 Y201.701 E19.05739
G1 X126.036 Y202.247 E19.13911
G1 X124.793 Y203.763 E19.37436
G1 X124.275 Y204.332 E19.4667
G1 X123.763 Y204.793 E19.54938
G1 X122.247 Y206.036 E19.78463
G1 X121.628 Y206.493 E19.87696
G1 X121.043 Y206.84 E19.95858
G1 X119.314 Y207.764 E20.19383
G1 X118.618 Y208.091 E20.28611
G1 X117.974 Y208.319 E20.36809
G1 X116.098 Y208.888 E20.60333
G1 X115.351 Y209.073 E20.69568
G1 X114.679 Y209.171 E20.77718
G1 X112.729 Y209.364 E21.01232
G1 X111.961 Y209.4 E21.10458
G1 X111.272 Y209.364 E21.18737
G1 X109.321 Y209.171 E21.42264
G1 X108.56 Y209.056 E21.51499
G1 X107.901 Y208.888 E21.5966
G1 X106.025 Y208.319 E21.83185
G1 X105.302 Y208.058 E21.92409
G1 X104.685 Y207.764 E22.0061
G1 X102.956 Y206.84 E22.24135
G1 X102.298 Y206.443 E22.33357
G1 X101.752 Y206.036 E22.41529
G1 X100.236 Y204.793 E22.65055
G1 X99.667 Y204.275 E22.74288
G1 X99.206 Y203.763 E22.82556
G1 X97.963 Y202.247 E23.06081
G1 X97.506 Y201.628 E23.15314
G1 X97.159 Y201.043 E23.23476
G1 X96.235 Y199.314 E23.47001
G1 X95.908 Y198.618 E23.56229
G1 X95.68 Y197.974 E23.64427
G1 X95.111 Y196.098 E23.87952
G1 X94.926 Y195.351 E23.97186
G1 X94.828 Y194.675 E24.05383
G1 X94.636 Y192.725 E24.28896
G1 X94.6 Y191.957 E24.38122
G1 X94.636 Y191.275 E24.46318
G1 X94.828 Y189.324 E24.69843
G1 X94.943 Y188.564 E24.79067
G1 X95.111 Y187.901 E24.87274
G1 X95.68 Y186.025 E25.10799
G1 X95.941 Y185.302 E25.20023
G1 X96.235 Y184.685 E25.28225
G1 X97.159 Y182.956 E25.51749
G1 X97.556 Y182.298 E25.60971
G1 X97.963 Y181.752 E25.69143
G1 X99.206 Y180.236 E25.92669
G1 X99.724 Y179.667 E26.01902
G1 X100.236 Y179.206 E26.1017
G1 X101.752 Y177.963 E26.33695
G1 X102.371 Y177.506 E26.42928
G1 X102.956 Y177.159 E26.5109
G0 F3600 X103.145 Y177.511
G1 F1800 X104.874 Y176.587 E26.74615
G1 X105.551 Y176.27 E26.83586
G1 X106.141 Y176.062 E26.91093
G1 X108.017 Y175.493 E27.14617
G1 X108.744 Y175.315 E27.23599
G1 X109.363 Y175.226 E27.31103
G1 X111.314 Y175.034 E27.54628
G1 X112.062 Y175 E27.63614
G1 X112.686 Y175.034 E27.71113
G1 X114.636 Y175.226 E27.94626
G1 X115.375 Y175.339 E28.03597
G1 X115.982 Y175.493 E28.11112
G1 X117.858 Y176.062 E28.34637
G1 X118.561 Y176.317 E28.4361
G1 X119.125 Y176.587 E28.51114
G1 X120.854 Y177.511 E28.74639
G1 X121.494 Y177.899 E28.8362
G1 X121.993 Y178.272 E28.91096
G1 X123.509 Y179.515 E29.14621
G1 X124.062 Y180.019 E29.236
G1 X124.484 Y180.49 E29.31189
G1 X125.727 Y182.006 E29.54714
G1 X126.17 Y182.609 E29.63693
G1 X126.488 Y183.145 E29.71171
G1 X127.412 Y184.874 E29.94696
G1 X127.729 Y185.551 E30.03667
G1 X127.937 Y186.141 E30.11174
G1 X128.506 Y188.017 E30.34699
G1 X128.684 Y188.744 E30.4368
G1 X128.773 Y189.36 E30.51149
G1 X128.966 Y191.311 E30.74675
G1 X129 Y192.058 E30.83649
G1 X128.966 Y192.689 E30.91232
G1 X128.773 Y194.639 E31.14746
G1 X128.66 Y195.379 E31.23729
G1 X128.506 Y195.982 E31.31197
G1 X127.937 Y197.858 E31.54722
G1 X127.682 Y198.561 E31.63696
G1 X127.412 Y199.125 E31.71199
G1 X126.488 Y200.854 E31.94724
G1 X126.1 Y201.494 E32.03705
G1 X125.727 Y201.993 E32.11181
G1 X124.484 Y203.509 E32.34707
G1 X123.98 Y204.062 E32.43685
G1 X123.509 Y204.484 E32.51274
G1 X121.993 Y205.727 E32.74799
G1 X121.39 Y206.17 E32.83778
G1 X120.854 Y206.488 E32.91257
G1 X119.125 Y207.412 E33.14782
G1 X118.448 Y207.729 E33.23752
G1 X117.858 Y207.937 E33.31259
G1 X115.982 Y208.506 E33.54784
G1 X115.255 Y208.684 E33.63766
G1 X114.639 Y208.773 E33.71234
G1 X112.689 Y208.966 E33.94749
G1 X111.942 Y209 E34.03722
G1 X111.311 Y208.966 E34.11305
G1 X109.36 Y208.773 E34.34831
G1 X108.62 Y208.66 E34.43814
G1 X108.017 Y208.506 E34.51283
G1 X106.141 Y207.937 E34.74807
G1 X105.438 Y207.682 E34.83781
G1 X104.874 Y207.412 E34.91285
G1 X103.145 Y206.488 E35.1481
G1 X102.505 Y206.1 E35.23791
G1 X102.006 Y205.727 E35.31267
G1 X100.49 Y204.484 E35.54792
G1 X99.937 Y203.98 E35.63771
G1 X99.515 Y203.509 E35.71359
G1 X98.272 Y201.993 E35.94884
G1 X97.829 Y201.39 E36.03863
G1 X97.511 Y200.854 E36.11342
G1 X96.587 Y199.125 E36.34867
G1 X96.27 Y198.448 E36.43838
G1 X96.062 Y197.858 E36.51345
G1 X95.493 Y195.982 E36.74869
G1 X95.315 Y195.255 E36.83851
G1 X95.226 Y194.636 E36.91355
G1 X95.034 Y192.686 E37.14869
G1 X95 Y191.939 E37.23842
G1 X95.034 Y191.314 E37.31353
G1 X95.226 Y189.363 E37.54878
G1 X95.339 Y188.624 E37.63849
G1 X95.493 Y188.017 E37.71364
G1 X96.062 Y186.141 E37.94889
G1 X96.317 Y185.438 E38.03862
G1 X96.587 Y184.874 E38.11366
G1 X97.511 Y183.145 E38.34891
G1 X97.899 Y182.505 E38.43872
G1 X98.272 Y182.006 E38.51348
G1 X99.515 Y180.49 E38.74873
G1 X100.019 Y179.937 E38.83852
G1 X100.49 Y179.515 E38.91441
G1 X102.006 Y178.272 E39.14966
G1 X102.609 Y177.829 E39.23945
G1 X103.145 Y177.511 E39.31424
G0 F3600 X103.333 Y177.864
G1 F1800 X105.062 Y176.94 E39.54948
G1 X105.721 Y176.633 E39.63672
G1 X106.257 Y176.445 E39.70489
G1 X108.133 Y175.876 E39.94013
G1 X108.839 Y175.704 E40.02733
G1 X109.403 Y175.624 E40.09569
G1 X111.354 Y175.432 E40.33094
G1 X112.079 Y175.4 E40.41802
G1 X112.647 Y175.432 E40.48629
G1 X114.597 Y175.624 E40.72142
G1 X115.315 Y175.735 E40.80861
G1 X115.866 Y175.876 E40.87686
G1 X117.742 Y176.445 E41.11211
G1 X118.424 Y176.694 E41.19923
G1 X118.937 Y176.94 E41.2675
G1 X120.666 Y177.864 E41.50275
G1 X121.287 Y178.241 E41.58993
G1 X121.74 Y178.581 E41.6579
G1 X123.256 Y179.824 E41.89315
G1 X123.791 Y180.315 E41.98029
G1 X124.175 Y180.743 E42.04929
G1 X125.418 Y182.259 E42.28454
G1 X125.847 Y182.846 E42.37179
G1 X126.135 Y183.333 E42.43968
G1 X127.059 Y185.062 E42.67493
G1 X127.366 Y185.721 E42.76217
G1 X127.554 Y186.257 E42.83033
G1 X128.123 Y188.133 E43.06558
G1 X128.295 Y188.839 E43.15278
G1 X128.375 Y189.399 E43.22066
G1 X128.568 Y191.35 E43.45592
G1 X128.6 Y192.076 E43.54313
G1 X128.568 Y192.65 E43.61211
G1 X128.375 Y194.6 E43.84726
G1 X128.264 Y195.318 E43.93444
G1 X128.123 Y195.866 E44.00234
G1 X127.554 Y197.742 E44.23759
G1 X127.305 Y198.424 E44.32471
G1 X127.059 Y198.937 E44.39299
G1 X126.135 Y200.666 E44.62824
G1 X125.758 Y201.287 E44.71541
G1 X125.418 Y201.74 E44.78338
G1 X124.175 Y203.256 E45.01863
G1 X123.684 Y203.791 E45.10577
G1 X123.256 Y204.175 E45.17477
G1 X121.74 Y205.418 E45.41003
G1 X121.153 Y205.847 E45.49727
G1 X120.666 Y206.135 E45.56517
G1 X118.937 Y207.059 E45.80042
G1 X118.278 Y207.366 E45.88766
G1 X117.742 Y207.554 E45.95582
G1 X115.866 Y208.123 E46.19107
G1 X115.16 Y208.295 E46.27826
G1 X114.6 Y208.375 E46.34615
G1 X112.65 Y208.568 E46.58129
G1 X111.924 Y208.6 E46.66849
G1 X111.35 Y208.568 E46.73748
G1 X109.399 Y208.375 E46.97274
G1 X108.681 Y208.264 E47.05993
G1 X108.133 Y208.123 E47.12783
G1 X106.257 Y207.554 E47.36308
G1 X105.575 Y207.305 E47.4502
G1 X105.062 Y207.059 E47.51847
G1 X103.333 Y206.135 E47.75372
G1 X102.712 Y205.758 E47.8409
G1 X102.259 Y205.418 E47.90887
G1 X100.743 Y204.175 E48.14412
G1 X100.208 Y203.684 E48.23126
G1 X99.824 Y203.256 E48.30026
G1 X98.581 Y201.74 E48.53551
G1 X98.152 Y201.153 E48.62276
G1 X97.864 Y200.666 E48.69065
G1 X96.94 Y198.937 E48.9259
G1 X96.633 Y198.278 E49.01314
G1 X96.445 Y197.742 E49.0813
G1 X95.876 Y195.866 E49.31655
G1 X95.704 Y195.16 E49.40375
G1 X95.624 Y194.597 E49.47199
G1 X95.432 Y192.647 E49.70712
G1 X95.4 Y191.921 E49.79432
G1 X95.432 Y191.354 E49.86247
G1 X95.624 Y189.403 E50.09772
G1 X95.735 Y188.685 E50.18491
G1 X95.876 Y188.133 E50.25327
G1 X96.445 Y186.257 E50.48852
G1 X96.694 Y185.575 E50.57564
G1 X96.94 Y185.062 E50.64392
G1 X97.864 Y183.333 E50.87917
G1 X98.241 Y182.712 E50.96634
G1 X98.581 Y182.259 E51.03431
G1 X99.824 Y180.743 E51.26956
G1 X100.315 Y180.208 E51.3567
G1 X100.743 Y179.824 E51.4257
G1 X102.259 Y178.581 E51.66096
G1 X102.846 Y178.152 E51.7482
G1 X103.333 Y177.864 E51.8161
G0 F3600 X103.522 Y178.217
G1 F1800 X105.251 Y177.293 E52.05135
G1 X105.889 Y176.997 E52.13575
G1 X106.373 Y176.828 E52.19726
G1 X108.249 Y176.259 E52.43251
G1 X108.934 Y176.093 E52.51709
G1 X109.442 Y176.022 E52.57864
G1 X111.393 Y175.83 E52.81389
G1 X112.096 Y175.801 E52.89833
G1 X112.608 Y175.83 E52.95986
G1 X114.558 Y176.022 E53.195
G1 X115.253 Y176.13 E53.2794
G1 X115.75 Y176.259 E53.34101
G1 X117.626 Y176.828 E53.57626
G1 X118.287 Y177.07 E53.66073
G1 X118.748 Y177.293 E53.72218
G1 X120.477 Y178.217 E53.95743
G1 X121.078 Y178.583 E54.04187
G1 X121.486 Y178.891 E54.10322
G1 X123.002 Y180.134 E54.33847
G1 X123.52 Y180.61 E54.42289
G1 X123.865 Y180.997 E54.4851
G1 X125.108 Y182.513 E54.72035
G1 X125.523 Y183.082 E54.80486
G1 X125.782 Y183.522 E54.86613
G1 X126.706 Y185.251 E55.10138
G1 X127.002 Y185.889 E55.18578
G1 X127.171 Y186.373 E55.2473
G1 X127.74 Y188.249 E55.48255
G1 X127.906 Y188.934 E55.56713
G1 X127.977 Y189.439 E55.62832
G1 X128.17 Y191.39 E55.86358
G1 X128.199 Y192.093 E55.94802
G1 X128.17 Y192.611 E56.01027
G1 X127.977 Y194.561 E56.24542
G1 X127.868 Y195.256 E56.32984
G1 X127.74 Y195.75 E56.39107
G1 X127.171 Y197.626 E56.62632
G1 X126.929 Y198.287 E56.71079
G1 X126.706 Y198.748 E56.77224
G1 X125.782 Y200.477 E57.00749
G1 X125.416 Y201.078 E57.09193
G1 X125.108 Y201.486 E57.15328
G1 X123.865 Y203.002 E57.38853
G1 X123.389 Y203.52 E57.47295
G1 X123.002 Y203.865 E57.53516
G1 X121.486 Y205.108 E57.77042
G1 X120.917 Y205.523 E57.85493
G1 X120.477 Y205.782 E57.9162
G1 X118.748 Y206.706 E58.15144
G1 X118.11 Y207.002 E58.23584
G1 X117.626 Y207.171 E58.29736
G1 X115.75 Y207.74 E58.53261
G1 X115.065 Y207.906 E58.61719
G1 X114.561 Y207.977 E58.67827
G1 X112.611 Y208.17 E58.91341
G1 X111.907 Y208.199 E58.99796
G1 X111.39 Y208.17 E59.0601
G1 X109.439 Y207.977 E59.29536
G1 X108.743 Y207.868 E59.3799
G1 X108.249 Y207.74 E59.44114
G1 X106.373 Y207.171 E59.67638
G1 X105.712 Y206.929 E59.76085
G1 X105.251 Y206.706 E59.8223
G1 X103.522 Y205.782 E60.05755
G1 X102.921 Y205.416 E60.14199
G1 X102.513 Y205.108 E60.20334
G1 X100.997 Y203.865 E60.43859
G1 X100.479 Y203.389 E60.52301
G1 X100.134 Y203.002 E60.58522
G1 X98.891 Y201.486 E60.82048
G1 X98.476 Y200.917 E60.90499
G1 X98.217 Y200.477 E60.96626
G1 X97.293 Y198.748 E61.20151
G1 X96.997 Y198.11 E61.2859
G1 X96.828 Y197.626 E61.34742
G1 X96.259 Y195.75 E61.58267
G1 X96.093 Y195.065 E61.66725
G1 X96.022 Y194.558 E61.72868
G1 X95.83 Y192.608 E61.96382
G1 X95.801 Y191.904 E62.04837
G1 X95.83 Y191.393 E62.10979
G1 X96.022 Y189.442 E62.34504
G1 X96.13 Y188.746 E62.42956
G1 X96.259 Y188.249 E62.49117
G1 X96.828 Y186.373 E62.72642
G1 X97.07 Y185.712 E62.81089
G1 X97.293 Y185.251 E62.87234
G1 X98.217 Y183.522 E63.10759
G1 X98.583 Y182.921 E63.19203
G1 X98.891 Y182.513 E63.25338
G1 X100.134 Y180.997 E63.48863
G1 X100.61 Y180.479 E63.57305
G1 X100.997 Y180.134 E63.63526
G1 X102.513 Y178.891 E63.87051
G1 X103.082 Y178.476 E63.95502
G1 X103.522 Y178.217 E64.01629
G0 F3600 X103.71 Y178.57
G1 F1800 X105.439 Y177.646 E64.25154
G1 X106.058 Y177.361 E64.33332
G1 X106.49 Y177.211 E64.38819
G1 X108.366 Y176.642 E64.62344
G1 X109.028 Y176.483 E64.70514
G1 X109.481 Y176.42 E64.76002
G1 X111.432 Y176.228 E64.99527
G1 X112.112 Y176.201 E65.07694
G1 X112.568 Y176.228 E65.13175
G1 X114.518 Y176.42 E65.36689
G1 X115.191 Y176.526 E65.44864
G1 X115.633 Y176.642 E65.50348
G1 X117.509 Y177.211 E65.73872
G1 X118.148 Y177.446 E65.82043
G1 X118.56 Y177.646 E65.87538
G1 X120.289 Y178.57 E66.11063
G1 X120.869 Y178.925 E66.19223
G1 X121.232 Y179.2 E66.24688
G1 X122.748 Y180.443 E66.48214
G1 X123.249 Y180.905 E66.56392
G1 X123.556 Y181.251 E66.61942
G1 X124.799 Y182.767 E66.85468
G1 X125.199 Y183.318 E66.93638
G1 X125.429 Y183.71 E66.99092
G1 X126.353 Y185.439 E67.22617
G1 X126.638 Y186.058 E67.30794
G1 X126.788 Y186.49 E67.36282
G1 X127.357 Y188.366 E67.59807
